Kodak Converted/Kodak Portra 800 ++.cube
# Exported with LUT Lab 1.2.1
# LUTLab.com
TITLE Kodak Portra 800 4 ++
LUT_3D_SIZE 5
0.04705882 0.12941176 0.17254902
0.22941176 0.13431373 0.17254902
0.5745098 0.13333333 0.16470588
0.94411765 0.17745098 0.12941176
1 0.30980392 0.0627451
0.02058824 0.22941176 0.19215686
0.1872549 0.25294118 0.17745098
0.55637255 0.28823529 0.15098039
0.91642157 0.33995098 0.09877451
1 0.41372549 0
0 0.45490196 0.21176471
0.04264706 0.4504902 0.20980392
0.46862745 0.54901961 0.11960784
0.86666667 0.60147059 0
1 0.60588235 0
0 0.72941176 0.23235294
0 0.7245098 0.23088235
0.36715686 0.7504902 0.19313725
0.76691176 0.81372549 0
1 0.84509804 0
0.47843137 0.97254902 0.54901961
0.5254902 0.96960784 0.55392157
0.63921569 0.96862745 0.56470588
0.78921569 0.98333333 0.51176471
0.97254902 0.99607843 0.31372549
0.03529412 0.13333333 0.29607843
0.24117647 0.1254902 0.3
0.60588235 0 0.29607843
0.95 0.13382353 0.29289216
1 0.30098039 0.27156863
0.03039216 0.25294118 0.28455882
0.22022059 0.26599265 0.29362745
0.59117647 0.28676471 0.29068627
0.93063725 0.3245098 0.26997549
1 0.40955882 0.2495098
0 0.50392157 0.31372549
0.12830882 0.49411765 0.30490196
0.49362745 0.55931373 0.2629902
0.87071078 0.58198529 0.19252451
1 0.6004902 0.15441176
0 0.7504902 0.33039216
0 0.74497549 0.3278799
0.38480392 0.74791667 0.30588235
0.7752451 0.81556373 0.22310049
1 0.83970588 0
0.50196078 0.97254902 0.59607843
0.54436275 0.96887255 0.59681373
0.6504902 0.96862745 0.60686275
0.79313725 0.98063725 0.57083333
0.97254902 0.99509804 0.42254902
0 0.1254902 0.60392157
0.29117647 0.10441176 0.61568627
0.66078431 0 0.64313725
0.96470588 0 0.60784314
1 0 0.54117647
0 0.26078431 0.59215686
0.24595588 0.27046569 0.61004902
0.6502451 0.24803922 0.63431373
0.95759804 0.1877451 0.59681373
1 0.3495098 0.55294118
0 0.55784314 0.56176471
0.20563725 0.56936275 0.57034314
0.56715686 0.5872549 0.58431373
0.88308824 0.61568627 0.58504902
1 0.65686275 0.58431373
0.27205882 0.79411765 0.5995098
0.38296569 0.7932598 0.60208333
0.49803922 0.77377451 0.55686275
0.7942402 0.82083333 0.54485294
1 0.82696078 0.4877451
0.56078431 0.9745098 0.70784314
0.59166667 0.97303922 0.70833333
0.67647059 0.97254902 0.70784314
0.80147059 0.97745098 0.7
0.96862745 0.99215686 0.62941176
0.17058824 0.10980392 0.87156863
0.36666667 0.07916667 0.8745098
0.675 0 0.88137255
0.96176471 0 0.89044118
1 0 0.85294118
0.07867647 0.27328431 0.86348039
0.33927696 0.27254902 0.86580882
0.66605392 0.27156863 0.87622549
0.94926471 0.290625 0.88590686
1 0.32254902 0.84803922
0 0.54509804 0.8254902
0.13590686 0.55220588 0.83333333
0.60857843 0.58578431 0.84656863
0.89877451 0.63112745 0.86397059
1 0.64264706 0.84411765
0.29387255 0.81838235 0.81078431
0.41672794 0.82156863 0.81666667
0.62769608 0.8254902 0.81813725
0.83645833 0.8403799 0.83406863
1 0.86470588 0.84509804
0.68235294 0.97647059 0.86764706
0.70367647 0.97818627 0.86936275
0.76715686 0.97696078 0.86960784
0.82941176 0.97720588 0.84901961
0.97254902 0.99215686 0.84019608
0.43137255 0.2 1
0.52058824 0.19705882 1
0.71764706 0.2 1
0.92745098 0.26372549 1
1 0.34901961 1
0.43823529 0.35392157 1
0.5252451 0.35563725 1
0.71519608 0.37009804 1
0.91936275 0.43161765 1
1 0.49411765 1
0.42156863 0.60784314 1
0.52009804 0.61862745 1
0.70294118 0.63333333 1
0.89117647 0.67107843 1
1 0.70980392 1
0.41568627 0.82156863 0.99215686
0.48112745 0.82156863 0.99215686
0.63529412 0.82107843 0.99607843
0.85980392 0.84901961 0.99289216
1 0.87941176 0.99215686
0.70196078 0.98431373 0.98431373
0.7254902 0.98431373 0.98529412
0.79215686 0.98627451 0.98627451
0.88333333 0.98529412 0.98529412
0.99215686 0.99215686 0.99215686
