Kodak Converted/Kodak Kodachrome 200.cube
# Exported with LUT Lab 1.2.1
# LUTLab.com
TITLE Kodak Kodachrome 200
LUT_3D_SIZE 5
0 0 0
0.15882353 0 0
0.49215686 0 0.00392157
0.75098039 0 0.00784314
0.91764706 0 0.01176471
0.08627451 0.20588235 0.08921569
0.22843137 0.20588235 0.09313725
0.5372549 0.19803922 0.10098039
0.77352941 0.17843137 0.08921569
0.93627451 0.15 0.05784314
0.13529412 0.5254902 0.25882353
0.32647059 0.5254902 0.26078431
0.57647059 0.5254902 0.25686275
0.78235294 0.52156863 0.22941176
0.94509804 0.50980392 0.18235294
0.41666667 0.73823529 0.46764706
0.48406863 0.73823529 0.46764706
0.62941176 0.73823529 0.46372549
0.79313725 0.73529412 0.44117647
0.95294118 0.73137255 0.37843137
0.59215686 0.94901961 0.66666667
0.61960784 0.94901961 0.66666667
0.7 0.95294118 0.66666667
0.82843137 0.95294118 0.6627451
0.98823529 0.95294118 0.63529412
0 0 0.06960784
0.14705882 0 0.07352941
0.49019608 0 0.08137255
0.75098039 0 0.07058824
0.92156863 0 0.04215686
0.0745098 0.20269608 0.20955882
0.2161152 0.20196078 0.21366422
0.53259804 0.19411765 0.21482843
0.76905637 0.17671569 0.19019608
0.93333333 0.14607843 0.13921569
0.1004902 0.52941176 0.38333333
0.30980392 0.52941176 0.38676471
0.56568627 0.52745098 0.38676471
0.77352941 0.52156863 0.36666667
0.93970588 0.50980392 0.31029412
0.40588235 0.73921569 0.54215686
0.4745098 0.73921569 0.54509804
0.62046569 0.73921569 0.54509804
0.78529412 0.73823529 0.53468137
0.94509804 0.73431373 0.50196078
0.58823529 0.95294118 0.70588235
0.61568627 0.95294118 0.70588235
0.69607843 0.95686275 0.70882353
0.8245098 0.95686275 0.70588235
0.98431373 0.95686275 0.68921569
0 0 0.25490196
0.12352941 0 0.26421569
0.4754902 0 0.2745098
0.73872549 0 0.2627451
0.91372549 0 0.21568627
0.05784314 0.19411765 0.38921569
0.18970588 0.19166667 0.39473039
0.51593137 0.18235294 0.40490196
0.75098039 0.1627451 0.40098039
0.91764706 0.13088235 0.36764706
0.03235294 0.52941176 0.52941176
0.28112745 0.52941176 0.5372549
0.54901961 0.5254902 0.54509804
0.75784314 0.52156863 0.54509804
0.9254902 0.50686275 0.5254902
0.38382353 0.74215686 0.64803922
0.45882353 0.74215686 0.65
0.60686275 0.74215686 0.65392157
0.77487745 0.73921569 0.65539216
0.9372549 0.73529412 0.64607843
0.57843137 0.96470588 0.77647059
0.60784314 0.96470588 0.77647059
0.68823529 0.96470588 0.78039216
0.81666667 0.96862745 0.78235294
0.98823529 0.96862745 0.7745098
0 0 0.4245098
0.08823529 0 0.43627451
0.45490196 0 0.45539216
0.72181373 0 0.46372549
0.89411765 0 0.45588235
0.03039216 0.16642157 0.51838235
0.15729167 0.1625 0.52604167
0.49742647 0.15208333 0.54117647
0.73805147 0.13131127 0.54583333
0.90563725 0.09926471 0.5379902
0 0.52156863 0.64166667
0.23627451 0.52107843 0.64718137
0.53333333 0.51764706 0.65784314
0.74681373 0.50980392 0.66519608
0.91764706 0.49558824 0.66176471
0.35 0.74215686 0.74313725
0.43210784 0.74160539 0.74705882
0.59105392 0.73921569 0.75355392
0.76568627 0.73823529 0.75882353
0.93333333 0.73431373 0.75882353
0.56078431 0.97254902 0.85980392
0.59215686 0.97352941 0.8627451
0.67647059 0.97647059 0.86715686
0.80882353 0.98039216 0.87156863
0.99215686 0.98039216 0.87156863
0 0 0.51372549
0.05294118 0 0.5254902
0.43333333 0 0.54705882
0.71078431 0 0.56078431
0.89019608 0 0.56470588
0.00784314 0.12352941 0.59509804
0.11568627 0.11960784 0.60220588
0.4745098 0.10784314 0.61862745
0.72352941 0.08823529 0.62745098
0.89411765 0.06078431 0.62745098
0 0.50196078 0.71764706
0.16666667 0.50196078 0.72352941
0.51372549 0.49803922 0.73823529
0.73823529 0.48823529 0.74705882
0.90980392 0.46862745 0.75098039
0.28921569 0.73431373 0.8245098
0.39215686 0.73431373 0.82843137
0.56764706 0.73431373 0.83627451
0.75171569 0.73137255 0.84411765
0.92647059 0.72647059 0.85196078
0.52941176 0.98039216 0.95294118
0.56078431 0.98039216 0.95686275
0.65098039 0.98431373 0.96470588
0.78921569 0.98823529 0.97647059
1 0.99607843 0.99607843
