Kodak Converted/Kodak Portra 160.cube
# Exported with LUT Lab 1.2.1
# LUTLab.com
TITLE Kodak Portra 160 2
LUT_3D_SIZE 9
0.00392157 0.00784314 0.00784314
0.06176471 0.01127451 0.00784314
0.19019608 0.00882353 0.00392157
0.38235294 0 0
0.58627451 0 0
0.74656863 0 0
0.85784314 0 0
0.95735294 0.04803922 0
1 0.16862745 0
0.00784314 0.0622549 0.00784314
0.0504902 0.07052696 0.00484069
0.21372549 0.09705882 0
0.40863971 0.09050245 0
0.6 0.05857843 0
0.75196078 0.05784314 0
0.86066176 0.1057598 0
0.95735294 0.16813725 0
1 0.23088235 0
0 0.18921569 0
0.02389706 0.18921569 0
0.16740196 0.21053922 0
0.41041667 0.2682598 0
0.63431373 0.27696078 0
0.76335784 0.27941176 0
0.86446078 0.2872549 0
0.9564951 0.30441176 0
1 0.33529412 0
0 0.35 0
0 0.34852941 0
0.16568627 0.35686275 0
0.35036765 0.39405637 0
0.57990196 0.45196078 0
0.75196078 0.45833333 0
0.86764706 0.44987745 0
0.95753676 0.44803922 0
1 0.45735294 0
0 0.49607843 0
0 0.49068627 0
0.16813725 0.48039216 0
0.33627451 0.50318627 0
0.50686275 0.53235294 0
0.6879902 0.58553922 0
0.82941176 0.58970588 0
0.95392157 0.58014706 0
1 0.57254902 0
0.07254902 0.60294118 0
0.14705882 0.60508578 0
0.23186275 0.58970588 0
0.35055147 0.59362745 0
0.49019608 0.61593137 0
0.62647059 0.64307598 0
0.77696078 0.68872549 0
0.91078431 0.69705882 0
1 0.69068627 0
0.2627451 0.70490196 0.05
0.28615196 0.70392157 0.04154412
0.33063725 0.69607843 0.0129902
0.39411765 0.68284314 0
0.50441176 0.6995098 0
0.61421569 0.71960784 0.01470588
0.7245098 0.73995098 0.0502451
0.86409314 0.78223039 0.10343137
1 0.79803922 0
0.4004902 0.81176471 0.2245098
0.41268382 0.80882353 0.22193627
0.43921569 0.80232843 0.21323529
0.48265931 0.79656863 0.19705882
0.54779412 0.79705882 0.18970588
0.64068627 0.81403186 0.21292892
0.73566176 0.83186275 0.2372549
0.83976716 0.85147059 0.26372549
0.96421569 0.88284314 0.29852941
0.5372549 0.94117647 0.44313725
0.54509804 0.94117647 0.44313725
0.56470588 0.94117647 0.44019608
0.59852941 0.94117647 0.43921569
0.64509804 0.9372549 0.43921569
0.7127451 0.94656863 0.44852941
0.78921569 0.95980392 0.4627451
0.875 0.97254902 0.47892157
0.96078431 0.98431373 0.49803922
0.00784314 0.01176471 0.0622549
0.0622549 0.01476716 0.06568627
0.19693627 0 0.07389706
0.38382353 0 0.06697304
0.58063725 0 0.05955882
0.73890931 0 0.03645833
0.85208333 0 0.00943627
0.9495098 0.00104167 0
1 0.15343137 0
0 0.08137255 0.06617647
0.06573989 0.08217678 0.07003676
0.21253064 0.08147978 0.06885723
0.40314032 0.05724571 0.06034773
0.59803922 0.00021446 0.0403799
0.74787837 0 0.01062347
0.85614277 0.07020527 0
0.95042892 0.14939491 0
1 0.22261029 0
0 0.22009804 0.07254902
0.04918811 0.21328125 0.06960784
0.18943015 0.22472426 0.06112132
0.43423713 0.26395527 0.00214461
0.63082108 0.25974265 0
0.75890012 0.26001838 0
0.8604473 0.27328431 0
0.95347733 0.29923407 0
1 0.33051471 0
0 0.37481618 0.046875
0 0.37303922 0.04544271
0.18235294 0.36824449 0.03472733
0.36462163 0.40098039 0.0017693
0.59142157 0.45196078 0
0.75735294 0.45140931 0
0.86412377 0.4424326 0
0.9571921 0.4439185 0
1 0.45196078 0
0 0.51348039 0.02745098
0.02720588 0.50827206 0.02377451
0.19007353 0.49191176 0.01029412
0.34810049 0.50922181 0
0.51531863 0.53897059 0
0.69126838 0.58514093 0
0.83094363 0.58651961 0
0.95738358 0.57472426 0
1 0.57034314 0
0.12420343 0.61323529 0.07058824
0.17845435 0.61292892 0.07058824
0.25280331 0.59995404 0.05093444
0.35905331 0.59655331 0.03069087
0.49427083 0.61740196 0.02794118
0.62880668 0.64596354 0.03959099
0.77792586 0.69166667 0.01951593
0.9113511 0.69574908 0
1 0.68792892 0
0.27843137 0.70882353 0.15110294
0.303125 0.70788909 0.14984681
0.34381127 0.7 0.13471201
0.40223652 0.68704044 0.10410539
0.50661765 0.69981618 0.11715686
0.61564032 0.71920956 0.1368413
0.72745098 0.7421875 0.16219363
0.86410846 0.78460478 0.1944087
1 0.79803922 0.12806373
0.40447304 0.81231618 0.26764706
0.41698836 0.80931373 0.26764706
0.44304534 0.80770527 0.25958946
0.48687194 0.80035233 0.2417739
0.55104167 0.79877451 0.23385417
0.63854167 0.8127451 0.25324755
0.73818934 0.83186275 0.27887561
0.84014246 0.85109528 0.30282629
0.96035539 0.88241422 0.33731618
0.5372549 0.94509804 0.45882353
0.54552696 0.94160539 0.45925245
0.56776961 0.94129902 0.45796569
0.6 0.93903186 0.45618873
0.64509804 0.94093137 0.45465686
0.71176471 0.94901961 0.46305147
0.78933824 0.95955882 0.47806373
0.87199755 0.96954657 0.4911152
0.96078431 0.98431373 0.50980392
0 0.01960784 0.22058824
0.05882353 0.01568627 0.22071078
0.2120098 0.00392157 0.2245098
0.41862745 0 0.24117647
0.61323529 0 0.24019608
0.74656863 0 0.21911765
0.84044118 0 0.21740196
0.94166667 0.00171569 0.21654412
1 0.15980392 0.21568627
0 0.09705882 0.22058824
0.05882353 0.10098039 0.22570466
0.22257966 0.10591299 0.23042279
0.42719056 0.08962929 0.24108456
0.61127451 0 0.2338848
0.7408701 0 0.21449142
0.84473039 0.06063113 0.21574755
0.94178922 0.14852941 0.20905331
1 0.22683824 0.2127451
0 0.25122549 0.22769608
0.00321691 0.25260417 0.23005515
0.23621324 0.25061275 0.23664216
0.43872549 0.24803922 0.23235294
0.61642157 0.2439951 0.22401961
0.74623162 0.24785539 0.21302083
0.84957108 0.26525735 0.20490196
0.94289216 0.29494485 0.19754902
1 0.33112745 0.2004902
0 0.42169118 0.21727941
0.00693934 0.42437194 0.22783395
0.24065564 0.40465686 0.234375
0.40050551 0.42242647 0.23235294
0.61145833 0.44846814 0.2088848
0.75723039 0.43849571 0.18800551
0.85340074 0.43324142 0.18121936
0.94730392 0.43959865 0.17647059
1 0.45196078 0.17745098
0.09313725 0.54852941 0.25196078
0.16746324 0.54417892 0.24785539
0.26017157 0.52659314 0.23272059
0.37610294 0.52052696 0.22310049
0.53210784 0.5495098 0.23235294
0.70061275 0.58682598 0.22095588
0.8370098 0.58357843 0.17916667
0.95349265 0.57230392 0.13903186
1 0.56715686 0.13039216
0.21727941 0.63615196 0.26017157
0.25275735 0.63434436 0.26024816
0.30848652 0.62328431 0.24684436
0.38025429 0.60317096 0.22359069
0.50821078 0.62408088 0.23535539
0.63492647 0.64969363 0.25335478
0.78088235 0.6919424 0.26155025
0.91300551 0.69535846 0.21778493
1 0.68713235 0.13566176
0.31985294 0.72279412 0.29117647
0.33838848 0.71960784 0.28946078
0.375 0.71286765 0.27689951
0.4260723 0.6997549 0.25392157
0.51041667 0.70036765 0.2504902
0.61896446 0.72117034 0.27141544
0.72892157 0.74442402 0.29613971
0.86838235 0.78728554 0.3260723
1 0.79656863 0.29044118
0.42009804 0.81752451 0.3567402
0.4317402 0.81660539 0.35669424
0.45612745 0.81292892 0.34852941
0.49394914 0.80490196 0.32973346
0.5497549 0.79877451 0.31194853
0.64073223 0.8138174 0.3328125
0.73599877 0.83186275 0.35606618
0.83987439 0.84926471 0.37994792
0.96470588 0.88676471 0.41384804
0.54117647 0.94509804 0.49803922
0.55 0.94509804 0.49803922
0.56862745 0.94142157 0.49485294
0.60183824 0.94301471 0.49313725
0.64656863 0.94117647 0.48921569
0.71127451 0.94656863 0.49558824
0.78946078 0.95710784 0.50906863
0.87156863 0.9689951 0.525
0.96372549 0.98431373 0.54411765
0 0.02598039 0.43088235
0 0.02205882 0.43480392
0.24019608 0.01176471 0.44019608
0.4372549 0 0.44656863
0.63014706 0 0.45122549
0.77457108 0.01470588 0.44656863
0.86335784 0.06384804 0.42205882
0.94430147 0.12371324 0.403125
1 0.17598039 0.39166667
0 0.12303922 0.42941176
0 0.12683824 0.43476562
0.25188419 0.1333027 0.44064032
0.44364277 0.13254442 0.44676011
0.63333333 0.13397672 0.45441176
0.76537224 0.16575521 0.44417892
0.85588235 0.17357537 0.41925551
0.93796722 0.19656863 0.39967065
1 0.25557598 0.40226716
0 0.26090686 0.42316176
0 0.26518076 0.42913603
0.25943627 0.28085172 0.43982843
0.45335478 0.30009191 0.4509038
0.62800245 0.31838235 0.45496324
0.74549632 0.30428922 0.43350184
0.83728554 0.29568015 0.40854779
0.91986826 0.32166054 0.40277267
1 0.35477941 0.40477941
0 0.4588848 0.43235294
0 0.46432292 0.43927696
0.2645527 0.46041667 0.44126838
0.45026042 0.450697 0.44230239
0.60438113 0.44188113 0.42889093
0.72428002 0.43849571 0.41796875
0.82856924 0.44226409 0.40882353
0.92395067 0.44755668 0.40031403
1 0.4622549 0.3995098
0.13431373 0.59142157 0.41789216
0.22239583 0.5895527 0.42362132
0.33676471 0.57941176 0.42843137
0.44188113 0.55297181 0.42349877
0.55784314 0.56629902 0.42732843
0.71124387 0.58897059 0.42303922
0.83823529 0.57990196 0.40686275
0.93275123 0.57230392 0.39436275
1 0.57181373 0.3870098
0.2966299 0.67058824 0.43045343
0.35301011 0.66978401 0.44546569
0.39791667 0.659375 0.43872549
0.44746477 0.63864124 0.41370251
0.52821691 0.63360907 0.40174632
0.64552696 0.659375 0.42324602
0.78742341 0.69511336 0.4317402
0.91715686 0.69295343 0.40844822
1 0.68137255 0.37506127
0.38651961 0.74313725 0.44963235
0.40036765 0.74159007 0.44532782
0.42699142 0.7325674 0.43406863
0.46755515 0.72140012 0.41372549
0.51905637 0.7036152 0.38474265
0.62444853 0.72444853 0.40602022
0.73318015 0.74877451 0.43195466
0.8725337 0.78772978 0.45142463
1 0.79473039 0.43039216
0.44607843 0.82824755 0.46942402
0.45762868 0.8301777 0.46819087
0.47751225 0.82492341 0.46021752
0.51017923 0.81672794 0.44172028
0.55618873 0.80471814 0.41844363
0.63628217 0.81263021 0.42383578
0.73475797 0.83186275 0.44640012
0.84250153 0.85153186 0.47336857
0.96991422 0.89068627 0.50471814
0.54901961 0.94901961 0.55686275
0.55814951 0.94901961 0.55900735
0.57585784 0.94901961 0.55539216
0.60637255 0.94901961 0.55147059
0.64901961 0.94509804 0.54240196
0.70790441 0.94748775 0.54117647
0.78958333 0.96078431 0.5557598
0.875 0.97254902 0.5723652
0.96323529 0.98431373 0.58676471
0 0.05686275 0.6
0 0.05686275 0.60392157
0.275 0.0622549 0.60931373
0.46372549 0.08284314 0.61495098
0.63333333 0.10980392 0.61862745
0.76617647 0.14485294 0.61176471
0.86960784 0.27647059 0.60196078
0.95318627 0.31764706 0.58995098
1 0.34117647 0.57647059
0 0.15833333 0.59656863
0.06001838 0.16375613 0.60196078
0.28903186 0.17310049 0.60723039
0.47156863 0.19525123 0.61372549
0.63039216 0.21764706 0.61666667
0.75995711 0.24451593 0.61151961
0.86427696 0.33866422 0.60435049
0.94411765 0.35272672 0.58651961
1 0.37034314 0.57671569
0 0.29901961 0.59117647
0.10906863 0.30520833 0.59742647
0.30710784 0.31752451 0.60257353
0.47892157 0.34142157 0.60814951
0.62352941 0.36397059 0.61176471
0.74675245 0.38382353 0.60637255
0.84816176 0.42794118 0.60269608
0.93094363 0.42003676 0.58400735
1 0.42058824 0.57156863
0 0.45196078 0.58039216
0.09329044 0.45637255 0.58504902
0.30116422 0.45177696 0.58370098
0.47493873 0.47447917 0.59338235
0.60955882 0.49485294 0.60134804
0.72889093 0.51271446 0.60272672
0.82181373 0.50245098 0.5870098
0.91127451 0.48348652 0.56534926
1 0.47426471 0.54901961
0.09901961 0.61372549 0.58627451
0.21384804 0.61568627 0.58909314
0.34705882 0.60980392 0.5875
0.47879902 0.60257353 0.58688725
0.59264706 0.59166667 0.58480392
0.70355392 0.58492647 0.5745098
0.80514706 0.57867647 0.56397059
0.90735294 0.57438725 0.55367647
1 0.5745098 0.54607843
0.36421569 0.70588235 0.56862745
0.39656863 0.70661765 0.57377451
0.44803922 0.6995098 0.57493873
0.51421569 0.68970588 0.57591912
0.57316176 0.66164216 0.56066176
0.66495098 0.67371324 0.56590074
0.79926471 0.69742647 0.56832108
0.925 0.68912377 0.55294118
1 0.68137255 0.54313725
0.41960784 0.7745098 0.56715686
0.4379902 0.77420343 0.56862745
0.47622549 0.76887255 0.57022059
0.5314951 0.75428922 0.56930147
0.56421569 0.73357843 0.5379902
0.63265931 0.72916667 0.52653186
0.74436275 0.75759804 0.5564951
0.88223039 0.79019608 0.56758578
1 0.79166667 0.55245098
0.49852941 0.8497549 0.59240196
0.50634191 0.84800858 0.59065564
0.52303922 0.84552696 0.58425245
0.54656863 0.83587623 0.56675858
0.58161765 0.82316176 0.54215686
0.63302696 0.80867034 0.51390931
0.73676471 0.83204657 0.54117647
0.84632353 0.85416667 0.56911765
0.98014706 0.89852941 0.59460784
0.56470588 0.95686275 0.62941176
0.57254902 0.95686275 0.63308824
0.5877451 0.95343137 0.62598039
0.61691176 0.95416667 0.62156863
0.65392157 0.95196078 0.61176471
0.70588235 0.94901961 0.59926471
0.78627451 0.95784314 0.60980392
0.87867647 0.97254902 0.62745098
0.96470588 0.98431373 0.64509804
0.02990196 0.12303922 0.71911765
0.17990196 0.12873775 0.71844363
0.33455882 0.14375 0.72120098
0.49264706 0.17702206 0.72604167
0.62941176 0.23480392 0.72965686
0.74957108 0.28045343 0.72696078
0.85477941 0.31139706 0.71911765
0.94607843 0.40882353 0.7153799
1 0.48137255 0.71421569
0.11341912 0.2122549 0.71519608
0.2158701 0.22009804 0.71884957
0.35459559 0.23120404 0.72175245
0.49882812 0.25795803 0.72303922
0.62925858 0.30481005 0.72588848
0.74522825 0.34081648 0.72573529
0.85085784 0.36519608 0.7203125
0.94229473 0.44705882 0.71535692
1 0.50098039 0.71648284
0.18517157 0.34546569 0.71029412
0.2569087 0.35111826 0.7129136
0.37542892 0.36182598 0.71473652
0.50625 0.38460478 0.71781556
0.62579657 0.41795343 0.72071078
0.7350337 0.44287684 0.72081801
0.84065564 0.46124387 0.71841299
0.93458946 0.51703431 0.71904105
1 0.54031863 0.71421569
0.19019608 0.46427696 0.69313725
0.27284773 0.47296262 0.69770987
0.39387255 0.48849571 0.70098039
0.50611213 0.50106464 0.70455729
0.62061887 0.52671569 0.70928309
0.7245481 0.54908088 0.71519608
0.82487745 0.56098346 0.71335784
0.92444853 0.59443168 0.7185049
1 0.58394608 0.70882353
0.24264706 0.6004902 0.68897059
0.29705882 0.59990809 0.68943015
0.38694853 0.59613971 0.68792892
0.49114583 0.59047181 0.68606005
0.61151961 0.61017157 0.69436275
0.7127451 0.63210784 0.70490196
0.81629902 0.64558824 0.71145833
0.90735294 0.63241422 0.69966299
1 0.61078431 0.68210784
0.34319853 0.72058824 0.69221814
0.37910539 0.72192862 0.69546569
0.44287684 0.71914828 0.69520527
0.52459406 0.71462163 0.6948989
0.61072304 0.70643382 0.6919424
0.69859069 0.69801624 0.68864124
0.79705882 0.69036458 0.67990196
0.89784007 0.68130362 0.66953891
1 0.6783701 0.66268382
0.49754902 0.80698529 0.68811275
0.51260723 0.80684743 0.68969056
0.54154412 0.80416667 0.68893995
0.58178615 0.79522059 0.68769914
0.62824755 0.78112745 0.68167892
0.67329963 0.7535386 0.65991115
0.76384804 0.76776961 0.66979167
0.89901961 0.79019608 0.67400429
1 0.78419118 0.66458333
0.51911765 0.87628676 0.68137255
0.53115043 0.87529105 0.68164062
0.55242034 0.87411152 0.68293505
0.58266697 0.86623775 0.67726716
0.63921569 0.85284926 0.67613358
0.66733303 0.83197763 0.64349724
0.74082414 0.83223039 0.63535539
0.85772059 0.85906863 0.66413143
0.98952206 0.89509804 0.68167892
0.56715686 0.97009804 0.70343137
0.57892157 0.96862745 0.70373775
0.61139706 0.96678922 0.71127451
0.64460784 0.96470588 0.709375
0.67401961 0.96151961 0.69705882
0.71856618 0.95870098 0.68382353
0.7817402 0.96078431 0.67205882
0.87892157 0.97273284 0.69166667
0.97254902 0.98578431 0.71127451
0.27647059 0.2254902 0.81666667
0.32610294 0.23235294 0.81666667
0.41789216 0.24803922 0.81666667
0.52794118 0.27904412 0.81666667
0.6377451 0.32892157 0.81862745
0.73982843 0.3942402 0.82058824
0.83946078 0.42622549 0.82058824
0.93860294 0.44056373 0.81446078
1 0.52254902 0.8127451
0.2995098 0.29068627 0.81262255
0.34601716 0.30153186 0.81574755
0.42910539 0.31167279 0.81348039
0.5341299 0.33943015 0.81544118
0.63897059 0.38155637 0.81666667
0.73818934 0.43529412 0.82005208
0.83370098 0.46066176 0.81727941
0.93382353 0.47028186 0.81334252
1 0.54473039 0.81286765
0.3379902 0.40367647 0.80563725
0.37729779 0.40845588 0.80680147
0.44742647 0.41936275 0.80698529
0.54181985 0.43768382 0.80955882
0.64080882 0.46960784 0.81237745
0.73590686 0.50931373 0.81651348
0.83155637 0.52935049 0.81666667
0.92533701 0.5348652 0.8120098
1 0.59019608 0.81495098
0.36605392 0.51262255 0.7935049
0.40240502 0.5189951 0.79715074
0.4627451 0.52444853 0.79785539
0.54816176 0.53976716 0.80098039
0.64080882 0.55980392 0.80398284
0.73365502 0.58967525 0.8104473
0.8252451 0.6060049 0.8127451
0.91657475 0.60873162 0.80909926
1 0.64669118 0.81482843
0.33921569 0.59215686 0.77843137
0.37616422 0.59528186 0.78186275
0.45012255 0.60551471 0.78492647
0.54301471 0.61960784 0.78829657
0.63578431 0.63504902 0.79460784
0.73088235 0.65992647 0.80404412
0.81960784 0.67316176 0.80747549
0.91403186 0.67873775 0.80931373
1 0.70931373 0.81813725
0.39031863 0.71237745 0.78137255
0.41678922 0.71170343 0.78144914
0.46688113 0.71020221 0.78247549
0.53223039 0.70490196 0.78137255
0.60998775 0.69650735 0.778125
0.71790748 0.71726409 0.79082414
0.81681985 0.7379902 0.80407475
0.91207108 0.74738051 0.80886949
0.99963235 0.73884804 0.80159314
0.45465686 0.81544118 0.79019608
0.47478554 0.81734069 0.79252451
0.51378676 0.81746324 0.79313725
0.56875 0.81308211 0.79065564
0.63946078 0.80833333 0.79056373
0.72037377 0.80333946 0.78964461
0.80490196 0.79332108 0.78811275
0.89914216 0.7823223 0.7745098
1 0.77843137 0.76985294
0.59754902 0.90257353 0.79019608
0.60646446 0.90321691 0.7904565
0.62840074 0.90052083 0.79117647
0.65975797 0.89829963 0.79290748
0.70036765 0.89166667 0.79148284
0.74031863 0.87893689 0.78235294
0.77365196 0.84776348 0.7510723
0.87501532 0.86717218 0.7692402
1 0.89105392 0.77830882
0.6245098 0.98039216 0.79313725
0.63198529 0.98039216 0.79313725
0.64583333 0.97818627 0.79166667
0.67046569 0.97928922 0.79313725
0.70294118 0.97647059 0.78970588
0.75931373 0.97254902 0.79375
0.79705882 0.96789216 0.76568627
0.87941176 0.97561275 0.76580882
0.98039216 0.99215686 0.79313725
0.42009804 0.35735294 0.90588235
0.44362745 0.36127451 0.9028799
0.50012255 0.37647059 0.90539216
0.575 0.40079657 0.90588235
0.65686275 0.43431373 0.90245098
0.74050245 0.47696078 0.90294118
0.82843137 0.52953431 0.90502451
0.91862745 0.5495098 0.90251225
1 0.55735294 0.90637255
0.42843137 0.4004902 0.89901961
0.45844822 0.40827972 0.90245098
0.507981 0.4189185 0.90170037
0.57591912 0.43952206 0.90132506
0.66014093 0.47015931 0.90223652
0.7428079 0.50606618 0.90132506
0.8285386 0.55317096 0.90320159
0.91813725 0.56642923 0.90282629
1 0.57303922 0.90594363
0.45477941 0.48125 0.89497549
0.47489277 0.48647365 0.89852941
0.52034314 0.49656863 0.89852941
0.58651961 0.51196385 0.89852941
0.66256127 0.53370098 0.9
0.74563419 0.56328125 0.90055147
0.82855392 0.59656863 0.90254289
0.91470588 0.60870098 0.90245098
1 0.61029412 0.90245098
0.4713848 0.56746324 0.89068627
0.49391085 0.57156863 0.89203431
0.53328738 0.57622549 0.89142157
0.59498315 0.59007353 0.89368873
0.66807598 0.60582108 0.89396446
0.74866728 0.62727482 0.8967065
0.82964154 0.65209865 0.8993413
0.91452206 0.66176471 0.90229013
1 0.6591299 0.89901961
0.46887255 0.6372549 0.88259804
0.49019608 0.64160539 0.88327206
0.53333333 0.64730392 0.88308824
0.59411765 0.65563725 0.88691789
0.66691176 0.66789216 0.88872549
0.74696691 0.68471201 0.89215686
0.83106618 0.70655637 0.89681373
0.91596201 0.71789216 0.90116422
1 0.71764706 0.9004902
0.44540441 0.71127451 0.87285539
0.4646829 0.7115962 0.87516085
0.50098039 0.70767463 0.875
0.56243873 0.70864737 0.87518382
0.65058211 0.72254902 0.88112745
0.74276195 0.73895527 0.88699449
0.83408395 0.76064645 0.89515931
0.91813725 0.77638634 0.90245098
1 0.78186275 0.90245098
0.48345588 0.81078431 0.87647059
0.49908088 0.81248468 0.87904412
0.5301777 0.8104473 0.87895221
0.57870711 0.8078125 0.87835478
0.64215686 0.80189951 0.87873775
0.71424632 0.79197304 0.8756587
0.82257966 0.81053922 0.88685662
0.9196538 0.83751532 0.9024663
1 0.84938725 0.90772059
0.54117647 0.91421569 0.89025735
0.55294118 0.91421569 0.89025735
0.57953431 0.91374081 0.89036458
0.62412684 0.91058517 0.88880974
0.68651961 0.90857843 0.89114583
0.75835631 0.90639553 0.89246324
0.83391544 0.90238971 0.89454657
0.91029412 0.89123009 0.89031097
1 0.88333333 0.87984069
0.68627451 0.98823529 0.88284314
0.6971201 0.98823529 0.88284314
0.71360294 0.98823529 0.88321078
0.74411765 0.98823529 0.88707108
0.7752451 0.98823529 0.89093137
0.81243873 0.98664216 0.89332108
0.85245098 0.98431373 0.89117647
0.89160539 0.98039216 0.86764706
0.98823529 0.99215686 0.88676471
0.54117647 0.52156863 0.98823529
0.55686275 0.5254902 0.99215686
0.58431373 0.53039216 0.98823529
0.63382353 0.54509804 0.98823529
0.69607843 0.56666667 0.98823529
0.76617647 0.59215686 0.98823529
0.83627451 0.61666667 0.98431373
0.91029412 0.65098039 0.98431373
0.99215686 0.65882353 0.98431373
0.54901961 0.54117647 0.98823529
0.56384804 0.54816176 0.98829657
0.59215686 0.55379902 0.98823529
0.64007353 0.56715686 0.98694853
0.69803922 0.58431373 0.98455882
0.76617647 0.60753676 0.98431373
0.83982843 0.63186275 0.98394608
0.91072304 0.65925245 0.98082108
0.99215686 0.67009804 0.98431373
0.56764706 0.59411765 0.98823529
0.57647059 0.59509804 0.98443627
0.60465686 0.5997549 0.98504902
0.6495098 0.61078431 0.98541667
0.70539216 0.62254902 0.98431373
0.77009804 0.63860294 0.98431373
0.84313725 0.66176471 0.98333333
0.91421569 0.68884804 0.98394608
0.98823529 0.69215686 0.98333333
0.57647059 0.64558824 0.98431373
0.59215686 0.65079657 0.98431373
0.61678922 0.65453431 0.98431373
0.65827206 0.66127451 0.98431373
0.7125 0.66985294 0.98186275
0.77794118 0.68382353 0.98186275
0.84448529 0.7004902 0.98039216
0.91580882 0.721875 0.98198529
0.99215686 0.72794118 0.98431373
0.58627451 0.70392157 0.98431373
0.59779412 0.70392157 0.98431373
0.61862745 0.70392157 0.98382353
0.66127451 0.71102941 0.98431373
0.71568627 0.71862745 0.98333333
0.78063725 0.72941176 0.98235294
0.85 0.74313725 0.98235294
0.92009804 0.7629902 0.98235294
0.99215686 0.77058824 0.98431373
0.55294118 0.74656863 0.98039216
0.56844363 0.74901961 0.98039216
0.59963235 0.75294118 0.98431373
0.64859069 0.75741422 0.98339461
0.71029412 0.76544118 0.98357843
0.78094363 0.77401961 0.98339461
0.85588235 0.79215686 0.98431373
0.92567402 0.80931373 0.98431373
0.99362745 0.82107843 0.98578431
0.55392157 0.82156863 0.98039216
0.5682598 0.8245098 0.98431373
0.58897059 0.82058824 0.98039216
0.62634804 0.81703431 0.9807598
0.68431373 0.81666667 0.98431373
0.76727941 0.8245098 0.98431373
0.85294118 0.84117647 0.98529412
0.93345588 0.86372549 0.98823529
0.99607843 0.8754902 0.98823529
0.59264706 0.91470588 0.98431373
0.60349265 0.91770833 0.98731618
0.62389706 0.91519608 0.98517157
0.65882353 0.91207108 0.98560049
0.70833333 0.91078431 0.98480392
0.76881127 0.90686275 0.98823529
0.83284314 0.89889706 0.98823529
0.92984069 0.91764706 0.99209559
0.9995098 0.9377451 0.99215686
0.63529412 1 0.98823529
0.64313725 1 0.98431373
0.66568627 1 0.98823529
0.69803922 1 0.98823529
0.74509804 1 0.99019608
0.80147059 1 0.98970588
0.86470588 1 0.99215686
0.93382353 1 0.99607843
1 1 1
