Kodak Converted/Kodak Kodachrome 200.cube
# Exported with LUT Lab 1.2.1
# LUTLab.com
TITLE Kodak Kodachrome 200
LUT_3D_SIZE 33
0 0 0
0.00784314 0 0
0.01936275 0 0
0.03688725 0 0
0.05833333 0 0
0.07977941 0 0
0.10122549 0 0
0.12487745 0 0
0.15882353 0 0
0.19387255 0 0
0.23284314 0 0
0.27242647 0 0
0.31470588 0 0
0.36151961 0 0
0.40147059 0 0
0.44742647 0 0.00392157
0.49215686 0 0.00392157
0.53308824 0 0.00392157
0.56985294 0 0.00392157
0.60710784 0 0.00392157
0.63823529 0 0.00392157
0.6627451 0 0.00392157
0.69656863 0 0.00784314
0.72463235 0 0.00784314
0.75098039 0 0.00784314
0.77818627 0 0.00784314
0.80147059 0 0.00784314
0.82867647 0 0.01176471
0.85539216 0 0.01176471
0.87916667 0 0.01176471
0.90612745 0 0.01176471
0.91764706 0 0.01176471
0.91764706 0 0.01176471
0.00183824 0.01176471 0
0.01360294 0.01176471 0.00183824
0.02904412 0.01176471 0.00183824
0.04865196 0.01176471 0.00183824
0.06983762 0.00994179 0.00183824
0.09017693 0.00968137 0.00183824
0.11259957 0.00968137 0.00392157
0.13715916 0.00968137 0.00392157
0.1745098 0.00968137 0.00392157
0.20955882 0.00968137 0.00392157
0.24787837 0.00968137 0.00392157
0.28778722 0.01176471 0.00392157
0.32961091 0.01176471 0.00392157
0.37531786 0.00968137 0.0057598
0.41495098 0.00968137 0.0057598
0.46097197 0.00968137 0.00784314
0.50196078 0.00968137 0.00784314
0.54093137 0.00784314 0.00784314
0.57873009 0.00784314 0.00784314
0.61286765 0.00784314 0.00784314
0.64529718 0.00784314 0.00784314
0.67058824 0.0057598 0.00968137
0.70376072 0.0057598 0.01176471
0.72999004 0.00392157 0.01176471
0.75628064 0.0057598 0.01176471
0.78210784 0.0057598 0.01176471
0.80539216 0.00392157 0.01176471
0.83123085 0.00183824 0.01297105
0.85588235 0.00160846 0.01360294
0.88185126 0 0.01568627
0.90637255 0 0.01568627
0.91764706 0 0.01568627
0.91764706 0 0.01568627
0.00784314 0.02720588 0.00392157
0.01947763 0.02720588 0.00392157
0.03112745 0.02720588 0.00736826
0.05257353 0.02720588 0.00759804
0.07398897 0.02720588 0.00759804
0.09530484 0.02720588 0.00759804
0.1198989 0.02720588 0.00784314
0.14430913 0.02720588 0.00784314
0.18210784 0.02720588 0.00784314
0.21715686 0.02720588 0.00784314
0.25497855 0.02720588 0.00784314
0.29513634 0.02720588 0.01151961
0.33676471 0.02720588 0.01167279
0.38112745 0.02350643 0.01176471
0.41887255 0.02328431 0.01176471
0.46667433 0.02328431 0.01176471
0.50588235 0.02328431 0.01176471
0.54485294 0.02328431 0.01176471
0.58357843 0.01960784 0.01176471
0.61495098 0.01936275 0.01176471
0.64852941 0.01936275 0.01176471
0.67426471 0.01936275 0.01176471
0.70693934 0.01568627 0.01176471
0.73247549 0.01544118 0.01176471
0.75876225 0.01568627 0.01568627
0.78321078 0.01544118 0.01568627
0.80857843 0.01176471 0.01568627
0.83394608 0.01151961 0.01568627
0.85931373 0.00784314 0.01568627
0.8845818 0.00784314 0.01936275
0.91004902 0.00759804 0.01960784
0.92156863 0.00759804 0.01960784
0.92156863 0.00759804 0.01960784
0.01727941 0.0502451 0.01176471
0.02819776 0.04865196 0.01176471
0.04056373 0.04865196 0.01176471
0.0564951 0.04865196 0.01176471
0.07794118 0.04865196 0.01335784
0.09938725 0.04865196 0.01335784
0.12431832 0.04865196 0.01335784
0.15065487 0.04865196 0.01568627
0.18786765 0.04865196 0.01568627
0.22342601 0.04814262 0.01727941
0.26188725 0.04865196 0.01727941
0.30122166 0.04865196 0.01764323
0.34520527 0.04719669 0.01960784
0.38897059 0.04473039 0.02120098
0.42671569 0.04473039 0.02120098
0.47088312 0.04473039 0.02352941
0.51060049 0.04240196 0.02352941
0.54877451 0.04080882 0.02352941
0.58541667 0.04080882 0.02352941
0.61887255 0.04080882 0.02141927
0.65 0.03788297 0.02120098
0.6745098 0.03688725 0.02120098
0.70833333 0.03455882 0.01960784
0.73588771 0.03296569 0.01960784
0.76176471 0.03296569 0.01960784
0.78647748 0.03296569 0.01960784
0.8125 0.02904412 0.01960784
0.83651961 0.02512255 0.01960784
0.85980392 0.02463235 0.01960784
0.8870098 0.02120098 0.01960784
0.91178768 0.01946232 0.02120098
0.92156863 0.01727941 0.02352941
0.92156863 0.01727941 0.02352941
0.03088235 0.07401961 0.02303922
0.04056373 0.07401961 0.02303922
0.05027574 0.07401961 0.02303922
0.06413909 0.07352941 0.02303922
0.08186275 0.07352941 0.02303922
0.10330882 0.07352941 0.02352941
0.13146446 0.07352941 0.02352941
0.15721507 0.07352941 0.02696078
0.19754902 0.07009804 0.02696078
0.23259804 0.07009804 0.02706801
0.26813725 0.07009804 0.03088235
0.31061581 0.07009804 0.03088235
0.35214461 0.07009804 0.03088235
0.3932598 0.06960784 0.03480392
0.43213848 0.06960784 0.03480392
0.47486213 0.06617647 0.03480392
0.51715686 0.06617647 0.03480392
0.55269608 0.06617647 0.0352788
0.5877451 0.06418505 0.03480392
0.62279412 0.0622549 0.03480392
0.65392157 0.06176471 0.03480392
0.67843137 0.05833333 0.03480392
0.71102941 0.05818015 0.03121936
0.73907782 0.05516238 0.03088235
0.7627451 0.05441176 0.02732843
0.78959865 0.05392157 0.02449449
0.81323529 0.05 0.02352941
0.83786765 0.04624694 0.02352941
0.86323529 0.04264706 0.02352941
0.88860294 0.04215686 0.02352941
0.91418505 0.03802083 0.02352941
0.9254902 0.03480392 0.02696078
0.9254902 0.03480392 0.02696078
0.04448529 0.09938725 0.03664216
0.05353477 0.09938725 0.03664216
0.06258425 0.09938725 0.03664216
0.07505744 0.09938725 0.03664216
0.08970588 0.09681373 0.03664216
0.10946308 0.09681373 0.03664216
0.13970588 0.09681373 0.04056373
0.16519608 0.09681373 0.04056373
0.20330882 0.09681373 0.04056373
0.2389208 0.09681373 0.04448529
0.27732843 0.09546569 0.04448529
0.31887255 0.09546569 0.04448529
0.36079963 0.09546569 0.04790135
0.4023246 0.09289216 0.04840686
0.43907016 0.09289216 0.04985447
0.48259804 0.09154412 0.04840686
0.52156863 0.09025735 0.05165441
0.55796569 0.08897059 0.05232843
0.59301471 0.08762255 0.04840686
0.62671569 0.08504902 0.04840686
0.65784314 0.08370098 0.04840686
0.68235294 0.08370098 0.04840686
0.71318168 0.07977941 0.0462546
0.74031863 0.07776884 0.04448529
0.76568627 0.07686887 0.04056373
0.79105392 0.07400812 0.0377451
0.81642157 0.07145374 0.0363894
0.84090456 0.06801471 0.03183594
0.86715686 0.06409314 0.02745098
0.89093137 0.06071921 0.02745098
0.91789216 0.05625 0.02879902
0.92683824 0.05625 0.02879902
0.92683824 0.05625 0.02879902
0.0620098 0.13186275 0.05416667
0.06776961 0.13186275 0.05416667
0.07745098 0.13186275 0.05416667
0.08756893 0.13186275 0.05416667
0.10082721 0.13186275 0.05416667
0.11851256 0.13186275 0.05808824
0.14681373 0.13186275 0.05808824
0.17283241 0.13186275 0.05808824
0.2129902 0.13112745 0.05808824
0.24820006 0.12794118 0.0620098
0.2870098 0.12794118 0.0620098
0.32671569 0.12794118 0.0620098
0.36933211 0.12794118 0.06473652
0.40887714 0.12787224 0.06593137
0.44590993 0.12401961 0.06593137
0.48970588 0.12401961 0.06593137
0.5254902 0.12401961 0.06593137
0.56372549 0.12009804 0.06593137
0.59877451 0.12009804 0.06593137
0.63063725 0.11617647 0.06593137
0.66148897 0.11617647 0.06593137
0.68553922 0.1122549 0.0620098
0.71617647 0.1122549 0.0620098
0.74338235 0.10833333 0.05894608
0.76666667 0.10753676 0.05808824
0.79387255 0.10441176 0.05416667
0.81715686 0.09989277 0.0502451
0.84178922 0.09656863 0.04632353
0.86764706 0.09264706 0.03912377
0.89252451 0.08872549 0.03529412
0.91813725 0.08460478 0.03529412
0.92941176 0.08088235 0.03529412
0.92941176 0.08088235 0.03529412
0.07279412 0.16127451 0.06887255
0.08247549 0.16127451 0.06887255
0.08848039 0.16127451 0.06887255
0.10139017 0.16127451 0.06887255
0.11544118 0.16127451 0.06887255
0.13296569 0.16127451 0.06925169
0.15441176 0.16127451 0.07279412
0.17806373 0.16127451 0.07279412
0.21875 0.16127451 0.07279412
0.25441559 0.15845588 0.07341069
0.29276961 0.15735294 0.07671569
0.33566176 0.15735294 0.07671569
0.37708333 0.15735294 0.07671569
0.41752451 0.15735294 0.08063725
0.45134804 0.15453431 0.08063725
0.49439721 0.15343137 0.08063725
0.53051471 0.15343137 0.08063725
0.56838235 0.14954427 0.08063725
0.60061275 0.1495098 0.08063725
0.63455882 0.14569164 0.08063725
0.66462929 0.14453125 0.07671569
0.68627451 0.14166667 0.07671569
0.71921722 0.14078585 0.07561275
0.74510187 0.1377451 0.07279412
0.76988358 0.13382353 0.06887255
0.79497549 0.13021216 0.06605392
0.82034314 0.12598039 0.06331955
0.84474188 0.12205882 0.05807675
0.87107843 0.11813725 0.05318627
0.89530101 0.11421569 0.04693627
0.92188266 0.11004902 0.04031863
0.93333333 0.10637255 0.04031863
0.93333333 0.10637255 0.04031863
0.08627451 0.20588235 0.08921569
0.09411765 0.20588235 0.08921569
0.10177696 0.20588235 0.08921569
0.11139706 0.20588235 0.08921569
0.12892157 0.20588235 0.08921569
0.14745711 0.20588235 0.09019608
0.16789216 0.20588235 0.09313725
0.18872549 0.20588235 0.09313725
0.22843137 0.20588235 0.09313725
0.26446078 0.20490196 0.09411765
0.30545343 0.20196078 0.09705882
0.34549632 0.20196078 0.09705882
0.38713235 0.20196078 0.09705882
0.42454044 0.20196078 0.10098039
0.45980392 0.19932598 0.10098039
0.50220588 0.19803922 0.10098039
0.5372549 0.19803922 0.10098039
0.57230392 0.19420956 0.10098039
0.60735294 0.19411765 0.10098039
0.63848039 0.19047181 0.09831495
0.6692402 0.19019608 0.09705882
0.69019608 0.18921569 0.09705882
0.72279412 0.18627451 0.09381127
0.74816176 0.18235294 0.09313725
0.77352941 0.17843137 0.08921569
0.79862132 0.17772672 0.08556985
0.82346814 0.17297794 0.08137255
0.84828431 0.1676777 0.07745098
0.87156863 0.1627451 0.07352941
0.89877451 0.15882353 0.06727941
0.92573529 0.15373775 0.06151961
0.93627451 0.15 0.05784314
0.93627451 0.15 0.05784314
0.08321078 0.24877451 0.1067402
0.08856847 0.24877451 0.1067402
0.09492188 0.24877451 0.1067402
0.10588235 0.24877451 0.1067402
0.12107843 0.24877451 0.1067402
0.14357767 0.24772135 0.10759804
0.16715686 0.24571078 0.11066176
0.1935049 0.24571078 0.11066176
0.23648897 0.24571078 0.11066176
0.27383195 0.24571078 0.11066176
0.31423866 0.24485294 0.11362592
0.35502451 0.24485294 0.11458333
0.3939951 0.24178922 0.11458333
0.43296569 0.24178922 0.11458333
0.46764706 0.24178922 0.11458333
0.50698529 0.24093137 0.11467907
0.54509804 0.24093137 0.1185049
0.58014706 0.23786765 0.11458333
0.61127451 0.2370098 0.11458333
0.64240196 0.23394608 0.11458333
0.67205882 0.23308824 0.11426164
0.69411765 0.23002451 0.11066176
0.72460938 0.22916667 0.11066176
0.75122549 0.22543275 0.1067402
0.77515319 0.22196691 0.1057598
0.80171569 0.2182598 0.10281863
0.825 0.21433824 0.09889706
0.84963235 0.21146982 0.09497549
0.87510723 0.2064951 0.09056373
0.90036765 0.20206419 0.08321078
0.92598039 0.19760263 0.07904412
0.9372549 0.19387255 0.07536765
0.9372549 0.19387255 0.07536765
0.08480392 0.29166667 0.12426471
0.09142157 0.29166667 0.12426471
0.09901961 0.29166667 0.12426471
0.10870098 0.29166667 0.12818627
0.12230392 0.29166667 0.12818627
0.13683364 0.29166667 0.12818627
0.17107843 0.29044118 0.12818627
0.2004902 0.29044118 0.12818627
0.24479167 0.29044118 0.13112745
0.28311121 0.29044118 0.13210784
0.32303922 0.29044118 0.13210784
0.36470588 0.29001991 0.13210784
0.40266544 0.2877451 0.13287377
0.43995098 0.28651961 0.13602941
0.47426471 0.28651961 0.13602941
0.51397059 0.28651961 0.13602941
0.54901961 0.28382353 0.13602941
0.58406863 0.28259804 0.13602941
0.61519608 0.2814185 0.13210784
0.64632353 0.27879136 0.13210784
0.67352941 0.27867647 0.13210784
0.69803922 0.27598039 0.12818627
0.72794118 0.2747549 0.12818627
0.75208333 0.27083333 0.12485447
0.77745098 0.26691176 0.12395833
0.80281863 0.26497396 0.12034314
0.82818627 0.26248468 0.11642157
0.85220588 0.25729933 0.1125
0.87784926 0.25229779 0.10701593
0.90269608 0.24780178 0.10073529
0.92965686 0.24313725 0.09289216
0.94117647 0.23946078 0.08897059
0.94117647 0.23946078 0.08897059
0.05551471 0.33517157 0.14571078
0.06241958 0.33517157 0.14571078
0.06973039 0.33517157 0.14571078
0.07720588 0.33517157 0.14571078
0.1009038 0.33517157 0.14571078
0.13995098 0.33517157 0.14632353
0.17561275 0.33517157 0.14901195
0.20850567 0.33517157 0.14963235
0.25340074 0.33517157 0.14963235
0.29252451 0.33455882 0.14963235
0.33376991 0.33455882 0.14963235
0.37098269 0.33455882 0.1502451
0.4092065 0.33455882 0.15355392
0.44779412 0.33125 0.15355392
0.47941176 0.33125 0.15355392
0.51789216 0.33123085 0.15355392
0.55294118 0.33063725 0.15189951
0.5879902 0.32732843 0.14963235
0.61911765 0.32732843 0.14963235
0.6502451 0.32671569 0.14963235
0.67745098 0.32340686 0.14816176
0.69803922 0.32340686 0.14571078
0.73063725 0.31948529 0.14406403
0.75514706 0.31887255 0.14178922
0.77889093 0.31556373 0.13786765
0.80281863 0.31164216 0.13487669
0.82830116 0.30772059 0.13271293
0.85355392 0.30493643 0.12724035
0.87892157 0.29987745 0.12218137
0.90428922 0.29595588 0.1182598
0.92990196 0.29121477 0.11041667
0.94117647 0.28811275 0.1064951
0.94117647 0.28811275 0.1064951
0.02647059 0.37745098 0.16323529
0.04428615 0.37745098 0.16323529
0.06185662 0.37745098 0.16323529
0.09044118 0.37745098 0.16323529
0.12156863 0.37745098 0.16323529
0.15185355 0.37745098 0.16715686
0.18529412 0.37745098 0.16715686
0.21862745 0.37745098 0.16715686
0.26323529 0.37745098 0.16715686
0.30252757 0.37745098 0.16715686
0.3421875 0.37745098 0.16715686
0.38037684 0.37745098 0.17107843
0.41666667 0.37653186 0.17107843
0.45416667 0.37598039 0.17107843
0.48578431 0.37460172 0.17107843
0.52426471 0.37352941 0.17100184
0.55686275 0.37352941 0.16715686
0.59191176 0.37205882 0.16715686
0.62239583 0.37098652 0.16715686
0.65047488 0.36960784 0.16715686
0.67898284 0.36813725 0.16323529
0.70196078 0.36813725 0.16323529
0.73063725 0.36568627 0.15931373
0.7560049 0.36421569 0.1573989
0.78137255 0.36139706 0.15539216
0.80563725 0.35853248 0.15147059
0.82892157 0.35637255 0.14754902
0.85355392 0.35245098 0.14362745
0.87941176 0.34852941 0.13970588
0.90661765 0.34460784 0.13345588
0.93357843 0.34053309 0.12794118
0.94509804 0.33676471 0.12401961
0.94509804 0.33676471 0.12401961
0.06813725 0.41678922 0.18468137
0.08156786 0.41678922 0.18468137
0.09497549 0.41678922 0.18468137
0.11605392 0.41678922 0.18468137
0.1370864 0.41678922 0.18468137
0.1661803 0.41678922 0.18504902
0.19889706 0.41678922 0.18504902
0.23223039 0.41642157 0.18860294
0.27683824 0.41642157 0.18860294
0.31580882 0.41642157 0.18860294
0.35441176 0.41642157 0.18860294
0.38982843 0.41642157 0.18860294
0.42464767 0.41642157 0.18860294
0.45955882 0.41642157 0.18860294
0.49117647 0.41642157 0.18860294
0.52965686 0.41631051 0.18860294
0.56115196 0.41286765 0.18682598
0.59583333 0.4125 0.18468137
0.62324602 0.4125 0.18468137
0.65416667 0.4125 0.18112745
0.68003983 0.40894608 0.1807598
0.70196078 0.40857843 0.18039216
0.73186275 0.40857843 0.17672335
0.7560049 0.40502451 0.17291667
0.78137255 0.40465686 0.1689951
0.80574066 0.40110294 0.16507353
0.82892157 0.40073529 0.16115196
0.85612745 0.3969401 0.15723039
0.87941176 0.3932598 0.15330882
0.90661765 0.38933824 0.14938725
0.93357843 0.38541667 0.14154412
0.94509804 0.38504902 0.14154412
0.94509804 0.38504902 0.14154412
0.09583333 0.45196078 0.20661765
0.10551471 0.45196078 0.20661765
0.11544118 0.45196078 0.20661765
0.13010876 0.45196078 0.20661765
0.15045956 0.45196078 0.20661765
0.17965686 0.45196078 0.20661765
0.21649816 0.45196078 0.20661765
0.24803922 0.45196078 0.20833333
0.29264706 0.45196078 0.21053922
0.32769608 0.45196078 0.21053922
0.36446078 0.45196078 0.21053922
0.3995098 0.45196078 0.21053922
0.43146446 0.45196078 0.21053922
0.46568627 0.4502451 0.21053922
0.49730392 0.4502451 0.20929841
0.53357843 0.4502451 0.20827972
0.56691176 0.44803922 0.20661765
0.59803922 0.44803922 0.2044807
0.62696078 0.44803922 0.20366115
0.65437347 0.44632353 0.2004902
0.68137255 0.44632353 0.19877451
0.70196078 0.44411765 0.19656863
0.73186275 0.44411765 0.19264706
0.7560049 0.44240196 0.18872549
0.78137255 0.44019608 0.18480392
0.8067402 0.43896293 0.18088235
0.83210784 0.43848039 0.17654718
0.85612745 0.43455882 0.17159161
0.88134191 0.43213848 0.1666973
0.90661765 0.43063725 0.16127451
0.9337163 0.42671569 0.15503983
0.94509804 0.42279412 0.15122549
0.94509804 0.42279412 0.15122549
0.09019608 0.49056373 0.23161765
0.10392157 0.49056373 0.23339844
0.12133119 0.49056373 0.23541667
0.14693627 0.49210708 0.23541667
0.17573529 0.49436275 0.23541667
0.20686275 0.49436275 0.23541667
0.24178922 0.49436275 0.23541667
0.27120098 0.49056373 0.23541667
0.30796569 0.49056373 0.23553922
0.34301471 0.49044118 0.23553922
0.37794118 0.49044118 0.23553922
0.40919118 0.49044118 0.23553922
0.44174326 0.49044118 0.23553922
0.4752451 0.49044118 0.23541667
0.5047258 0.49044118 0.23541667
0.54142157 0.49044118 0.23541667
0.57254902 0.49044118 0.23161765
0.59999617 0.49044118 0.2314951
0.62922028 0.49044118 0.22769608
0.65808824 0.48699831 0.22757353
0.68382353 0.48651961 0.22365196
0.70196078 0.48651961 0.21985294
0.73455882 0.48651961 0.21580882
0.75906863 0.48651961 0.21188725
0.78137255 0.48259804 0.20796569
0.8067402 0.48259804 0.20131357
0.83210784 0.48188572 0.19620098
0.85612745 0.47867647 0.18970588
0.88284314 0.47820159 0.1839614
0.90661765 0.4747549 0.17659314
0.93382353 0.47083333 0.16874234
0.94509804 0.47083333 0.16482843
0.94509804 0.47083333 0.16482843
0.13529412 0.5254902 0.25882353
0.14889706 0.5254902 0.25882353
0.16446078 0.5254902 0.25882353
0.18474265 0.5254902 0.2596201
0.21078431 0.5254902 0.26078431
0.23731618 0.5254902 0.26078431
0.26556373 0.5254902 0.26078431
0.29154412 0.5254902 0.26078431
0.32647059 0.5254902 0.26078431
0.35814951 0.5254902 0.26078431
0.38835784 0.5254902 0.26078431
0.42052696 0.5254902 0.26078431
0.45196078 0.5254902 0.26078431
0.4848652 0.5254902 0.26078431
0.51164216 0.5254902 0.25968137
0.54534314 0.5254902 0.25882353
0.57647059 0.5254902 0.25686275
0.60379902 0.5254902 0.25490196
0.63308824 0.5254902 0.25294118
0.65845588 0.5254902 0.25098039
0.68382353 0.52279412 0.24705882
0.70588235 0.52156863 0.24509804
0.73455882 0.52156863 0.23921569
0.75906863 0.52156863 0.23376225
0.78235294 0.52156863 0.22941176
0.8067402 0.51764706 0.22408088
0.83210784 0.51764706 0.21764706
0.85612745 0.51764706 0.21047794
0.88284314 0.51372549 0.20196078
0.90821078 0.51372549 0.19491422
0.93382353 0.50980392 0.18602941
0.94509804 0.50980392 0.18235294
0.94509804 0.50980392 0.18235294
0.18406863 0.56053922 0.28602941
0.19369256 0.56053922 0.28602941
0.20723039 0.56053922 0.28602941
0.22480469 0.56053922 0.28602941
0.24250919 0.56053922 0.28602941
0.26776961 0.56053922 0.28615196
0.29242494 0.56053922 0.28615196
0.3129902 0.56053922 0.28615196
0.34693627 0.56053922 0.28615196
0.37414216 0.56053922 0.28615196
0.40265778 0.56053922 0.28615196
0.43247549 0.56053922 0.28615196
0.46360294 0.56053922 0.28615196
0.49437423 0.56018306 0.28602941
0.52028952 0.5567402 0.28602941
0.55318244 0.5567402 0.28223039
0.58229167 0.5567402 0.28210784
0.60772059 0.55661765 0.27842754
0.63480392 0.55661765 0.27818627
0.6620098 0.55661765 0.27438725
0.68529412 0.55661765 0.27046569
0.70588235 0.55661765 0.27034314
0.73455882 0.55661765 0.26262255
0.75906863 0.55281863 0.25870098
0.78235294 0.55269608 0.25474877
0.8067402 0.55269608 0.24693627
0.83210784 0.55269608 0.23909314
0.85612745 0.54889706 0.23255591
0.88284314 0.54877451 0.22340686
0.90821078 0.54651884 0.21549096
0.93382353 0.54485294 0.20379902
0.94509804 0.54485294 0.19987745
0.94509804 0.54485294 0.19987745
0.22696078 0.5877451 0.31151961
0.23480392 0.5877451 0.31151961
0.24632353 0.5877451 0.31151961
0.25833333 0.5877451 0.31151961
0.27545956 0.5877451 0.31151961
0.29497549 0.5877451 0.31151961
0.31642157 0.5877451 0.31151961
0.33773744 0.5877451 0.31151961
0.36544118 0.5877451 0.31151961
0.39129136 0.5877451 0.31151961
0.41887255 0.5877451 0.31151961
0.44607843 0.5877451 0.31151961
0.47411152 0.5877451 0.31151961
0.50425092 0.5877451 0.31151961
0.52915135 0.5877451 0.30931373
0.56096048 0.5877451 0.30759804
0.58713235 0.5877451 0.30759804
0.61330423 0.5877451 0.30539216
0.63872549 0.5877451 0.30367647
0.66393229 0.5877451 0.2997549
0.6877451 0.58602941 0.29690564
0.70588235 0.58602941 0.29362745
0.73509498 0.58602941 0.28916973
0.75992647 0.58382353 0.28444393
0.78235294 0.58382353 0.27959559
0.8067402 0.58382353 0.27278646
0.83210784 0.58210784 0.26585478
0.85612745 0.58066023 0.25720741
0.88284314 0.57990196 0.24828431
0.90821078 0.57888327 0.2377068
0.93382353 0.57598039 0.22510723
0.94901961 0.57598039 0.22132353
0.94901961 0.57598039 0.22132353
0.26593137 0.61531863 0.33688725
0.27169118 0.61531863 0.33688725
0.28137255 0.61531863 0.33688725
0.29105392 0.61531863 0.33688725
0.30502451 0.61531863 0.33688725
0.32230775 0.61531863 0.33688725
0.34296109 0.61531863 0.33688725
0.35870098 0.61531863 0.33688725
0.38590686 0.61531863 0.33688725
0.40833333 0.61531863 0.33688725
0.43370098 0.61531863 0.33688725
0.45968137 0.61531863 0.33688725
0.48702512 0.61531863 0.33688725
0.51409314 0.61531863 0.33651961
0.53958333 0.61531863 0.33651961
0.56839384 0.61530714 0.33296569
0.59393382 0.61495098 0.33259804
0.61936275 0.61495098 0.32915518
0.64264706 0.61495098 0.32867647
0.66629902 0.61495098 0.32512255
0.69143689 0.61495098 0.32342218
0.70980392 0.61495098 0.32083333
0.73822763 0.61139706 0.31335784
0.75992647 0.61139706 0.30943627
0.78529412 0.61139706 0.30514706
0.8067402 0.61113281 0.29867111
0.83210784 0.61102941 0.29271599
0.85747549 0.61102941 0.28320695
0.88284314 0.60747549 0.27333027
0.90821078 0.60710784 0.26215916
0.9375 0.60710784 0.25
0.94901961 0.60355392 0.24276961
0.94901961 0.60355392 0.24276961
0.30098039 0.64068627 0.36372549
0.30605086 0.64068627 0.36372549
0.31265319 0.64068627 0.36372549
0.32218137 0.64068627 0.36617647
0.33449755 0.64068627 0.36617647
0.34888174 0.64068627 0.36617647
0.36544118 0.64068627 0.36617647
0.38056066 0.64068627 0.36617647
0.40441176 0.64068627 0.36617647
0.42671569 0.64068627 0.36617647
0.45122549 0.64068627 0.36372549
0.47535233 0.64068627 0.36372549
0.5004902 0.64068627 0.36372549
0.52599571 0.64068627 0.3622549
0.5484375 0.64068627 0.3622549
0.57659314 0.64068627 0.35980392
0.60073529 0.64068627 0.35906863
0.62340686 0.64068627 0.35595895
0.64739583 0.64068627 0.35523897
0.67022059 0.64068627 0.35196078
0.69313725 0.64068627 0.34803922
0.71372549 0.64068627 0.34656863
0.73848039 0.63823529 0.34188113
0.7629902 0.63823529 0.33627451
0.78529412 0.63823529 0.33088235
0.80955882 0.63823529 0.32519914
0.83284314 0.63676471 0.31865809
0.85747549 0.63676471 0.30966605
0.88302696 0.63645833 0.3004902
0.90908395 0.63431373 0.28834252
0.9375 0.63284314 0.2734375
0.94901961 0.63284314 0.26813725
0.94901961 0.63284314 0.26813725
0.3254902 0.6627451 0.38823529
0.33125 0.6627451 0.38823529
0.3372549 0.6627451 0.38823529
0.34509804 0.6627451 0.38823529
0.35637255 0.6627451 0.38823529
0.36997549 0.6627451 0.38823529
0.38357843 0.6627451 0.38823529
0.39828431 0.6627451 0.38823529
0.42254902 0.6627451 0.38823529
0.44093137 0.6627451 0.38823529
0.46421569 0.6627451 0.38823529
0.48688725 0.6627451 0.38762255
0.51078431 0.6627451 0.38431373
0.53406863 0.6627451 0.38431373
0.55563725 0.6627451 0.38431373
0.58063725 0.6627451 0.38039216
0.60588235 0.6627451 0.38039216
0.62732843 0.6627451 0.38039216
0.6504902 0.6627451 0.37647059
0.67414216 0.65882353 0.37291667
0.69558824 0.65882353 0.37254902
0.71372549 0.65882353 0.36862745
0.73970588 0.65882353 0.36470588
0.76384804 0.65882353 0.35772059
0.78627451 0.65882353 0.35294118
0.81066176 0.65882353 0.34620098
0.83284314 0.65882353 0.34044118
0.85747549 0.65882353 0.3307598
0.88333333 0.65490196 0.32107843
0.91053922 0.65490196 0.31139706
0.9377451 0.65490196 0.29779412
0.94901961 0.65490196 0.29019608
0.94901961 0.65490196 0.29019608
0.3620098 0.69142157 0.41691176
0.36650582 0.69142157 0.41691176
0.37100184 0.69142157 0.41691176
0.37819393 0.69142157 0.41740962
0.38661152 0.69142157 0.41813725
0.39865196 0.69142157 0.41813725
0.4122549 0.69142157 0.41813725
0.42620251 0.69142157 0.41813725
0.44338235 0.69142157 0.41721814
0.46482843 0.69142157 0.41691176
0.48235294 0.69142157 0.41691176
0.50422028 0.69142157 0.41691176
0.52693015 0.69142157 0.41691176
0.54938725 0.69142157 0.41421569
0.56793811 0.69142157 0.41421569
0.59231771 0.69142157 0.4129902
0.61372549 0.68872549 0.4129902
0.63517157 0.68872549 0.41029412
0.65661765 0.68872549 0.40906863
0.67806373 0.68872549 0.40526195
0.6995098 0.68872549 0.40245098
