Kodak Converted/Kodak Elite Color 200.cube
# Exported with LUT Lab 1.2.1
# LUTLab.com
TITLE Kodak Elite Color 200
LUT_3D_SIZE 33
0 0 0
0.01176471 0 0
0.02720588 0 0
0.04632353 0 0
0.06617647 0 0
0.08762255 0 0
0.10514706 0 0
0.12487745 0 0
0.15196078 0 0
0.17340686 0 0
0.19754902 0 0
0.22083333 0 0
0.2495098 0 0.00392157
0.2752451 0.00392157 0.00392157
0.30073529 0.00392157 0.00392157
0.33357843 0.00392157 0.00392157
0.36470588 0.00392157 0.00392157
0.3997549 0.00392157 0.00784314
0.43872549 0.00784314 0.00784314
0.47769608 0.00784314 0.01176471
0.52058824 0.01176471 0.01176471
0.55294118 0.01176471 0.01176471
0.5997549 0.01568627 0.01691176
0.64056373 0.01960784 0.01960784
0.67745098 0.02352941 0.02352941
0.7182598 0.02745098 0.02745098
0.75833333 0.03529412 0.03210784
0.79595588 0.04313725 0.03529412
0.83235294 0.05098039 0.04313725
0.86740196 0.05882353 0.04938725
0.90245098 0.07083333 0.05882353
0.93541667 0.08051471 0.06666667
0.96862745 0.09411765 0.0745098
0.00183824 0.00784314 0
0.0145795 0.00968137 0
0.03112745 0.00968137 0
0.05133655 0.00968137 0
0.07009804 0.01176471 0
0.09154412 0.01360294 0
0.11056219 0.01360294 0
0.12879902 0.01360294 0
0.15536152 0.01568627 0
0.17732843 0.01752451 0
0.20147059 0.01752451 0
0.22630591 0.01989507 0.00028722
0.25196078 0.02144608 0.00392157
0.27897135 0.02536765 0.00392157
0.30465686 0.02536765 0.00392157
0.33737745 0.02928922 0.00392157
0.36862745 0.02928922 0.00784314
0.40367647 0.03321078 0.00784314
0.44044118 0.03713235 0.00864737
0.48161765 0.04085861 0.01176471
0.5245098 0.04367341 0.01176471
0.55686275 0.04681373 0.01568627
0.60245098 0.05281863 0.01960784
0.64142157 0.05817632 0.02104396
0.68039216 0.06458333 0.02398897
0.71936275 0.06982613 0.02745098
0.75833333 0.07708333 0.03529412
0.79730392 0.08539752 0.03921569
0.83627451 0.09252451 0.04705882
0.87132353 0.10220588 0.05098039
0.90245098 0.11188725 0.05906863
0.9375 0.12438343 0.06875
0.96862745 0.1370098 0.07843137
0.00784314 0.01936275 0
0.01960784 0.01960784 0
0.03504902 0.02328431 0
0.05257353 0.02328431 0
0.07401961 0.02328431 0
0.09530484 0.02720588 0
0.1129902 0.02720588 0
0.13161765 0.02727482 0
0.15588235 0.03112745 0
0.18105852 0.03112745 0
0.20269608 0.03504902 0.00384498
0.22806373 0.03504902 0.00392157
0.25343137 0.03897059 0.00392157
0.28249847 0.03933824 0.00392157
0.30465686 0.04289216 0.00392157
0.3375 0.04681373 0.00784314
0.36862745 0.04865196 0.00784314
0.40367647 0.05073529 0.00784314
0.44264706 0.05465686 0.01176471
0.48494945 0.05857843 0.01176471
0.5245098 0.0625 0.01568627
0.55686275 0.06642157 0.01936275
0.60620404 0.07156863 0.02075674
0.64429381 0.07818627 0.02352941
0.68137255 0.08308824 0.02745098
0.72218137 0.08995098 0.03137255
0.76205576 0.09779412 0.03602941
0.79730392 0.10428922 0.043053
0.83627451 0.11348039 0.05076593
0.87132353 0.12132353 0.05490196
0.90637255 0.13308824 0.06297488
0.9375 0.14301471 0.07267157
0.96862745 0.15661765 0.08235294
0.01727941 0.03688725 0
0.02819776 0.03688725 0
0.03907016 0.03848039 0
0.05808824 0.04080882 0
0.07794118 0.04080882 0
0.09546569 0.04473039 0
0.11691176 0.04473039 0
0.13386566 0.04583333 0.00224801
0.15980392 0.04865196 0.00392157
0.1815985 0.04865196 0.00392157
0.20661765 0.05257353 0.00392157
0.23198529 0.05453048 0.00392157
0.25735294 0.0564951 0.00491728
0.28308824 0.06041667 0.00784314
0.30857843 0.06262255 0.00784314
0.34134881 0.06433824 0.00943627
0.37254902 0.0682598 0.01176471
0.40759804 0.06980316 0.01176471
0.44525888 0.07389706 0.01568627
0.48553922 0.07754672 0.01568627
0.52843137 0.0814951 0.01960784
0.56078431 0.08394608 0.02120098
0.60637255 0.09178922 0.02585018
0.64534314 0.09571078 0.02904412
0.68431373 0.10355392 0.03354779
0.72328431 0.10747549 0.03856081
0.7622549 0.11531863 0.04343597
0.80122549 0.12316176 0.04810432
0.83627451 0.1310049 0.0551011
0.87132353 0.13884804 0.06179917
0.90637255 0.15061275 0.07058824
0.9375 0.16053922 0.07843137
0.96862745 0.17414216 0.08786765
0.02745098 0.05833333 0
0.03895527 0.05833333 0.00343137
0.0502451 0.05833333 0.00343137
0.06384804 0.05972733 0.00343137
0.08186275 0.0622549 0.00386029
0.09938725 0.0622549 0.00392157
0.11969975 0.06608456 0.00392157
0.13664216 0.06617647 0.00392157
0.1627451 0.06875 0.00392157
0.18517157 0.07009804 0.00735294
0.20931373 0.07009804 0.00784314
0.23259804 0.07401961 0.00784314
0.25980392 0.07616422 0.00784314
0.28664216 0.07794118 0.01176471
0.31228554 0.08186275 0.01176471
0.34474571 0.08578431 0.01519608
0.37647059 0.08578431 0.01544118
0.41150429 0.08970588 0.01911765
0.44806985 0.09362745 0.01960784
0.48941483 0.09754902 0.02303922
0.52990196 0.10147059 0.02696078
0.56421569 0.10539216 0.02745098
0.60995711 0.11038603 0.03137255
0.6480239 0.11629902 0.03797488
0.68517157 0.12107843 0.04264706
0.72575061 0.12781863 0.04656863
0.76289828 0.13357843 0.05098039
0.80122549 0.14068627 0.0571538
0.83976716 0.14852941 0.06317402
0.87495404 0.15637255 0.07038909
0.90637255 0.16813725 0.07797181
0.93933824 0.17806373 0.08604473
0.97254902 0.18823529 0.09754902
0.04313725 0.07585784 0.00526961
0.05161229 0.07720588 0.00526961
0.06008732 0.07977941 0.00526961
0.07298177 0.07977941 0.00784314
0.08595282 0.07977941 0.00784314
0.10330882 0.08112745 0.00784314
0.12427237 0.08370098 0.00784314
0.14153263 0.08370098 0.00822227
0.16700368 0.08762255 0.01176471
0.18909314 0.08762255 0.01176471
0.21323529 0.09154412 0.01269148
0.23765702 0.09154412 0.01568627
0.26372549 0.09546569 0.01568627
0.29056373 0.09583333 0.01703431
0.31529565 0.09938725 0.01960784
0.34534314 0.10330882 0.02103631
0.38039216 0.10330882 0.02352941
0.41536075 0.10723039 0.02483532
0.45220588 0.11115196 0.02879902
0.49314108 0.11507353 0.03113128
0.53382353 0.1189951 0.03529412
0.56605392 0.12291667 0.03921569
0.61071538 0.1272595 0.04056373
0.64926471 0.13382353 0.04705882
0.68823529 0.13860294 0.05232843
0.72720588 0.14534314 0.05625
0.76617647 0.15036765 0.0627451
0.80514706 0.15821078 0.06755132
0.84019608 0.16605392 0.07225797
0.8752451 0.17389706 0.08130744
0.91004902 0.18198529 0.08778339
0.94142157 0.1935049 0.09546569
0.97254902 0.20526961 0.10723039
0.05808824 0.09730392 0.00784314
0.06423866 0.09730392 0.0093367
0.07357537 0.1004902 0.01102941
0.08321078 0.10122549 0.01176471
0.09362745 0.10122549 0.01176471
0.10723039 0.10122549 0.01176471
0.12867647 0.10500919 0.01176471
0.14427849 0.10514706 0.01176471
0.17058824 0.10753676 0.01568627
0.19301471 0.10906863 0.01568627
0.21715686 0.10906863 0.01887255
0.24044118 0.1129902 0.01960784
0.2671875 0.1129902 0.01960784
0.29381893 0.11691176 0.02286305
0.31821385 0.12051164 0.02352941
0.34926471 0.1209329 0.02745098
0.38357843 0.1247549 0.02745098
0.41862745 0.12865349 0.03137255
0.45580576 0.13218444 0.03529412
0.49723499 0.1354856 0.03848039
0.53746936 0.1379902 0.0426777
0.56862745 0.14044118 0.04313725
0.61421569 0.14828431 0.04805453
0.65318627 0.15220588 0.05474112
0.69215686 0.15710784 0.05882353
0.73112745 0.16376379 0.0627451
0.76950061 0.16862745 0.06999081
0.80514706 0.17573529 0.0745098
0.84338235 0.18357843 0.07892157
0.8752451 0.19142157 0.08816636
0.91029412 0.1995098 0.09431679
0.94142157 0.21102941 0.10196078
0.97254902 0.22279412 0.1129902
0.06887255 0.11593137 0.01176471
0.07612975 0.11593137 0.01176471
0.08327972 0.11593137 0.01286765
0.09129902 0.11593137 0.01286765
0.10257353 0.11703431 0.01286765
0.11520757 0.11985294 0.01568627
0.13259804 0.11985294 0.01568627
0.1491996 0.12095588 0.01599648
0.17478554 0.12377451 0.01890319
0.19693627 0.12377451 0.01960784
0.21948529 0.12769608 0.02071078
0.24529335 0.12769608 0.02352941
0.26980699 0.13161765 0.02421875
0.29585248 0.13172105 0.02463235
0.32096354 0.13553922 0.02807138
0.35318627 0.13946078 0.03140702
0.38541667 0.13946078 0.03247549
0.42046569 0.14338235 0.03636259
0.45943627 0.14730392 0.03969822
0.50096124 0.15096124 0.04313725
0.54060968 0.15514706 0.04529718
0.57254902 0.15625 0.04816176
0.61813725 0.1629902 0.05296415
0.65649127 0.16691176 0.05820695
0.69396446 0.17181373 0.06302083
0.73223039 0.17867647 0.06745941
0.77030484 0.18333333 0.0745098
0.80906863 0.19044118 0.07915518
0.84411765 0.19828431 0.08380821
0.87916667 0.20612745 0.09085095
0.91029412 0.21421569 0.09810815
0.94384574 0.22521829 0.10456112
0.97365196 0.2375 0.11482843
0.08529412 0.14019608 0.01568627
0.09157475 0.14019608 0.01568627
0.09705882 0.14019608 0.01568627
0.10490196 0.14019608 0.01862745
0.11360294 0.14019608 0.01960784
0.12650123 0.14347426 0.01960784
0.14044118 0.14411765 0.01960784
0.15514706 0.14411765 0.02043505
0.17941176 0.14779412 0.02352941
0.20150123 0.14803922 0.02352941
0.22591912 0.14803922 0.02647059
0.25076593 0.15196078 0.02745098
0.2754902 0.15196078 0.03039216
0.30232843 0.15588235 0.03137255
0.32591912 0.15808824 0.0348652
0.35710784 0.15980392 0.03529412
0.39215686 0.16372549 0.03921569
0.42720588 0.16657475 0.04310662
0.46617647 0.16764706 0.04442402
0.50514706 0.17156863 0.04705882
0.54522059 0.1754902 0.05098039
0.57647059 0.17941176 0.05490196
0.62205882 0.18333333 0.05882353
0.66081495 0.1872549 0.0627451
0.69926471 0.19509804 0.06764706
0.73504902 0.19901961 0.07270221
0.77401961 0.20367647 0.07843137
0.81265319 0.21078431 0.08235294
0.84803922 0.21862745 0.08933824
0.88250613 0.22647059 0.09411765
0.91421569 0.23455882 0.10214461
0.94534314 0.2442402 0.11136642
0.97647059 0.25784314 0.12156863
0.09889706 0.16164216 0.01960784
0.10425475 0.16164216 0.01960784
0.11041667 0.16164216 0.01960784
0.11617647 0.16164216 0.02046569
0.12624081 0.16164216 0.02352941
0.1391659 0.1625 0.02352941
0.14971661 0.16556373 0.02352941
0.1629902 0.16556373 0.02377068
0.18397672 0.16642157 0.02745098
0.20630744 0.16948529 0.02745098
0.23014706 0.16948529 0.03041513
0.25551471 0.17340686 0.03137255
0.27973346 0.17340686 0.03414522
0.30633042 0.17732843 0.03529412
0.33210784 0.17781097 0.03921569
0.36485524 0.18125 0.03924249
0.39607843 0.18210784 0.04313725
0.43198529 0.18517157 0.04696308
0.47229626 0.18909314 0.04791667
0.51270297 0.19301471 0.05098039
0.55196078 0.19693627 0.05522365
0.58125 0.19779412 0.05882353
0.62624847 0.20477941 0.0627451
0.66495098 0.20870098 0.06666667
0.70162377 0.21283701 0.07058824
0.73958716 0.21716069 0.0745098
0.77794118 0.22438725 0.07916667
0.81384804 0.23088235 0.08522135
0.84889706 0.23664216 0.09143689
0.88308824 0.24450444 0.09803922
0.91789216 0.2557598 0.10593597
0.9476371 0.26360294 0.11418122
0.97732843 0.27536765 0.1254902
0.1125 0.18308824 0.02352941
0.11699602 0.18308824 0.02352941
0.1240962 0.18308824 0.02352941
0.13050705 0.18308824 0.02352941
0.13961397 0.18308824 0.02588848
0.14914216 0.18578431 0.02745098
0.1627451 0.1870098 0.02745098
0.17277114 0.1870098 0.02745098
0.19117647 0.18903186 0.03014706
0.21262255 0.19093137 0.03137255
0.23592218 0.19093137 0.0332261
0.25985754 0.19485294 0.03529412
0.28480392 0.19485294 0.03529412
0.31053922 0.19766391 0.03921569
0.33602941 0.19877451 0.03921569
0.36887255 0.20269608 0.04313725
0.40269608 0.20269608 0.04509804
0.43897059 0.20661765 0.04705882
0.47794118 0.21053922 0.05098039
0.51691176 0.21298254 0.05490196
0.55588235 0.21547181 0.05637255
0.58823529 0.21838235 0.05882353
0.63074449 0.22314645 0.06358762
0.66887255 0.2283318 0.06877298
0.70692402 0.23406863 0.07359069
0.74482996 0.2379902 0.07843137
0.78186275 0.24483762 0.08235294
0.81691176 0.2497549 0.08884804
0.85196078 0.25759804 0.09445466
0.8870098 0.26544118 0.10196078
0.91813725 0.27352941 0.10980392
0.94926471 0.28447457 0.11764706
0.98039216 0.29681373 0.1254902
0.12156863 0.20453431 0.02352941
0.12732843 0.20514706 0.02352941
0.13312653 0.20514706 0.02745098
0.13884804 0.20514706 0.02745098
0.14509804 0.20845588 0.02745098
0.15686275 0.20845588 0.02745098
0.16789216 0.20845588 0.02794884
0.17867647 0.20862822 0.03137255
0.1981924 0.21237745 0.03137255
0.22046569 0.21237745 0.03137255
0.24191176 0.2129902 0.03529412
0.26727941 0.21629902 0.03529412
0.29140625 0.21629902 0.03921569
0.31807215 0.22022059 0.03921569
0.34242494 0.22022059 0.04168964
0.37671569 0.22414216 0.0431564
0.40845588 0.22444853 0.04705882
0.44681373 0.22806373 0.05098039
0.48578431 0.23198529 0.05269608
0.5247549 0.23559666 0.05490196
0.56372549 0.23613664 0.05882353
0.59215686 0.23982843 0.0627451
0.6377451 0.24436275 0.06666667
0.67327282 0.24815028 0.07058824
0.71176471 0.25551471 0.07466299
0.74980469 0.25943627 0.07887178
0.78578431 0.26459099 0.08627451
0.82144608 0.27120098 0.09019608
0.85588235 0.27912071 0.09803922
0.89093137 0.28688725 0.10196078
0.92205882 0.29497549 0.10980392
0.95318627 0.30494409 0.11764706
0.98431373 0.3182598 0.1254902
0.1254902 0.22843137 0.02745098
0.12732843 0.22843137 0.02745098
0.13308824 0.22990196 0.02745098
0.13825061 0.22990196 0.02745098
0.14509804 0.22990196 0.02745098
0.15686275 0.22990196 0.0282935
0.16789216 0.23235294 0.03137255
0.18112745 0.23276654 0.03137255
0.20294118 0.23382353 0.03137255
0.22492341 0.23382353 0.03529412
0.24929534 0.23627451 0.03529412
0.27158395 0.2377451 0.03921569
0.29656863 0.24019608 0.03921569
0.32230392 0.24166667 0.04180453
0.34917279 0.24304534 0.04313725
0.38308824 0.24558824 0.04705882
0.41568627 0.24877451 0.04828431
0.45461091 0.2495098 0.05098039
0.49280025 0.25343137 0.05490196
0.53246017 0.25721507 0.05845588
0.57009804 0.26035539 0.05974265
0.6 0.26372549 0.0627451
0.64166667 0.26810662 0.06789216
0.68031556 0.27271752 0.07058824
0.71629902 0.27696078 0.07843137
0.75465686 0.282644 0.0816636
0.78970588 0.28872549 0.08627451
0.82720588 0.29425551 0.09019608
0.85980392 0.30079657 0.09460784
0.89397978 0.3097886 0.10196078
0.92588848 0.31871936 0.10980392
0.95632659 0.32924326 0.11764706
0.98431373 0.33970588 0.1254902
0.12156863 0.25171569 0.02745098
0.1271561 0.25171569 0.02745098
0.13308824 0.25171569 0.02745098
0.13884804 0.25526961 0.02745098
0.14852941 0.25526961 0.02745098
0.15686275 0.25526961 0.03137255
0.17181373 0.25563725 0.03137255
0.18662301 0.25563725 0.03137255
0.21078431 0.25919118 0.03440564
0.23223039 0.2592716 0.03529412
0.25392923 0.25955882 0.03529412
0.27910156 0.26311275 0.03921569
0.30307904 0.26348039 0.03921569
0.33014706 0.26703431 0.04313725
0.35584406 0.26724112 0.04313725
0.38884804 0.27095588 0.04705882
0.42389706 0.27132353 0.04901961
0.4625 0.27523361 0.05098039
0.50147059 0.27879902 0.05490196
0.540108 0.28238741 0.0581227
0.57585784 0.28442096 0.05882353
0.60428922 0.2870098 0.0627451
0.6495098 0.29204197 0.06666667
0.68484605 0.29762944 0.07058824
0.72352941 0.30242034 0.0745098
0.75884268 0.30651425 0.07843137
0.79754902 0.31409314 0.08627451
0.83259804 0.31838235 0.09019608
0.86404718 0.32622549 0.09460784
0.89877451 0.33391927 0.10196078
0.92967984 0.34213388 0.10980392
0.95914139 0.35164292 0.11747472
0.98823529 0.36151961 0.1254902
0.12769608 0.27720588 0.02745098
0.13161765 0.27720588 0.02745098
0.13333333 0.27720588 0.02745098
0.1372549 0.27720588 0.02745098
0.14509804 0.27913603 0.02745098
0.16041667 0.27941176 0.02916667
0.17794118 0.28112745 0.03137255
0.19264706 0.28112745 0.03137255
0.21691176 0.28112745 0.03265931
0.23835784 0.28370864 0.03357077
0.25980392 0.28504902 0.03529412
0.28517157 0.2872549 0.0370098
0.30971201 0.28897059 0.03838848
0.33606771 0.28917739 0.03921569
0.36176471 0.29289216 0.04093137
0.39852941 0.29509804 0.04313725
0.43357843 0.29681373 0.04705882
0.46862745 0.30073529 0.04877451
0.50759804 0.30294118 0.05098039
0.54656863 0.30465686 0.05490196
0.58161765 0.30857843 0.05882353
0.61176471 0.3125 0.05882353
0.65563725 0.31642157 0.06515012
0.69068627 0.32034314 0.0701057
0.72800245 0.3252451 0.0745098
0.76470588 0.33210784 0.07843137
0.7997549 0.33676471 0.08267463
0.83480392 0.34387255 0.0879902
0.86957721 0.34828431 0.09433211
0.90098039 0.35665594 0.0997549
0.93196998 0.36372549 0.10598958
0.96206342 0.37421109 0.11372549
0.99215686 0.38308824 0.12156863
0.11752451 0.31004902 0.02352941
0.12156863 0.31004902 0.02352941
0.12916667 0.31004902 0.02352941
0.13884804 0.31004902 0.02352941
0.15245098 0.31004902 0.02685355
0.16605392 0.31384804 0.02745098
0.18357843 0.31397059 0.02745098
0.19828431 0.31397059 0.02745098
0.22254902 0.31397059 0.02745098
0.2439951 0.31776961 0.03137255
0.26552543 0.31789216 0.03137255
0.29082797 0.31848575 0.03196615
0.31617647 0.32181373 0.03529412
0.34202282 0.32181373 0.03529412
0.36966146 0.32568168 0.03916207
0.40796952 0.32585401 0.03921569
0.44313725 0.32965686 0.04313725
0.48198912 0.33333716 0.04693627
0.51727941 0.33357843 0.04872089
0.55577129 0.3375 0.05098039
0.59117647 0.34134498 0.05477941
0.61960784 0.34522059 0.05490196
0.66139706 0.34918045 0.06001072
0.69644608 0.35306373 0.06571308
0.73529412 0.35701593 0.06761642
0.77043122 0.36099494 0.07331878
0.80551471 0.3656633 0.0783318
0.8404833 0.37267157 0.08235294
0.87501532 0.37719056 0.09019608
0.90661765 0.38450904 0.09637331
0.93750766 0.39228707 0.10219822
0.96678922 0.40018765 0.10974648
0.99607843 0.41188725 0.11764706
0.11764706 0.34117647 0.02156863
0.1254902 0.34117647 0.02156863
0.13321078 0.34117647 0.02156863
0.14276961 0.34197304 0.02156863
0.15637255 0.34313725 0.02156863
0.16997549 0.34509804 0.02352941
0.1875 0.34509804 0.02352941
0.20275735 0.34509804 0.02352941
0.22647059 0.34656863 0.0254902
0.24834559 0.34901961 0.02591912
0.27071078 0.34901961 0.02745098
0.29503676 0.34932598 0.02941176
0.32254902 0.35294118 0.03063725
0.3497549 0.35294118 0.03137255
0.37830882 0.3560049 0.03333333
0.41593137 0.35686275 0.03529412
0.45294118 0.35980392 0.0372549
0.48988971 0.36078431 0.03921569
0.52696078 0.36470588 0.04313725
0.5620098 0.36666667 0.04509804
0.59901961 0.36936275 0.04779412
0.62745098 0.37254902 0.05098039
0.66911765 0.37647059 0.05490196
0.70569853 0.37996324 0.05882353
0.74117647 0.38431373 0.06323529
0.77818627 0.38823529 0.06807598
0.81323529 0.39252451 0.07254902
0.84632353 0.39803922 0.07775735
0.87941176 0.40416667 0.08259804
0.91053922 0.40980392 0.08939951
0.94154412 0.41776961 0.09620098
0.96979167 0.4254902 0.10404412
0.99607843 0.43333333 0.11372549
0.12928922 0.37230392 0.01580882
0.13713235 0.37230392 0.01580882
0.14473039 0.37230392 0.01580882
0.15281863 0.37235371 0.01960784
0.16409314 0.37242647 0.01960784
0.1777765 0.37242647 0.01960784
0.19522059 0.37622549 0.01960784
0.21004902 0.37622549 0.01960784
0.23419118 0.37622549 0.01960784
0.25566406 0.37634804 0.02056143
0.27720588 0.38014706 0.02352941
0.30316713 0.38014706 0.02352941
0.33031556 0.38026961 0.02365196
0.35759804 0.38406863 0.02745098
0.38909314 0.38406863 0.02751991
0.42757353 0.3843099 0.03137255
0.46268382 0.3879902 0.0314951
0.50147442 0.38811275 0.03529412
0.53664216 0.39196538 0.03541667
0.57169118 0.39583333 0.03921569
0.6067402 0.39595588 0.04313725
0.63517157 0.3997549 0.04705882
0.67687653 0.40367647 0.04836857
0.7120098 0.40759804 0.05110294
0.74705882 0.41151961 0.05502451
0.78590686 0.41544118 0.06167662
0.81715686 0.41938572 0.06666667
0.85220588 0.42336474 0.07066866
0.88333333 0.42780331 0.07843137
0.91446078 0.43512178 0.0824257
0.94558058 0.44289982 0.09020374
0.97457491 0.4508004 0.09810432
1 0.45870098 0.10588235
0.14681373 0.40171569 0.01176471
0.15294118 0.40171569 0.01176471
0.15686275 0.40171569 0.01176471
0.16629902 0.40171569 0.01176471
0.17619485 0.40171569 0.01397059
0.18958333 0.40343137 0.01397059
0.20318627 0.40343137 0.01397059
0.21789216 0.40343137 0.01568627
0.24160539 0.40508578 0.01568627
0.26360294 0.40563725 0.01568627
0.28622855 0.40735294 0.01789216
0.31247702 0.40735294 0.01960784
0.33995098 0.40955882 0.01960784
0.37091759 0.41127451 0.01960784
0.39877451 0.41127451 0.02181373
0.4372549 0.41348039 0.02352941
0.4745098 0.41519608 0.02573529
0.51127451 0.41740196 0.02745098
0.54632353 0.41911765 0.03040748
0.57981771 0.42132353 0.03337163
0.61470588 0.42386642 0.03529412
0.64313725 0.42696078 0.0375
0.68480392 0.42970282 0.04195772
0.72156863 0.43308824 0.04534314
0.75661765 0.4370098 0.04926471
0.79166667 0.44093137 0.05318627
0.825 0.44485294 0.05882353
0.85860141 0.44877451 0.0627451
0.89090074 0.4546875 0.06908701
0.92099418 0.46053922 0.07581955
0.9495098 0.46631434 0.08249081
0.97946538 0.47519148 0.09136795
1 0.48406863 0.1002451
0.15257353 0.43063725 0.00784314
0.15852865 0.43063725 0.00784314
0.16433824 0.43063725 0.00784314
0.17022059 0.43063725 0.00799249
0.1803462 0.43063725 0.00821078
0.1935049 0.43063725 0.00821078
0.21102941 0.43063725 0.00821078
0.22673483 0.4310049 0.01176471
0.25 0.4310049 0.01176471
0.2722235 0.43455882 0.01176471
0.29669884 0.43455882 0.01176471
0.32273667 0.43492647 0.01213235
0.35133272 0.43492647 0.01568627
0.38112745 0.43848039 0.01568627
0.41237745 0.43868719 0.01605392
0.45085784 0.44240196 0.01960784
0.48590686 0.44240196 0.01960784
0.52132353 0.44276961 0.01997549
0.5560049 0.44632353 0.02352941
0.59105392 0.44669118 0.02389706
0.62610294 0.45061275 0.02745098
0.65098039 0.45416667 0.03137255
0.69264706 0.45564491 0.0328508
0.73125 0.45845588 0.03566176
0.76629902 0.46237745 0.04047181
0.79779412 0.46619562 0.04605928
0.8327742 0.47022059 0.05098039
0.86397059 0.47414216 0.05526961
0.89509804 0.47850797 0.05968137
0.92622549 0.48575751 0.06688496
0.95343137 0.49005055 0.07453278
0.98436351 0.49767157 0.08068704
1 0.50551471 0.09056373
0.15833333 0.45637255 0.00392157
0.16539522 0.45784314 0.00392157
0.17009804 0.45784314 0.00392157
0.18098958 0.45784314 0.00392157
0.19313725 0.45784314 0.00392157
0.2067402 0.45784314 0.00637255
0.22279412 0.45784314 0.00637255
0.23897059 0.46029412 0.00637255
0.26176471 0.46029412 0.00784314
0.28468137 0.46029412 0.00784314
0.30882353 0.46176471 0.00784314
0.33579963 0.46176471 0.00784314
0.36415441 0.46421569 0.00784314
0.39658395 0.46568627 0.01029412
0.42598039 0.46568627 0.01176471
0.46446078 0.46813725 0.01176471
0.4995098 0.46960784 0.01421569
0.53455882 0.46960784 0.01568627
0.56706495 0.47270221 0.01568627
0.60073529 0.47575061 0.01813725
0.63431373 0.47745098 0.02052696
0.6627451 0.47990196 0.02205882
0.70441176 0.48137255 0.02598039
0.73946078 0.48497243 0.02745098
0.77205882 0.4877451 0.03137255
0.80710784 0.49166667 0.03529412
0.84022672 0.49558824 0.03967525
0.87181373 0.4995098 0.04655331
0.9026348 0.5036152 0.05128676
0.93074449 0.50882353 0.0582261
0.96112132 0.51519608 0.06519608
0.98916973 0.52189032 0.07189032
1 0.52843137 0.08088235
0.17254902 0.47843137 0.00392157
0.17647059 0.47843137 0.00392157
0.18406863 0.47843137 0.00392157
0.19215686 0.47843137 0.00392157
0.20343137 0.47843137 0.00392157
0.21703431 0.47843137 0.00392157
0.23455882 0.48235294 0.00392157
0.24926471 0.48235294 0.00392157
0.27352941 0.48235294 0.00392157
0.29497549 0.48235294 0.00392157
0.31911765 0.48235294 0.00392157
0.34632353 0.48627451 0.00392157
0.37745098 0.48627451 0.00392157
0.40857843 0.48627451 0.00784314
0.44019608 0.48627451 0.00784314
0.4747549 0.49019608 0.00784314
0.50980392 0.49019608 0.00784314
0.54485294 0.49019608 0.01164216
0.57598039 0.49411765 0.01176471
0.61102941 0.49411765 0.01176471
0.64215686 0.49803922 0.01568627
0.67058824 0.49803922 0.01568627
0.7122549 0.50196078 0.01960784
0.74730392 0.50588235 0.02267157
0.77843137 0.50686275 0.0245098
0.81348039 0.50980392 0.03026961
0.84460784 0.51372549 0.03137255
0.87708333 0.51764706 0.03529412
0.90686275 0.52205882 0.04313725
0.9379902 0.52781863 0.04938725
0.96519608 0.53333333 0.05514706
0.99240196 0.53933824 0.06482843
1 0.54509804 0.0745098
0.19338235 0.50833333 0
0.19730392 0.50833333 0
0.20490196 0.50833333 0
0.2129902 0.50833333 0
0.22426471 0.51102941 0
0.23786765 0.51102941 0
0.25147059 0.51102941 0
0.26652114 0.51102941 0
0.29044118 0.51102941 0
0.31370251 0.5122549 0
0.33995098 0.5122549 0
0.36715686 0.51495098 0
0.39828431 0.51495098 0
0.42941176 0.51495098 0
0.45882353 0.51617647 0
0.49558824 0.51887255 0.00269608
0.52671569 0.51887255 0.00392157
0.55792739 0.52009804 0.00392157
0.59166667 0.52279412 0.00392157
0.62401961 0.52279412 0.00636489
0.65683211 0.52671569 0.00784314
0.68357843 0.52671569 0.00784314
0.7252451 0.53063725 0.01053922
0.75906863 0.53159467 0.01176471
0.79142157 0.53455882 0.01476716
0.8252451 0.53848039 0.01762408
