Kodak Converted/Kodak Kodachrome 200.cube
# Exported with LUT Lab 1.2.1
# LUTLab.com
TITLE Kodak Kodachrome 200
LUT_3D_SIZE 9
0 0 0
0.05833333 0 0
0.15882353 0 0
0.31470588 0 0
0.49215686 0 0.00392157
0.63823529 0 0.00392157
0.75098039 0 0.00784314
0.85539216 0 0.01176471
0.91764706 0 0.01176471
0.03088235 0.07401961 0.02303922
0.08186275 0.07352941 0.02303922
0.19754902 0.07009804 0.02696078
0.35214461 0.07009804 0.03088235
0.51715686 0.06617647 0.03480392
0.65392157 0.06176471 0.03480392
0.7627451 0.05441176 0.02732843
0.86323529 0.04264706 0.02352941
0.9254902 0.03480392 0.02696078
0.08627451 0.20588235 0.08921569
0.12892157 0.20588235 0.08921569
0.22843137 0.20588235 0.09313725
0.38713235 0.20196078 0.09705882
0.5372549 0.19803922 0.10098039
0.6692402 0.19019608 0.09705882
0.77352941 0.17843137 0.08921569
0.87156863 0.1627451 0.07352941
0.93627451 0.15 0.05784314
0.02647059 0.37745098 0.16323529
0.12156863 0.37745098 0.16323529
0.26323529 0.37745098 0.16715686
0.41666667 0.37653186 0.17107843
0.55686275 0.37352941 0.16715686
0.67898284 0.36813725 0.16323529
0.78137255 0.36139706 0.15539216
0.87941176 0.34852941 0.13970588
0.94509804 0.33676471 0.12401961
0.13529412 0.5254902 0.25882353
0.21078431 0.5254902 0.26078431
0.32647059 0.5254902 0.26078431
0.45196078 0.5254902 0.26078431
0.57647059 0.5254902 0.25686275
0.68382353 0.52279412 0.24705882
0.78235294 0.52156863 0.22941176
0.88284314 0.51372549 0.20196078
0.94509804 0.50980392 0.18235294
0.30098039 0.64068627 0.36372549
0.33449755 0.64068627 0.36617647
0.40441176 0.64068627 0.36617647
0.5004902 0.64068627 0.36372549
0.60073529 0.64068627 0.35906863
0.69313725 0.64068627 0.34803922
0.78529412 0.63823529 0.33088235
0.88302696 0.63645833 0.3004902
0.94901961 0.63284314 0.26813725
0.41666667 0.73823529 0.46764706
0.43627451 0.73823529 0.46764706
0.48406863 0.73823529 0.46764706
0.55245098 0.73823529 0.46764706
0.62941176 0.73823529 0.46372549
0.70735294 0.73823529 0.45588235
0.79313725 0.73529412 0.44117647
0.8872549 0.73431373 0.41323529
0.95294118 0.73137255 0.37843137
0.51029412 0.83235294 0.56519608
0.52248775 0.83235294 0.56519608
0.55343137 0.83235294 0.56519608
0.60245098 0.83235294 0.56176471
0.66078431 0.83235294 0.56127451
0.72745098 0.83235294 0.55735294
0.80625 0.83235294 0.5495098
0.89852941 0.83235294 0.53033088
0.96470588 0.83186275 0.50686275
0.59215686 0.94901961 0.66666667
0.6 0.94901961 0.66666667
0.61960784 0.94901961 0.66666667
0.65343137 0.94901961 0.66666667
0.7 0.95294118 0.66666667
0.75833333 0.95294118 0.66666667
0.82843137 0.95294118 0.6627451
0.91421569 0.95294118 0.65098039
0.98823529 0.95294118 0.63529412
0 0 0.01568627
0.05091912 0 0.01960784
0.15098039 0 0.02303922
0.31323529 0 0.02696078
0.49019608 0 0.03137255
0.63823529 0 0.03118873
0.75392157 0 0.02696078
0.85588235 0 0.01568627
0.92156863 0 0.01176471
0.02696078 0.07352941 0.07352941
0.07401961 0.07009804 0.07396599
0.19019608 0.07009804 0.07751225
0.34981618 0.06960784 0.08229167
0.51372549 0.06568627 0.08535539
0.65373775 0.05833333 0.08229167
0.76176471 0.05428922 0.07444853
0.86323529 0.04215686 0.05870864
0.9254902 0.03088235 0.04307598
0.08235294 0.20588235 0.13578431
0.125 0.20588235 0.13578431
0.2245098 0.20196078 0.13970588
0.38334865 0.20196078 0.14362745
0.5372549 0.19705882 0.14362745
0.66752451 0.18921569 0.13590686
0.77279412 0.17843137 0.12515319
0.87156863 0.16263787 0.10833333
0.93627451 0.14705882 0.09264706
0.01881127 0.37745098 0.21372549
0.11002604 0.37745098 0.21372549
0.25877757 0.37745098 0.21764706
0.4127451 0.37745098 0.21764706
0.55621936 0.37352941 0.21626838
0.67609528 0.36905637 0.20607384
0.77843137 0.36139706 0.19019608
0.87892157 0.34852941 0.17015931
0.94148284 0.33676471 0.15147059
0.12377451 0.52941176 0.30539216
0.20294118 0.52941176 0.30539216
0.32156863 0.52941176 0.30735294
0.44803922 0.52745098 0.30735294
0.57267157 0.5254902 0.30343137
0.68072917 0.5254902 0.29558824
0.77843137 0.52156863 0.27922794
0.8791973 0.51372549 0.24828431
0.94509804 0.50980392 0.22107843
0.29313725 0.64215686 0.40490196
0.32797947 0.64215686 0.40490196
0.4004902 0.64215686 0.40508578
0.4957644 0.64215686 0.40490196
0.59681373 0.64206495 0.4010723
0.68921569 0.64068627 0.39313725
0.78137255 0.63823529 0.37737439
0.87941176 0.63676471 0.3473269
0.94509804 0.63284314 0.31617647
0.4127451 0.73823529 0.49509804
0.43321078 0.73823529 0.49509804
0.48235294 0.73823529 0.49509804
0.54852941 0.73823529 0.49509804
0.6254902 0.73823529 0.49332108
0.70454963 0.73823529 0.48765319
0.78946078 0.73823529 0.47634804
0.88419118 0.73506434 0.45266544
0.95294118 0.73431373 0.425
0.51029412 0.83235294 0.58431373
0.52205882 0.83235294 0.58431373
0.55245098 0.83235294 0.58431373
0.59901961 0.83535539 0.58131127
0.65735294 0.83578431 0.58088235
0.72696078 0.83578431 0.57738971
0.80490196 0.83578431 0.57259498
0.89509804 0.83235294 0.55654105
0.96470588 0.83186275 0.5372549
0.58823529 0.95294118 0.67843137
0.5995098 0.95294118 0.67843137
0.61960784 0.95294118 0.68186275
0.65343137 0.95294118 0.68186275
0.7 0.95294118 0.68186275
0.75833333 0.95294118 0.67843137
0.8245098 0.95379902 0.67794118
0.91078431 0.95686275 0.66666667
0.98431373 0.95686275 0.65441176
0 0 0.06960784
0.04656863 0 0.06960784
0.14705882 0 0.07352941
0.30931373 0 0.07745098
0.49019608 0 0.08137255
0.63823529 0 0.07843137
0.75098039 0 0.07058824
0.85588235 0 0.05784314
0.92156863 0 0.04215686
0.02046569 0.07009804 0.14276961
0.06960784 0.07009804 0.14362745
0.18514093 0.06960784 0.1439951
0.34469975 0.06617647 0.1477788
0.51151961 0.0622549 0.14791667
0.65 0.05833333 0.14180453
0.75882353 0.0504902 0.12794118
0.86323529 0.03872549 0.10790441
0.9254902 0.03088235 0.08921569
0.0745098 0.20269608 0.20955882
0.11715686 0.20196078 0.20980392
0.2161152 0.20196078 0.21366422
0.37717525 0.19803922 0.21666667
0.53259804 0.19411765 0.21482843
0.66176471 0.18627451 0.20726103
0.76905637 0.17671569 0.19019608
0.87107843 0.15946691 0.1627451
0.93333333 0.14607843 0.13921569
0.0122549 0.37745098 0.2935049
0.09375 0.37745098 0.29554228
0.24782475 0.37745098 0.29852941
0.4066636 0.37653186 0.2995098
0.54901961 0.37352941 0.29914216
0.66960784 0.36813725 0.29129902
0.77352941 0.36029412 0.27545956
0.875 0.34852941 0.24718137
0.94117647 0.33676471 0.21715686
0.1004902 0.52941176 0.38333333
0.18333333 0.52941176 0.38529412
0.30980392 0.52941176 0.38676471
0.43927696 0.52941176 0.38921569
0.56568627 0.52745098 0.38676471
0.67352941 0.5254902 0.38088235
0.77352941 0.52156863 0.36666667
0.87199755 0.51740196 0.33811275
0.93970588 0.50980392 0.31029412
0.28137255 0.64460784 0.46715686
0.31867341 0.64460784 0.46715686
0.3921875 0.64460784 0.46715686
0.48895527 0.6439951 0.46862745
0.59019608 0.64215686 0.46715686
0.68382353 0.64215686 0.46323529
0.7745098 0.64068627 0.45477941
0.87339154 0.63676471 0.43282782
0.94117647 0.63431373 0.40772059
0.40588235 0.73921569 0.54215686
0.42601103 0.73921569 0.54289216
0.4745098 0.73921569 0.54509804
0.54460784 0.73921569 0.54509804
0.62046569 0.73921569 0.54509804
0.69960172 0.73823529 0.54117647
0.78529412 0.73823529 0.53468137
0.87941176 0.73529412 0.52120098
0.94509804 0.73431373 0.50196078
0.50257353 0.83578431 0.61911765
0.51766238 0.83578431 0.61911765
0.54852941 0.83578431 0.6192402
0.59509804 0.83578431 0.62009804
0.65343137 0.83578431 0.62009804
0.72303922 0.83578431 0.61911765
0.80110294 0.83578431 0.61519608
0.8912837 0.83578431 0.6035386
0.96078431 0.83235294 0.58909314
0.58823529 0.95294118 0.70588235
0.59607843 0.95294118 0.70588235
0.61568627 0.95294118 0.70588235
0.64987745 0.95686275 0.70588235
0.69607843 0.95686275 0.70882353
0.75441176 0.95686275 0.70882353
0.8245098 0.95686275 0.70588235
0.91029412 0.95686275 0.69803922
0.98431373 0.95686275 0.68921569
0 0 0.15392157
0.03627451 0 0.15539216
0.13921569 0 0.15931373
0.30202206 0 0.16323529
0.48431373 0 0.16715686
0.63284314 0 0.16084559
0.74705882 0 0.14718137
0.85324755 0 0.12352941
0.92156863 0 0.10294118
0.01305147 0.06979167 0.23333333
0.05784314 0.06960784 0.23360141
0.17348346 0.06617647 0.2372549
0.33645833 0.0622549 0.24148284
0.50548407 0.06176471 0.24362745
0.64215686 0.05441176 0.2372549
0.75392157 0.04656863 0.22340686
0.85588235 0.03780637 0.19626225
0.92156863 0.02696078 0.16911765
0.06666667 0.20196078 0.30196078
0.10539216 0.20098039 0.30343137
0.20196078 0.19803922 0.30735294
0.36885723 0.19411765 0.31127451
0.52518382 0.19019608 0.31127451
0.65392157 0.18235294 0.30721507
0.76176471 0.17058824 0.2935049
0.86323529 0.15482537 0.26631434
0.92879902 0.13921569 0.23860294
0.00833333 0.37745098 0.38137255
0.0662454 0.37745098 0.38370864
0.23365502 0.37676164 0.3877451
0.39671415 0.37387408 0.39224112
0.54117647 0.37205882 0.39313725
0.66176471 0.36568627 0.38921569
0.76568627 0.35784314 0.37967218
0.86715686 0.34460784 0.35717678
0.93333333 0.33284314 0.33192402
0.06936275 0.52941176 0.45931373
0.16176471 0.52941176 0.4625
0.2971201 0.52941176 0.46323529
0.43039216 0.52941176 0.46715686
0.55723039 0.52843137 0.47034314
0.66568627 0.5254902 0.46715686
0.76476716 0.52156863 0.46231618
0.86372549 0.51608456 0.44656863
0.92941176 0.50980392 0.42720588
0.26568627 0.64460784 0.53333333
0.30441176 0.64460784 0.53333333
0.38088235 0.64460784 0.53333333
0.48088235 0.64460784 0.5372549
0.58262868 0.64460784 0.5372549
0.67598039 0.64215686 0.5372549
0.76960784 0.64068627 0.53333333
0.86715686 0.63805147 0.52156863
0.93333333 0.63431373 0.50833333
0.39411765 0.73921569 0.59705882
0.41752451 0.73921569 0.59889706
0.46666667 0.74215686 0.5995098
0.53676471 0.74215686 0.5995098
0.61372549 0.73921569 0.60281863
0.69375 0.73921569 0.60212929
0.77999387 0.73921569 0.5995098
0.875 0.73823529 0.59166667
0.94117647 0.73529412 0.57990196
0.49852941 0.83627451 0.66176471
0.51029412 0.83627451 0.66176471
0.54105392 0.83627451 0.66323529
0.58941483 0.83627451 0.66323529
0.6495098 0.83627451 0.66568627
0.71911765 0.83627451 0.66568627
0.79718137 0.83627451 0.66323529
0.88768382 0.83627451 0.65784314
0.95735294 0.83578431 0.64969363
0.58431373 0.95686275 0.73970588
0.59215686 0.95686275 0.73970588
0.61176471 0.95931373 0.73970588
0.64705882 0.96078431 0.74117647
0.69289216 0.96078431 0.74117647
0.7504902 0.96078431 0.74362745
0.82058824 0.96078431 0.74117647
0.90814951 0.96470588 0.7372549
0.98823529 0.96323529 0.72941176
0 0 0.25490196
0.025 0 0.25882353
0.12352941 0 0.26421569
0.29044118 0 0.27058824
0.4754902 0 0.2745098
0.62254902 0 0.27254902
0.73872549 0 0.2627451
0.84411765 0 0.23921569
0.91372549 0 0.21568627
0.00784314 0.06397059 0.32696078
0.04607843 0.0622549 0.32916667
0.15876225 0.06176471 0.33480392
0.32352941 0.05833333 0.34093137
0.49411765 0.05441176 0.34656863
0.63422181 0.0504902 0.34485294
0.74313725 0.04264706 0.33829657
0.84754902 0.03088235 0.32061887
0.91372549 0.02303922 0.29754902
0.05784314 0.19411765 0.38921569
0.09656863 0.19411765 0.38921569
0.18970588 0.19166667 0.39473039
0.35747549 0.18829657 0.40098039
0.51593137 0.18235294 0.40490196
0.64607843 0.1745098 0.40490196
0.75098039 0.1627451 0.40098039
0.85196078 0.14693627 0.38523284
0.91764706 0.13088235 0.36764706
0.00833333 0.37352941 0.45931373
0.03694853 0.37352941 0.46323529
0.21642157 0.37205882 0.46715686
0.38529412 0.36960784 0.475
0.53333333 0.36568627 0.47892157
0.65392157 0.36029412 0.47892157
0.75784314 0.35245098 0.475
0.85931373 0.33912377 0.46323529
0.92352941 0.325 0.45073529
0.03235294 0.52941176 0.52941176
0.13039216 0.52941176 0.53333333
0.28112745 0.52941176 0.5372549
0.4189951 0.52781863 0.54117647
0.54901961 0.5254902 0.54509804
0.65845588 0.5254902 0.54509804
0.75784314 0.52156863 0.54509804
0.85931373 0.51372549 0.5372549
0.9254902 0.50686275 0.5254902
0.24485294 0.64460784 0.59166667
0.28676471 0.64460784 0.59289216
0.3685049 0.64460784 0.59558824
0.47135417 0.64460784 0.5995098
0.57487745 0.64276961 0.60134804
0.66868873 0.64215686 0.60343137
0.76194853 0.64068627 0.60269608
0.85980392 0.63676471 0.59666054
0.92622549 0.63431373 0.59019608
0.38382353 0.74215686 0.64803922
0.4057598 0.74215686 0.6495098
0.45882353 0.74215686 0.65
0.52892157 0.74215686 0.65343137
0.60686275 0.74215686 0.65392157
0.68792892 0.74215686 0.65539216
0.77487745 0.73921569 0.65539216
0.87107843 0.73823529 0.65147059
0.9372549 0.73529412 0.64607843
0.49068627 0.83970588 0.70441176
0.50245098 0.83970588 0.70612745
0.53382353 0.83970588 0.70637255
0.58333333 0.83970588 0.70833333
0.64509804 0.83970588 0.70833333
0.71519608 0.83970588 0.71029412
0.7932598 0.83970588 0.71029412
0.88676471 0.83970588 0.7083027
0.95686275 0.83627451 0.70220588
0.57843137 0.96470588 0.77647059
0.5879902 0.96470588 0.77647059
0.60784314 0.96470588 0.77647059
0.64166667 0.96470588 0.77843137
0.68823529 0.96470588 0.78039216
0.74656863 0.96544118 0.78039216
0.81666667 0.96862745 0.78235294
0.90686275 0.96862745 0.77843137
0.98823529 0.96862745 0.7745098
0 0 0.34656863
0.01390931 0 0.35441176
0.10784314 0 0.35833333
0.27794118 0 0.36709559
0.46470588 0 0.3754902
0.61470588 0 0.37941176
0.72745098 0 0.37794118
0.83578431 0 0.36764706
0.90196078 0 0.35588235
0.00392157 0.05655637 0.40882353
0.03115043 0.05441176 0.4127451
0.14082414 0.05392157 0.41666667
0.30919884 0.0504902 0.4245098
0.48406863 0.04656863 0.43235294
0.62469363 0.04246324 0.43627451
0.73431373 0.03475797 0.43284314
0.83815104 0.02303922 0.42469363
0.90196078 0.01568627 0.41452206
0.04607843 0.18235294 0.46029412
0.08088235 0.18235294 0.46323529
0.17469363 0.17843137 0.46804534
0.3439951 0.17519914 0.475
0.50588235 0.17040441 0.48284314
0.63809743 0.16237745 0.48566176
0.74313725 0.15018382 0.48284314
0.84411765 0.13137255 0.47532169
0.90980392 0.11568627 0.46715686
0.00980392 0.3651348 0.5254902
0.03400735 0.3651348 0.52941176
0.19664522 0.36421569 0.53333333
0.37332261 0.36176471 0.54117647
0.5254902 0.3575674 0.54509804
0.64818474 0.35245098 0.54901961
0.75098039 0.342019 0.54901961
0.85196078 0.32873775 0.5419807
0.91764706 0.31323529 0.53425245
0 0.5254902 0.59019608
0.0872549 0.5254902 0.59166667
0.26151961 0.5254902 0.59558824
0.40808824 0.5254902 0.5995098
0.54117647 0.52156863 0.60465686
0.65245098 0.52156863 0.60735294
0.75098039 0.51764706 0.60857843
0.85196078 0.50980392 0.60726103
0.91887255 0.50196078 0.60073529
0.22009804 0.64215686 0.64552696
0.26764706 0.64215686 0.64607843
0.35412071 0.64215686 0.64944853
0.46127451 0.64215686 0.65268076
0.56740196 0.64215686 0.65545343
0.66364124 0.64068627 0.65784314
0.75784314 0.63823529 0.659375
0.85588235 0.63664982 0.65784314
0.92457108 0.63284314 0.65392157
0.37022059 0.74215686 0.69620098
0.39385723 0.74215686 0.69656863
0.44705882 0.74215686 0.69840686
0.52107843 0.74215686 0.7004902
0.59993873 0.74215686 0.70404412
0.68313419 0.74215686 0.70625
0.76985294 0.73921569 0.70796569
0.86715686 0.73823529 0.70625
0.93431373 0.73529412 0.70404412
0.47892157 0.84019608 0.7495098
0.49415594 0.84019608 0.7495098
0.5256587 0.84019608 0.75098039
0.5754902 0.84019608 0.753125
0.63756127 0.84019608 0.75490196
0.70784314 0.84019608 0.75704657
0.78921569 0.84019608 0.75863971
0.88290441 0.83970588 0.75704657
0.95343137 0.83627451 0.75471814
0.57254902 0.96862745 0.81715686
0.58039216 0.96862745 0.81715686
0.6 0.96862745 0.81715686
0.63682598 0.96862745 0.81960784
0.68431373 0.97132353 0.82107843
0.74264706 0.97254902 0.82352941
0.8127451 0.97254902 0.825
0.90294118 0.97254902 0.825
0.98823529 0.97254902 0.82107843
0 0 0.4245098
0.00735294 0 0.42843137
0.08823529 0 0.43627451
0.25833333 0 0.44411765
0.45490196 0 0.45539216
0.6064951 0 0.45980392
0.72181373 0 0.46372549
0.82830882 0 0.45980392
0.89411765 0 0.45588235
0 0.04644608 0.47156863
0.01954657 0.04264706 0.47547488
0.12282475 0.04264706 0.48198529
0.2926011 0.03969056 0.49068627
0.47383578 0.03480392 0.49852941
0.61470588 0.03088235 0.50286458
0.72711397 0.02303922 0.50294118
0.83186275 0.01519608 0.50245098
0.89803922 0.01041667 0.49852941
0.03039216 0.16642157 0.51838235
0.06433824 0.16495098 0.52156863
0.15729167 0.1625 0.52604167
0.32830882 0.15882353 0.53379289
0.49742647 0.15208333 0.54117647
0.63030025 0.14313725 0.54509804
0.73805147 0.13131127 0.54583333
0.83970588 0.11369485 0.54408701
0.90563725 0.09926471 0.5379902
0.01678922 0.35245098 0.57990196
0.03788297 0.35245098 0.58321078
0.17352941 0.35183824 0.5877451
0.36121324 0.34852941 0.59535846
0.51764706 0.34430147 0.60006127
0.642019 0.33676471 0.60453431
0.74607843 0.32720588 0.60735294
0.84803922 0.31092218 0.60343137
0.91372549 0.29546569 0.5995098
0 0.52156863 0.64166667
0.02959559 0.52156863 0.64215686
0.23627451 0.52107843 0.64718137
0.39509804 0.51764706 0.65343137
0.53333333 0.51764706 0.65784314
0.64607843 0.51372549 0.66176471
0.74681373 0.50980392 0.66519608
0.84803922 0.50196078 0.66519608
0.91764706 0.49558824 0.66176471
0.18664216 0.64068627 0.69448529
0.2376685 0.64068627 0.69620098
0.33449755 0.64068627 0.69840686
0.4495098 0.64068627 0.7027114
0.55851716 0.63915441 0.70796569
0.65637255 0.63823529 0.71078431
0.7518076 0.63676471 0.7122549
0.85196078 0.63284314 0.71409314
0.92156863 0.62892157 0.7122549
0.35 0.74215686 0.74313725
0.37447917 0.74215686 0.74534314
0.43210784 0.74160539 0.74705882
0.50931373 0.74142157 0.75073529
0.59105392 0.73921569 0.75355392
0.67598039 0.73921569 0.75710784
0.76568627 0.73823529 0.75882353
0.86323529 0.73529412 0.75882353
0.93333333 0.73431373 0.75882353
0.46629902 0.84019608 0.79620098
0.47924326 0.84019608 0.79656863
0.51332721 0.84019608 0.79754902
0.56469056 0.84019608 0.80012255
0.62941176 0.84019608 0.80147059
0.70096507 0.84019608 0.80531556
0.78465074 0.84019608 0.80796569
0.87898284 0.84019608 0.80919118
0.95294118 0.83970588 0.80796569
0.56078431 0.97254902 0.85980392
0.57120098 0.97254902 0.85980392
0.59215686 0.97352941 0.8627451
0.62745098 0.97647059 0.86372549
0.67647059 0.97647059 0.86715686
0.7377451 0.97647059 0.86875
0.80882353 0.98039216 0.87156863
0.90245098 0.98039216 0.8745098
0.99215686 0.98039216 0.87156863
0 0 0.48676471
0.00300245 0 0.49068627
0.06813725 0 0.49718137
0.23872549 0 0.50637255
0.44289216 0 0.51789216
0.59724265 0 0.52334559
0.71470588 0 0.52990196
0.82359069 0 0.52990196
0.89019608 0 0.52990196
0 0.03088235 0.52598039
0.00783548 0.03088235 0.52984069
0.09606311 0.02696078 0.53607537
0.27003676 0.02653186 0.54493719
0.46032475 0.02282475 0.5533701
0.60683977 0.01868873 0.56051624
0.71937806 0.01176471 0.56427696
0.82450214 0.00729933 0.56427696
0.89019608 0.00343137 0.56078431
0.01470588 0.14178922 0.56813725
0.04166667 0.13921569 0.57169118
0.13189338 0.13786765 0.57598039
0.30810355 0.13137255 0.58382353
0.48363971 0.12696078 0.59252451
0.62046569 0.11729473 0.59914216
0.73030025 0.1064951 0.60036765
0.83235294 0.08818934 0.60026042
0.89803922 0.07598039 0.59656863
0.02352941 0.33253676 0.63008578
0.04133732 0.33235294 0.63039216
0.14203431 0.32892157 0.63788297
0.34342831 0.325 0.64558824
0.50588235 0.32107843 0.65064338
0.63431373 0.31316636 0.65735294
0.73921569 0.30121017 0.65784314
0.84362745 0.2837163 0.65784314
0.90980392 0.26599265 0.65520833
0 0.50980392 0.69240196
0 0.50980392 0.69264706
0.19852941 0.50980392 0.69785539
0.3765625 0.50955882 0.70441176
0.52156863 0.50588235 0.71004902
0.63814338 0.50196078 0.71602328
0.74215686 0.49803922 0.71985294
0.84411765 0.48995098 0.72009804
0.91372549 0.48210784 0.72009804
0.1254902 0.63431373 0.74528186
0.19175092 0.63431373 0.746875
0.30540748 0.63431373 0.75047488
0.42990196 0.63431373 0.75471814
0.54583333 0.63422181 0.75882353
0.64699755 0.63284314 0.76354933
0.74607843 0.6303462 0.76666667
0.84800092 0.62628676 0.77058824
0.91764706 0.6223652 0.77058824
0.31911765 0.73823529 0.79362745
0.34678309 0.73823529 0.79620098
0.41063113 0.73823529 0.79754902
0.49281556 0.73823529 0.80147059
0.57843137 0.73823529 0.80539216
0.66511949 0.73529412 0.80931373
0.75784314 0.73529412 0.81323529
0.85663297 0.73362439 0.81703431
0.92941176 0.73039216 0.81715686
0.44319853 0.84019608 0.84797794
0.45926011 0.84019608 0.84797794
0.49448529 0.84019608 0.84803922
0.54803922 0.84019608 0.85196078
0.61421569 0.84019608 0.85582108
0.69166667 0.84019608 0.85974265
0.77477022 0.83970588 0.86334252
0.87199755 0.83970588 0.86672794
0.9495098 0.83627451 0.86758578
0.54509804 0.98039216 0.91421569
0.55594363 0.98039216 0.91421569
0.57647059 0.98039216 0.91421569
0.61421569 0.98039216 0.91813725
0.66470588 0.98088235 0.92205882
0.72696078 0.98431373 0.92598039
0.80098039 0.98431373 0.92990196
0.89509804 0.98823529 0.93382353
0.99215686 0.98823529 0.93382353
0 0 0.51372549
0 0 0.52156863
0.05294118 0 0.5254902
0.22696078 0 0.5372549
0.43333333 0 0.54705882
0.59117647 0 0.55441176
0.71078431 0 0.56078431
0.82009804 0 0.56470588
0.89019608 0 0.56470588
0 0.02303922 0.55294118
0.00392157 0.02303922 0.55686275
0.08039216 0.01960784 0.56078431
0.25441176 0.01911765 0.57205882
0.45073529 0.01519608 0.58039216
0.59901961 0.01127451 0.58823529
0.71470588 0.00735294 0.59215686
0.82058824 0.00343137 0.59215686
0.88627451 0 0.59166667
0.00784314 0.12352941 0.59509804
0.02732843 0.12352941 0.59509804
0.11568627 0.11960784 0.60220588
0.29301471 0.11568627 0.61078431
0.4745098 0.10784314 0.61862745
0.61433824 0.1 0.62352941
0.72352941 0.08823529 0.62745098
0.82843137 0.07254902 0.63002451
0.89411765 0.06078431 0.62745098
0.01568627 0.31715686 0.65343137
0.03627451 0.31323529 0.65735294
0.12438725 0.31323529 0.66127451
0.32984069 0.30931373 0.66911765
0.49803922 0.30147059 0.67696078
0.62892157 0.29362745 0.68088235
0.73529412 0.28186275 0.68480392
0.84019608 0.26207108 0.68480392
0.90588235 0.24264706 0.68480392
0 0.50196078 0.71764706
0 0.50196078 0.71960784
0.16666667 0.50196078 0.72352941
0.3629902 0.5 0.73137255
0.51372549 0.49803922 0.73823529
0.63284314 0.49411765 0.74313725
0.73823529 0.48823529 0.74705882
0.84362745 0.47843137 0.75098039
0.90980392 0.46862745 0.75098039
0.0495098 0.63039216 0.77254902
0.15245098 0.63039216 0.77401961
0.28186275 0.63039216 0.77794118
0.41813725 0.63039216 0.78186275
0.5372549 0.62892157 0.78823529
0.64123775 0.62647059 0.79362745
0.74031863 0.625 0.79754902
0.84411765 0.61862745 0.80147059
0.91519608 0.61470588 0.80147059
0.28921569 0.73431373 0.8245098
0.32303922 0.73431373 0.8245098
0.39215686 0.73431373 0.82843137
0.47794118 0.73431373 0.83198529
0.56764706 0.73431373 0.83627451
0.65845588 0.73431373 0.84019608
0.75171569 0.73137255 0.84411765
0.85281863 0.72745098 0.84803922
0.92647059 0.72647059 0.85196078
0.42401961 0.83970588 0.87892157
0.43970588 0.83970588 0.87892157
0.47806373 0.83970588 0.88235294
0.53627451 0.83970588 0.88284314
0.60588235 0.83627451 0.88676471
0.68167892 0.83627451 0.89411765
0.76960784 0.83627451 0.89852941
0.86764706 0.83621324 0.90245098
0.94901961 0.83235294 0.90637255
0.52941176 0.98039216 0.95294118
0.5372549 0.98039216 0.95294118
0.56078431 0.98039216 0.95686275
0.6 0.98431373 0.95686275
0.65098039 0.98431373 0.96470588
0.71519608 0.98823529 0.96862745
0.78921569 0.98823529 0.97647059
0.8872549 0.99215686 0.98431373
1 0.99607843 0.99607843
