Kodak Converted/Kodak Portra 400.cube
# Exported with LUT Lab 1.2.1
# LUTLab.com
TITLE Kodak Portra 400 2
LUT_3D_SIZE 5
0.01568627 0.01568627 0.01568627
0.21372549 0.00882353 0.00882353
0.62941176 0 0
0.93235294 0 0
1 0.22352941 0
0 0.17843137 0.03137255
0.17058824 0.20588235 0.00098039
0.61911765 0.26372549 0
0.91151961 0.31078431 0
1 0.37843137 0
0 0.48039216 0.11568627
0 0.4504902 0.14705882
0.4872549 0.53235294 0
0.84852941 0.58431373 0
1 0.59215686 0
0 0.71960784 0.28921569
0.06740196 0.70318627 0.30318627
0.4245098 0.70539216 0.29656863
0.74485294 0.75490196 0.19289216
1 0.79019608 0
0.5372549 0.94901961 0.65098039
0.57647059 0.94215686 0.65980392
0.6745098 0.93333333 0.69411765
0.78823529 0.95980392 0.68137255
0.96078431 0.98431373 0.64313725
0 0.01960784 0.22843137
0.28259804 0 0.27377451
0.66862745 0 0.27696078
0.94142157 0 0.24485294
1 0.20294118 0.21568627
0 0.24901961 0.25196078
0.24240196 0.26017157 0.26072304
0.65245098 0.25698529 0.24571078
0.91960784 0.29215686 0.21574755
1 0.36642157 0.18406863
0 0.56372549 0.31862745
0.15857843 0.52732843 0.30514706
0.52622549 0.55735294 0.27205882
0.85808824 0.58357843 0.13860294
1 0.58480392 0.00441176
0 0.74632353 0.39411765
0.21286765 0.72984069 0.40373775
0.45196078 0.70833333 0.40416667
0.75098039 0.7625 0.35367647
1 0.79264706 0.24460784
0.54117647 0.95294118 0.66666667
0.58039216 0.94681373 0.67843137
0.67892157 0.93872549 0.70931373
0.78946078 0.95710784 0.70220588
0.96372549 0.98431373 0.67352941
0 0.01372549 0.59607843
0.3372549 0 0.63431373
0.77058824 0 0.70098039
0.95441176 0 0.66470588
1 0.21372549 0.61568627
0 0.27156863 0.56617647
0.27389706 0.27794118 0.61188725
0.73455882 0.31593137 0.68553922
0.92941176 0.33125 0.65490196
1 0.40882353 0.6127451
0 0.61862745 0.61764706
0.21470588 0.62058824 0.62058824
0.61911765 0.62303922 0.62794118
0.8629902 0.61568627 0.61004902
1 0.61568627 0.58921569
0.34558824 0.81323529 0.64852941
0.45698529 0.80404412 0.6495098
0.55955882 0.75735294 0.61348039
0.76973039 0.77953431 0.60098039
1 0.79166667 0.54264706
0.56862745 0.96666667 0.73333333
0.58627451 0.96519608 0.72990196
0.68039216 0.95490196 0.74705882
0.80098039 0.95686275 0.76519608
0.96470588 0.98431373 0.74313725
0.26078431 0.10784314 0.82843137
0.45220588 0.09117647 0.83995098
0.75245098 0.12990196 0.87107843
0.98210784 0.28897059 0.89583333
1 0.37745098 0.85588235
0.19019608 0.3125 0.81348039
0.41213235 0.32561275 0.8247549
0.72205882 0.38860294 0.85980392
0.9567402 0.48376225 0.88946078
1 0.50906863 0.85490196
0 0.55147059 0.74068627
0.2192402 0.56446078 0.76004902
0.62794118 0.61470588 0.81617647
0.90502451 0.69227941 0.86862745
1 0.68627451 0.85539216
0.26151961 0.82230392 0.81838235
0.4 0.82395833 0.8213848
0.61703431 0.82156863 0.82193627
0.83645833 0.83063725 0.83272059
1 0.8254902 0.82156863
0.55588235 1 0.85490196
0.60367647 0.99705882 0.85588235
0.71911765 0.98627451 0.85980392
0.81985294 0.96862745 0.85196078
0.97941176 0.99215686 0.85490196
0.55686275 0.43529412 1
0.61568627 0.43921569 1
0.76078431 0.46666667 1
0.93431373 0.52254902 1
1 0.58039216 1
0.55196078 0.53431373 0.99607843
0.61151961 0.53921569 0.99681373
0.75098039 0.55882353 1
0.92573529 0.60686275 1
1 0.64509804 1
0.51568627 0.68235294 0.98431373
0.56127451 0.67254902 0.98578431
0.71862745 0.69117647 0.99117647
0.90294118 0.72990196 0.99803922
1 0.76666667 1
0.42156863 0.82156863 0.97647059
0.47230392 0.81838235 0.97647059
0.60294118 0.81323529 0.97647059
0.8497549 0.8372549 0.98921569
1 0.89117647 1
0.49019608 0.99607843 0.99607843
0.54117647 1 0.99607843
0.66862745 0.99803922 0.99607843
0.82941176 0.99607843 0.99607843
1 1 1
