Kodak Converted/Kodak Portra 400 ++.cube
# Exported with LUT Lab 1.2.1
# LUTLab.com
TITLE Kodak Portra 400 4 ++
LUT_3D_SIZE 5
0.0745098 0.07843137 0.05882353
0.22647059 0.07843137 0.05588235
0.62941176 0 0.01372549
0.92352941 0.03627451 0
1 0.2627451 0
0 0.20588235 0.07843137
0.17230392 0.22647059 0.05490196
0.61911765 0.2754902 0
0.90294118 0.32426471 0
1 0.40196078 0
0 0.48235294 0.12352941
0 0.45196078 0.15147059
0.47941176 0.53431373 0
0.8372549 0.59215686 0
1 0.6 0
0 0.71568627 0.26960784
0.11911765 0.7 0.28357843
0.43676471 0.70147059 0.27696078
0.73627451 0.74779412 0.17328431
1 0.79019608 0
0.54509804 0.9372549 0.64313725
0.58039216 0.93039216 0.65196078
0.66862745 0.92156863 0.68627451
0.77254902 0.94901961 0.67352941
0.94117647 0.97647059 0.63529412
0.04803922 0.08627451 0.22941176
0.28333333 0.04730392 0.26764706
0.66862745 0 0.27156863
0.93357843 0 0.2372549
1 0.23823529 0.20392157
0 0.26397059 0.24803922
0.24411765 0.27230392 0.25343137
0.65441176 0.26764706 0.23823529
0.91158088 0.30710784 0.20863971
1 0.38602941 0.17230392
0 0.56568627 0.30490196
0.16176471 0.52781863 0.29215686
0.525 0.55857843 0.25661765
0.84791667 0.58958333 0.12279412
1 0.59264706 0
0 0.73921569 0.37843137
0.24607843 0.72573529 0.38468137
0.46568627 0.70416667 0.38676471
0.74307598 0.75465686 0.33560049
1 0.79019608 0.22107843
0.54509804 0.94117647 0.65882353
0.58039216 0.93504902 0.66985294
0.67254902 0.92696078 0.70147059
0.77377451 0.94534314 0.69436275
0.94117647 0.97647059 0.66568627
0 0.09607843 0.58039216
0.34117647 0.03480392 0.62107843
0.77156863 0 0.69019608
0.94411765 0 0.65686275
1 0.2372549 0.60784314
0 0.28382353 0.55245098
0.27781863 0.28970588 0.59938725
0.7372549 0.32058824 0.67426471
0.91764706 0.34117647 0.64583333
1 0.41715686 0.60245098
0 0.62058824 0.60588235
0.23137255 0.62058824 0.60857843
0.62401961 0.62303922 0.61617647
0.85122549 0.61568627 0.59828431
1 0.61764706 0.57647059
0.375 0.80490196 0.63823529
0.47659314 0.79289216 0.64129902
0.56936275 0.74926471 0.60196078
0.75992647 0.77022059 0.59203431
1 0.78578431 0.53039216
0.56470588 0.95686275 0.7254902
0.58088235 0.95343137 0.72058824
0.67156863 0.94313725 0.7372549
0.78529412 0.94607843 0.75686275
0.94509804 0.97647059 0.73529412
0.27647059 0.14607843 0.81764706
0.46470588 0.12647059 0.83063725
0.75637255 0.14705882 0.86029412
0.96887255 0.30098039 0.88651961
1 0.38627451 0.84509804
0.20367647 0.32034314 0.80171569
0.425 0.33137255 0.81427696
0.72598039 0.39215686 0.84987745
0.94099265 0.48915441 0.87824755
1 0.51397059 0.84705882
0 0.55490196 0.72941176
0.23345588 0.56629902 0.75196078
0.63088235 0.6127451 0.80637255
0.89044118 0.68835784 0.85992647
1 0.68186275 0.84558824
0.30294118 0.81053922 0.80980392
0.42058824 0.8127451 0.81329657
0.61776961 0.81017157 0.81409314
0.8245098 0.82058824 0.8245098
1 0.81372549 0.81372549
0.54411765 0.98823529 0.84705882
0.59191176 0.98602941 0.84583333
0.70539216 0.97696078 0.85
0.80588235 0.95784314 0.84338235
0.96470588 0.98039216 0.84411765
0.57254902 0.43529412 0.99215686
0.62745098 0.44019608 0.99215686
0.75882353 0.46862745 0.99607843
0.91862745 0.52647059 1
1 0.58039216 1
0.55980392 0.53431373 0.98431373
0.61544118 0.53921569 0.98602941
0.74313725 0.55980392 0.98970588
0.91004902 0.60686275 0.99607843
1 0.64117647 1
0.52156863 0.67843137 0.97647059
0.56372549 0.67009804 0.97647059
0.71078431 0.6872549 0.98137255
0.8877451 0.72352941 0.98823529
1 0.75686275 0.99607843
0.43235294 0.80980392 0.96568627
0.47916667 0.80955882 0.96617647
0.5995098 0.80490196 0.96862745
0.8372549 0.82622549 0.98137255
1 0.88039216 0.98921569
0.47843137 0.98823529 0.98823529
0.52843137 0.98823529 0.98823529
0.65294118 0.98823529 0.98823529
0.81666667 0.98823529 0.98823529
0.99215686 0.99215686 0.99215686
