Kodak Converted/Kodak Elite Color 400.cube
# Exported with LUT Lab 1.2.1
# LUTLab.com
TITLE Kodak Elite Color 400
LUT_3D_SIZE 9
0 0 0
0.06568627 0 0
0.15490196 0 0
0.25588235 0 0
0.37254902 0 0
0.51666667 0 0
0.66078431 0 0
0.80098039 0 0.00392157
0.92941176 0.00392157 0.00392157
0.04656863 0.07401961 0.00735294
0.10882353 0.06182598 0.00735294
0.19497549 0.04620098 0.00784314
0.28854167 0.02696078 0.00784314
0.40392157 0.00759804 0.00784314
0.53970588 0 0.00735294
0.67990196 0 0.00343137
0.81268382 0 0.00392157
0.9372549 0 0.00392157
0.12058824 0.1754902 0.03529412
0.15147059 0.16764706 0.03823529
0.22254902 0.15490196 0.03823529
0.31801471 0.1317402 0.03823529
0.43284314 0.09852941 0.03823529
0.56372549 0.05183824 0.03321078
0.69607843 0.00612745 0.02573529
0.82438725 0 0.01176471
0.94509804 0.00098039 0.00392157
0.15931373 0.2872549 0.06911765
0.19411765 0.28333333 0.07040441
0.26421569 0.27193627 0.07058824
0.35876225 0.25588235 0.07058824
0.47181373 0.22916667 0.06666667
0.59901961 0.1877451 0.0627451
0.72708333 0.12156863 0.05343137
0.84626225 0.03186275 0.03529412
0.96078431 0 0.01176471
0.2254902 0.42745098 0.09411765
0.25637255 0.42352941 0.09411765
0.32254902 0.41617647 0.09411765
0.40833333 0.40465686 0.09411765
0.51960784 0.38431373 0.09019608
0.64019608 0.3502451 0.08235294
0.76029412 0.29901961 0.0745098
0.8752451 0.22058824 0.05661765
0.98431373 0.07254902 0.02745098
0.31666667 0.5754902 0.10588235
0.33872549 0.5754902 0.10588235
0.39264706 0.56801471 0.10588235
0.47150735 0.55980392 0.10588235
0.57401961 0.54485294 0.10196078
0.68284314 0.52359069 0.09803922
0.79129902 0.48639706 0.08627451
0.89901961 0.42745098 0.07058824
1 0.31421569 0.03921569
0.42941176 0.71470588 0.09803922
0.44509804 0.71176471 0.09803922
0.4879902 0.71176471 0.09803922
0.55637255 0.70392157 0.09803922
0.63823529 0.69607843 0.09411765
0.72732843 0.68431373 0.09313725
0.82058824 0.66151961 0.08602941
0.9182598 0.62512255 0.0692402
1 0.54803922 0.03921569
0.56568627 0.84019608 0.05441176
0.57745098 0.83970588 0.05441176
0.60747549 0.83627451 0.05441176
0.65177696 0.83627451 0.05441176
0.71053922 0.83235294 0.05784314
0.77843137 0.8245098 0.05441176
0.85330882 0.8127451 0.0504902
0.94166667 0.79356618 0.04264706
1 0.75392157 0.01960784
0.71764706 0.97254902 0
0.72156863 0.97254902 0
0.74019608 0.97254902 0
0.76470588 0.97254902 0
0.80196078 0.97254902 0
0.84852941 0.96862745 0
0.90686275 0.96470588 0
0.97696078 0.96078431 0
1 0.94117647 0
0 0 0.05833333
0.04264706 0 0.05833333
0.1314951 0 0.05833333
0.23645833 0 0.05833333
0.35735294 0 0.05441176
0.50508578 0 0.0504902
0.65686275 0 0.03872549
0.80098039 0 0.02254902
0.93333333 0.00392157 0.00392157
0.03088235 0.09356618 0.08094363
0.08143382 0.08105086 0.08137255
0.17504596 0.06311275 0.08186275
0.27314645 0.04264706 0.08186275
0.39215686 0.01740196 0.08186275
0.52886029 0 0.07771906
0.67254902 0 0.06482843
0.80882353 0 0.04564951
0.9372549 0 0.01476716
0.10882353 0.1872549 0.10441176
0.13976716 0.18246017 0.10441176
0.20713848 0.16829044 0.10441176
0.30431985 0.14738051 0.10441176
0.42371324 0.11354167 0.10147059
0.55882353 0.06413909 0.09656863
0.69215686 0.0114277 0.08578431
0.82058824 0 0.06606924
0.94509804 0 0.03088235
0.1372549 0.2963848 0.12371324
0.17453278 0.29246324 0.125
0.24866728 0.28333333 0.125
0.34718903 0.26600031 0.125
0.46519608 0.23887868 0.12107843
0.59374234 0.19931832 0.11715686
0.72352941 0.13333333 0.10539216
0.84393382 0.03970588 0.08605239
0.96078431 0 0.05441176
0.20612745 0.43480392 0.1370098
0.24068627 0.43137255 0.1370098
0.30735294 0.42352941 0.13872549
0.39984681 0.41176471 0.13676471
0.51176471 0.39203431 0.13676471
0.63627451 0.35995711 0.13284314
0.75704657 0.30857843 0.12107843
0.87328431 0.22886029 0.10318627
0.98431373 0.08039216 0.07205882
0.30343137 0.57941176 0.14068627
0.32685355 0.57941176 0.14068627
0.38088235 0.5754902 0.1408701
0.46305147 0.56588542 0.14117647
0.56813725 0.5518076 0.14068627
0.6783701 0.52831648 0.13695619
0.78737745 0.49348958 0.13186275
0.8963848 0.43529412 0.11323529
1 0.32175245 0.08186275
0.41764706 0.71568627 0.13676471
0.43714767 0.71568627 0.13676471
0.48042279 0.71176471 0.13676471
0.54852941 0.70784314 0.13380821
0.63063725 0.7 0.13039216
0.72147672 0.68809743 0.125
0.8166973 0.66544118 0.12022059
0.91481311 0.62904412 0.10811887
1 0.55196078 0.0810049
0.56176471 0.84019608 0.13627451
0.57352941 0.84019608 0.13627451
0.60130208 0.84019608 0.13235294
0.64785539 0.83627451 0.12843137
0.70683211 0.83235294 0.12058824
0.7745098 0.82638634 0.10490196
0.8519761 0.81655944 0.07777267
0.93780637 0.7966299 0.06960784
1 0.75441176 0.04656863
0.71372549 0.97598039 0.09705882
0.72156863 0.97598039 0.09362745
0.7372549 0.97254902 0.08921569
0.76323529 0.97254902 0.08284314
0.8 0.97254902 0.06936275
0.84852941 0.97254902 0.0377451
0.9060049 0.96862745 0
0.97303922 0.96078431 0
1 0.94117647 0
0 0.00392157 0.14313725
0.02696078 0 0.14313725
0.1127451 0 0.14411765
0.22267157 0 0.14313725
0.34901961 0 0.13970588
0.49742647 0 0.13137255
0.65294118 0 0.11642157
0.79705882 0 0.09313725
0.92941176 0 0.05784314
0.02046569 0.11188725 0.16372549
0.06596201 0.09787071 0.16372549
0.15484069 0.08146446 0.16752451
0.25957414 0.05825674 0.16752451
0.38125 0.02892157 0.16629902
0.52401961 0.00373775 0.15975797
0.66862745 0 0.14761029
0.80565257 0 0.12391238
0.9372549 0 0.08517157
0.0872549 0.20294118 0.18333333
0.12405025 0.19739583 0.18333333
0.18627451 0.1838848 0.18333333
0.28835784 0.16439951 0.18627451
0.4125 0.13137255 0.1870098
0.55098039 0.07974877 0.18308824
0.68823529 0.02156863 0.17156863
0.8192402 0 0.15153186
0.94509804 0 0.11102941
0.10441176 0.31188725 0.19901961
0.13737745 0.30796569 0.20085784
0.22288603 0.29856005 0.20294118
0.32905944 0.28134191 0.20409007
0.45159314 0.25447304 0.20477941
0.58578431 0.21519608 0.20257353
0.7176777 0.15284926 0.19509804
0.84019608 0.05526961 0.17896752
0.95686275 0 0.14203431
0.16764706 0.44705882 0.21470588
0.20545343 0.44313725 0.21617647
0.28296569 0.43713235 0.21764706
0.38118873 0.42573529 0.21862745
0.49926471 0.40563725 0.21838235
0.62591912 0.37469363 0.21470588
0.7504902 0.32598039 0.20980392
0.86807598 0.24460784 0.19509804
0.98235294 0.09754902 0.16666667
0.27414216 0.59117647 0.22941176
0.30013787 0.5872549 0.22941176
0.35818015 0.58333333 0.22941176
0.44636949 0.5754902 0.22941176
0.55471814 0.5620098 0.22757353
0.66868873 0.5399663 0.2254902
0.78008578 0.50511642 0.21764706
0.89117647 0.44705882 0.20281863
1 0.33713235 0.1754902
0.39803922 0.72352941 0.24509804
0.41764706 0.72254902 0.24509804
0.46372549 0.71960784 0.24289216
0.5359375 0.71553309 0.24142157
0.62107843 0.70772059 0.23897059
0.71253064 0.69414828 0.23333333
0.80906863 0.67310049 0.22230392
0.91041667 0.63753064 0.20539216
1 0.5629902 0.16740196
0.54742647 0.84411765 0.26078431
0.56139706 0.84411765 0.26078431
0.58985907 0.84371936 0.25686275
0.63823529 0.84019608 0.25686275
0.69656863 0.83627451 0.25122549
0.76666667 0.83003983 0.24362745
0.84460784 0.82058824 0.22843137
0.93382353 0.80098039 0.20029105
1 0.75833333 0.13909314
0.70588235 0.97647059 0.2372549
0.71372549 0.97647059 0.2372549
0.72941176 0.97647059 0.23406863
0.75686275 0.97647059 0.22941176
0.79411765 0.97647059 0.22156863
0.84129902 0.97254902 0.20882353
0.89901961 0.96862745 0.18431373
0.96911765 0.96470588 0.13909314
1 0.94509804 0
0 0.01568627 0.22598039
0.01305147 0.00392157 0.22598039
0.09313725 0 0.22843137
0.20637255 0 0.22990196
0.33333333 0 0.22843137
0.48921569 0 0.22205882
0.64509804 0 0.21384804
0.79313725 0 0.19283088
0.92941176 0 0.15392157
0.01127451 0.13284314 0.24932598
0.05 0.12091759 0.2495098
0.12539828 0.1036152 0.25338542
0.24048713 0.0787454 0.25557598
0.36813725 0.04647672 0.25652574
0.5127451 0.01127451 0.25343137
0.66078431 0 0.24554228
0.80098039 0 0.22839308
0.93333333 0 0.19283088
0.05036765 0.22218137 0.27156863
0.08970588 0.21654412 0.27267157
0.16372549 0.20340074 0.27533701
0.26413909 0.18402267 0.27696078
0.39607843 0.15465686 0.27879902
0.53921569 0.10245098 0.27682292
0.68039216 0.0372549 0.27095588
0.8127451 0 0.25684743
0.94117647 0 0.2245098
0.059375 0.33039216 0.29601716
0.08658088 0.32647059 0.29656863
0.18379289 0.31793811 0.29901961
0.30202206 0.30071998 0.30144761
0.43382353 0.27503064 0.30202206
0.57156863 0.23480392 0.30144761
0.70784314 0.17633272 0.29601716
0.83609069 0.07714461 0.28425245
0.95294118 0 0.25680147
0.11323529 0.4627451 0.31936275
0.14935662 0.45882353 0.32132353
0.24068627 0.45379902 0.32254902
0.35251225 0.44313725 0.32374387
0.47720588 0.42316176 0.3252451
0.61078431 0.39292279 0.32328431
0.73921569 0.3463848 0.31862745
0.86151961 0.26795343 0.30867034
0.97843137 0.12279412 0.28406863
0.22009804 0.60294118 0.34454657
0.25441942 0.60055147 0.34454657
0.32208946 0.59571078 0.34607843
0.41868873 0.58817402 0.3466299
0.53357843 0.5754902 0.3466299
0.65204504 0.55475643 0.34607843
0.76859681 0.5214614 0.34215686
0.88314185 0.4661152 0.33039216
1 0.35735294 0.30686275
0.36311275 0.73137255 0.36960784
0.38422181 0.73039216 0.36960784
0.43428309 0.72745098 0.36997549
0.51139706 0.72352941 0.36997549
0.60171569 0.71568627 0.36960784
0.69698223 0.70392157 0.367356
0.79730392 0.68431373 0.36176471
0.89987745 0.64973958 0.34854473
1 0.57732843 0.31862745
0.52647059 0.84803922 0.38939951
0.53952206 0.84803922 0.38939951
0.57071078 0.84803922 0.38939951
0.61960018 0.84492187 0.38921569
0.68186275 0.84126838 0.38921569
0.75490196 0.83627451 0.38529412
0.83370098 0.8245098 0.37389706
0.92410386 0.80833333 0.35784314
1 0.76617647 0.31844363
0.69803922 0.98039216 0.38529412
0.70196078 0.98039216 0.38529412
0.72058824 0.98039216 0.38137255
0.74754902 0.98039216 0.38137255
0.78627451 0.97647059 0.37745098
0.83376225 0.97647059 0.36960784
0.89227941 0.97254902 0.3557598
0.96145833 0.96862745 0.3286152
1 0.94901961 0.25686275
0 0.02941176 0.31960784
0.00392157 0.01176471 0.31960784
0.06764706 0.00392157 0.32352941
0.18529412 0 0.3254902
0.31470588 0 0.32745098
0.47622549 0 0.32352941
0.63382353 0 0.31715686
0.78529412 0 0.30171569
0.9254902 0 0.27058824
0.00343137 0.15833333 0.34877451
0.02889093 0.14656863 0.35073529
0.09485294 0.13063725 0.35465686
0.21259191 0.10588235 0.35857843
0.34509804 0.07169118 0.36078431
0.49770221 0.02622549 0.36078431
0.64901961 0 0.35680147
0.79313725 0 0.34417892
0.92941176 0 0.31372549
0.03039216 0.24558824 0.37598039
0.05367647 0.23841912 0.37794118
0.12254902 0.22794118 0.38186275
0.22990196 0.21029412 0.38578431
0.37107843 0.18186275 0.38823529
0.52028186 0.13290441 0.38970588
0.66862745 0.06409314 0.38823529
0.80490196 0 0.37984069
0.93480392 0 0.35294118
0.0245098 0.35392157 0.40710784
0.04329044 0.35073529 0.40784314
0.11053922 0.34234069 0.41102941
0.25710784 0.32674632 0.41495098
0.40416667 0.30196078 0.41887255
0.55076593 0.26253064 0.41960784
0.69430147 0.20588235 0.41960784
0.8268076 0.11102941 0.4140625
0.94901961 0 0.39460784
0.04215686 0.48235294 0.43627451
0.07218137 0.48039216 0.4372549
0.16372549 0.4745098 0.43995098
0.30686275 0.46348039 0.44313725
0.44607843 0.44607843 0.44607843
0.58627451 0.41789216 0.44705882
0.72328431 0.3745098 0.44705882
0.85073529 0.29926471 0.44117647
0.97254902 0.15980392 0.4254902
0.11960784 0.61862745 0.46544118
0.16862745 0.61593137 0.46666667
0.26066176 0.6127451 0.46795343
0.3745098 0.60563725 0.47058824
0.50147059 0.59313725 0.47169118
0.62766544 0.57352941 0.47328431
0.75067402 0.54332108 0.47113971
0.87117034 0.48946078 0.46528799
0.99289216 0.38480392 0.44852941
0.30686275 0.73921569 0.49460784
0.33400735 0.73921569 0.49460784
0.39166667 0.73823529 0.49656863
0.47677696 0.73449755 0.49803922
0.5745098 0.72745098 0.49803922
0.67751225 0.71568627 0.49803922
0.78161765 0.69754902 0.49411765
0.88768382 0.66495098 0.48627451
1 0.59509804 0.46666667
0.49534314 0.85588235 0.51985294
0.50903799 0.85588235 0.51985294
0.54362745 0.85539216 0.52156863
0.59558824 0.85196078 0.52156863
0.66151961 0.84803922 0.52156863
0.7379902 0.84387255 0.51780025
0.82107843 0.83235294 0.51372549
0.91427696 0.81642157 0.50196078
1 0.77745098 0.4745098
0.68235294 0.98235294 0.52156863
0.69019608 0.98235294 0.52156863
0.70588235 0.98235294 0.52156863
0.73578431 0.98039216 0.52156863
0.7745098 0.98039216 0.52156863
0.825 0.98039216 0.51764706
0.88333333 0.97647059 0.50931373
0.95367647 0.97254902 0.49019608
1 0.95686275 0.44313725
0 0.05882353 0.42254902
0 0.03314951 0.42647059
0.02892157 0.02107843 0.43223039
0.15091912 0.00931373 0.43676471
0.28872549 0 0.44068627
0.45484069 0 0.44215686
0.61862745 0 0.43823529
0.77745098 0 0.43020833
0.91764706 0 0.40686275
0 0.18921569 0.45784314
0.00782016 0.18006281 0.46176471
0.06125919 0.16550245 0.46729473
0.16421569 0.14430147 0.4732307
0.31210172 0.10848652 0.47726716
0.47578891 0.05814951 0.48118873
0.63319547 0.00749081 0.48137255
0.78137255 0 0.47540594
0.92156863 0 0.45606618
0.01029412 0.27683824 0.49105392
0.02513787 0.27075674 0.49276961
0.07536765 0.25977328 0.49705882
0.17205882 0.2421875 0.50281863
0.33155637 0.21495098 0.50814951
0.49290748 0.17317708 0.51176471
0.64947917 0.10404412 0.5127451
0.79313725 0.01568627 0.50882353
0.92732843 0 0.49313725
0 0.38192402 0.52395833
0 0.37984069 0.5245098
0.02009804 0.37199755 0.52843137
0.18258272 0.35839461 0.53331036
0.35977328 0.33504902 0.53780637
0.52003676 0.29810049 0.54172794
0.67408088 0.24313725 0.54411765
0.81427696 0.15441176 0.54253217
0.94117647 0.01029412 0.53088235
0 0.50735294 0.55514706
0 0.50588235 0.55588235
0.02230392 0.4995098 0.55906863
0.22913603 0.49019608 0.5629902
0.39987745 0.47328431 0.56691176
0.55392157 0.44659926 0.57083333
0.7 0.40612745 0.57156863
0.83627451 0.3361826 0.57083333
0.96470588 0.20196078 0.56176471
0 0.63523284 0.58425245
0.01279871 0.63431373 0.58473499
0.15490196 0.63131127 0.5872549
0.31078431 0.62459406 0.59025735
0.45637255 0.61424632 0.59417892
0.59601716 0.59601716 0.59601716
0.72814032 0.56726409 0.59810049
0.85470282 0.51764706 0.59509804
0.98431373 0.41764706 0.5872549
0.21666667 0.75208333 0.61360294
0.25280331 0.75098039 0.61360294
0.32864583 0.75036765 0.61531863
0.42892157 0.74644608 0.61752451
0.5379902 0.73921569 0.6192402
0.64996936 0.7307598 0.62144608
0.75971201 0.71286765 0.62144608
0.87242647 0.68386949 0.61862745
0.99791667 0.61801471 0.60686275
0.45098039 0.86372549 0.63854167
0.46662837 0.86372549 0.63854167
0.50467218 0.86323529 0.6408701
0.5627451 0.85980392 0.64215686
0.63529412 0.85652574 0.64246324
0.71568627 0.85196078 0.64246324
0.80401348 0.84322917 0.64215686
0.89944853 0.82579657 0.63823529
1 0.78921569 0.62254902
0.66519608 0.98578431 0.65
0.67058824 0.98578431 0.65
0.68982843 0.98578431 0.65
0.71917892 0.98578431 0.65
0.76004902 0.98431373 0.65
0.81084559 0.98431373 0.65
0.87156863 0.98431373 0.64607843
0.94558824 0.98008578 0.63823529
1 0.9622549 0.60833333
0 0.10294118 0.53823529
0 0.07585784 0.54215686
0.00392157 0.05980392 0.54705882
0.09803922 0.03627451 0.55392157
0.25245098 0.0122549 0.55882353
0.42585784 0 0.5627451
0.59730392 0 0.5627451
0.76176471 0 0.55882353
0.90980392 0 0.54313725
0 0.22794118 0.57438725
0 0.21879596 0.57708333
0.01415441 0.20505515 0.58223039
0.11741728 0.185769 0.58884804
0.26354167 0.15661765 0.5939951
0.44304534 0.10482537 0.60061275
0.6104473 0.03860294 0.60453431
0.76605392 0 0.60453431
0.9127451 0 0.59019608
0 0.31593137 0.60416667
0 0.30980392 0.60563725
0.01231618 0.3002451 0.60955882
0.10934436 0.28302696 0.61593137
0.27156863 0.25637255 0.62156863
0.45640319 0.2166973 0.62824755
0.62530637 0.15545343 0.63308824
0.78112745 0.05333946 0.63333333
0.91764706 0 0.62769608
0 0.41482843 0.63296569
0 0.41311275 0.63517157
0 0.40615809 0.63909314
0.04987745 0.39453125 0.64450061
0.29301471 0.37420343 0.64993873
0.47738971 0.34105392 0.65611213
0.64528186 0.28771446 0.66041667
0.79705882 0.2053462 0.66262255
0.93333333 0.04693627 0.66041667
0 0.5372549 0.6622549
0 0.53431373 0.66372549
0 0.53002451 0.66617647
0.05870098 0.52175245 0.67101716
0.33088235 0.50637255 0.67598039
0.50857843 0.48125 0.68186275
0.67009804 0.44387255 0.68578431
0.81666667 0.38082108 0.68823529
0.95294118 0.25294118 0.6877451
0 0.6567402 0.68933824
0 0.6567402 0.69154412
0.00082721 0.65392157 0.6932598
0.19643076 0.64682904 0.69718137
0.3903799 0.63823529 0.70110294
0.55245098 0.62254902 0.70571385
0.69718137 0.59675245 0.70894608
0.83331801 0.55183824 0.71176471
0.96973039 0.45821078 0.70894608
0.04191176 0.76666667 0.71862745
0.08063725 0.76593137 0.71887255
0.21158088 0.76568627 0.72034314
0.35171569 0.7620098 0.72279412
0.48333333 0.75563725 0.72671569
0.61078431 0.74705882 0.73048407
0.73229167 0.73192402 0.73210784
0.85260417 0.70477941 0.73431373
0.98431373 0.64534314 0.73063725
0.37745098 0.875 0.7435049
0.39929534 0.87242647 0.74607843
0.44647672 0.87156863 0.74620098
0.51328125 0.87133885 0.74742647
0.59632353 0.86764706 0.75012255
0.68564645 0.86372549 0.75392157
0.78112745 0.85579044 0.75404412
0.88354779 0.84015012 0.75404412
1 0.80490196 0.74705882
0.63823529 0.99215686 0.76176471
0.64693627 0.99215686 0.76176471
0.66568627 0.99215686 0.7627451
0.69767157 0.99215686 0.7627451
0.74068627 0.99215686 0.76568627
0.79362745 0.99215686 0.76568627
0.85980392 0.98823529 0.76568627
0.93382353 0.98529412 0.7627451
1 0.97254902 0.74705882
0 0.15735294 0.64754902
0 0.13382353 0.65147059
0 0.11776961 0.65539216
0.03363971 0.09197304 0.65980392
0.1997549 0.05735294 0.66764706
0.38823529 0.01599265 0.675
0.56764706 0 0.67941176
0.74564951 0 0.67941176
0.90147059 0 0.67156863
0 0.27751225 0.67892157
0 0.26666667 0.68241422
0 0.254856 0.68633578
0.03752298 0.23529412 0.6911152
0.18970588 0.20955882 0.69895833
0.39591759 0.16685049 0.70680147
0.57928922 0.09693627 0.71421569
0.74994638 0.01079197 0.71856618
0.90196078 0 0.71464461
0 0.36029412 0.70281863
0 0.35626532 0.70626532
0 0.34776348 0.71029412
0.0230239 0.33276654 0.71727941
0.17156863 0.30882353 0.72248775
0.4 0.27156863 0.73031556
0.58979779 0.21421569 0.73811275
0.7605239 0.12303922 0.74473039
0.90588235 0 0.74595588
0 0.45606618 0.72990196
0 0.45373775 0.73253676
0 0.44822304 0.73641238
0 0.43724724 0.74166667
0.17156863 0.41960784 0.74822304
0.41310509 0.390625 0.75606618
0.60442708 0.34558824 0.76162684
0.77352941 0.26748621 0.76911765
0.92156863 0.11942402 0.77303922
0 0.57083333 0.75563725
0 0.56911765 0.75735294
0 0.56519608 0.76127451
0 0.55906863 0.76544118
0.1997549 0.54546569 0.77218137
0.4370098 0.52579657 0.77901348
0.62506127 0.49068627 0.78504902
0.78878676 0.43526348 0.79093137
0.93897059 0.32009804 0.79485294
0 0.68167892 0.78265931
0 0.68167892 0.78480392
0 0.68008578 0.78658088
0.00435049 0.67470895 0.79050245
0.2734375 0.66724877 0.79656863
0.48124234 0.65434283 0.80226716
0.65245098 0.63345588 0.80833333
0.80441176 0.59482996 0.81243873
0.95294118 0.51060049 0.81636029
0 0.78529412 0.8122549
0 0.78529412 0.8122549
0 0.78272059 0.81360294
0.19215686 0.78137255 0.81738664
0.39313725 0.77745098 0.82144608
0.54938725 0.76973039 0.82633272
0.6924326 0.75729167 0.83186275
0.82446385 0.73409926 0.83578431
0.9682598 0.68051471 0.83627451
0.22457108 0.88682598 0.83976716
0.26280637 0.88682598 0.83976716
0.33333333 0.88676471 0.840625
0.42865349 0.88376225 0.84368873
0.53161765 0.88290441 0.84761029
0.63827359 0.87898284 0.85153186
0.74618566 0.87156863 0.85545343
0.85899203 0.85899203 0.85668658
0.99172794 0.8245098 0.85631127
0.59558824 0.99215686 0.86372549
0.60386029 0.99258578 0.86372549
0.62696078 0.99607843 0.86715686
0.66256127 0.99607843 0.86764706
0.71127451 0.99607843 0.87107843
0.76960784 0.99607843 0.87156863
0.83970588 0.99607843 0.875
0.91856618 0.99564951 0.8754902
1 0.98431373 0.86764706
0 0.22352941 0.74117647
0 0.2004902 0.74509804
0 0.18431373 0.74901961
0 0.16470588 0.75686275
0.11176471 0.13333333 0.76470588
0.32990196 0.08088235 0.77254902
0.53137255 0.01862745 0.78039216
0.71911765 0 0.78823529
0.88627451 0 0.78431373
0 0.33676471 0.77205882
0 0.32892157 0.77254902
0 0.31715686 0.77647059
0 0.30116422 0.78382353
0.09411765 0.27573529 0.79166667
0.31599265 0.23694853 0.8
0.53137255 0.17977941 0.80784314
0.72303922 0.08039216 0.8161152
0.88627451 0 0.82303922
0 0.41470588 0.79509804
0 0.41078431 0.79607843
0 0.40294118 0.79901961
0 0.39117647 0.80392157
0.00735294 0.37303922 0.81176471
0.30281863 0.34203431 0.82071078
0.52843137 0.29117647 0.83137255
0.72696078 0.21017157 0.83921569
0.89411765 0.05 0.84705882
0 0.50833333 0.81813725
0 0.50441176 0.81960784
0 0.5004902 0.82205882
0 0.49172794 0.82745098
0.00073529 0.47622549 0.83529412
0.29607843 0.4528799 0.84313725
0.53627451 0.41568627 0.85343137
0.7346201 0.3495098 0.8627451
0.90441176 0.21911765 0.87058824
0 0.61372549 0.84313725
0 0.61176471 0.84313725
0 0.60980392 0.84705882
0 0.60392157 0.85098039
0 0.59411765 0.85882353
0.30392157 0.57769608 0.86666667
0.54803922 0.55196078 0.8745098
0.74264706 0.50343137 0.88259804
0.91372549 0.40588235 0.89019608
0 0.7127451 0.87058824
0 0.7127451 0.87058824
0 0.71127451 0.8745098
0 0.70882353 0.87843137
0 0.70343137 0.88504902
0.34460784 0.69313725 0.89166667
0.57267157 0.67745098 0.8995098
0.75441176 0.64607843 0.90606618
0.92156863 0.57941176 0.91372549
0 0.80882353 0.89901961
0 0.80882353 0.90196078
0 0.80882353 0.90294118
0 0.80588235 0.90686275
0.14264706 0.80343137 0.91372549
0.42598039 0.79803922 0.91862745
0.61544118 0.78921569 0.92647059
0.77487745 0.77046569 0.93333333
0.9372549 0.72745098 0.93823529
0 0.90294118 0.93333333
0 0.90294118 0.93382353
0 0.90294118 0.9372549
0.16096814 0.90294118 0.94117647
0.37598039 0.90294118 0.94509804
0.53333333 0.89901961 0.9495098
0.67303922 0.89509804 0.95686275
0.80882353 0.88633578 0.96127451
0.96127451 0.85588235 0.96862745
0.48627451 0.99215686 0.96862745
0.49803922 0.99215686 0.96862745
0.52843137 0.99215686 0.97254902
0.575 0.99607843 0.97254902
0.6372549 0.99607843 0.97647059
0.70735294 0.99607843 0.98039216
0.78921569 0.99607843 0.98823529
0.88284314 1 0.99215686
1 1 1
