Kodak Converted/Kodak Portra 800 ++.cube
# Exported with LUT Lab 1.2.1
# LUTLab.com
TITLE Kodak Portra 800 4 ++
LUT_3D_SIZE 9
0.04705882 0.12941176 0.17254902
0.1245098 0.13284314 0.17598039
0.22941176 0.13431373 0.17254902
0.37598039 0.1372549 0.17107843
0.5745098 0.13333333 0.16470588
0.78872549 0.14117647 0.15147059
0.94411765 0.17745098 0.12941176
1 0.23970588 0.10147059
1 0.30980392 0.0627451
0.03921569 0.16421569 0.18039216
0.10238971 0.17205882 0.17346814
0.22291667 0.17291667 0.17254902
0.36991422 0.17990196 0.16991422
0.5629902 0.18970588 0.1627451
0.78088235 0.20833333 0.14509804
0.93529412 0.23615196 0.12193627
1 0.28584559 0.09362745
1 0.34460784 0.04754902
0.02058824 0.22941176 0.19215686
0.07794118 0.23026961 0.19252451
0.1872549 0.25294118 0.17745098
0.3692402 0.28039216 0.16470588
0.55637255 0.28823529 0.15098039
0.75906863 0.31384804 0.13002451
0.91642157 0.33995098 0.09877451
1 0.37107843 0.0567402
1 0.41372549 0
0 0.32647059 0.20392157
0.00257353 0.33039216 0.20606618
0.14068627 0.34656863 0.19607843
0.31954657 0.39405637 0.165625
0.55686275 0.44803922 0.1125
0.73235294 0.44656863 0.08535539
0.88762255 0.45232843 0.03909314
1 0.47696078 0
1 0.50833333 0
0 0.45490196 0.21176471
0 0.45514706 0.21004902
0.04264706 0.4504902 0.20980392
0.24534314 0.49142157 0.18112745
0.46862745 0.54901961 0.11960784
0.7245098 0.61495098 0
0.86666667 0.60147059 0
0.98504902 0.59019608 0
1 0.60588235 0
0 0.58333333 0.21323529
0 0.5872549 0.21568627
0 0.57941176 0.21568627
0.17751225 0.5966299 0.19810049
0.39656863 0.64338235 0.14779412
0.62401961 0.69405637 0.00428922
0.8557598 0.74865196 0
0.96911765 0.73627451 0
1 0.72843137 0
0 0.72941176 0.23235294
0 0.72879902 0.23235294
0 0.7245098 0.23088235
0.12696078 0.71813725 0.22843137
0.36715686 0.7504902 0.19313725
0.57193627 0.78235294 0.1245098
0.76691176 0.81372549 0
0.95392157 0.85723039 0
1 0.84509804 0
0 0.86323529 0.31470588
0 0.86372549 0.3151348
0.02769608 0.85980392 0.31213235
0.26734069 0.85539216 0.31207108
0.42058824 0.85980392 0.29705882
0.5872549 0.88253676 0.26372549
0.74313725 0.89852941 0.2004902
0.8872549 0.91421569 0.02248775
1 0.9372549 0
0.47843137 0.97254902 0.54901961
0.49362745 0.97254902 0.55294118
0.5254902 0.96960784 0.55392157
0.57647059 0.97009804 0.55833333
0.63921569 0.96862745 0.56470588
0.70882353 0.97401961 0.54509804
0.78921569 0.98333333 0.51176471
0.87892157 0.98872549 0.44656863
0.97254902 0.99607843 0.31372549
0.04705882 0.12941176 0.21519608
0.125 0.12941176 0.21519608
0.23370098 0.1254902 0.21115196
0.38118873 0.12628676 0.20784314
0.5745098 0.12941176 0.20955882
0.78743873 0.1254902 0.19822304
0.93921569 0.16090686 0.18247549
1 0.22493873 0.16372549
1 0.29852941 0.14411765
0.05140931 0.16905637 0.21176471
0.11366422 0.17512255 0.21439185
0.22167586 0.17915135 0.21443015
0.37429534 0.18386183 0.21131281
0.57126225 0.18753064 0.20386029
0.78088235 0.19714308 0.19166667
0.93458946 0.22449449 0.17526042
1 0.27494638 0.15631893
1 0.33633578 0.13284314
0.07022059 0.24460784 0.22696078
0.10265012 0.24192708 0.22308517
0.19751838 0.25707721 0.21390931
0.37251838 0.27647059 0.20343137
0.56568627 0.28780637 0.19185049
0.76158088 0.30791973 0.17605699
0.91939338 0.3314951 0.15701593
1 0.36681985 0.13379289
1 0.40894608 0.10759804
0 0.34129902 0.22873775
0.02881434 0.3459329 0.23106618
0.15580576 0.35018382 0.22665441
0.32706801 0.39705882 0.20098039
0.55882353 0.44264706 0.1629902
0.73235294 0.43591452 0.14160539
0.89139093 0.44836091 0.11626838
1 0.47361366 0.08043811
1 0.50294118 0.02873775
0 0.47009804 0.23872549
0 0.46905637 0.2370098
0.07432598 0.46011029 0.23658088
0.25637255 0.49672181 0.21421569
0.4752451 0.55281863 0.16605392
0.72352941 0.60916054 0.05284926
0.86691176 0.59411765 0.00257353
0.98697917 0.58259804 0
1 0.60563725 0
0 0.59509804 0.24264706
0 0.59901961 0.24267004
0 0.59126838 0.24108456
0.1921492 0.60127911 0.2316636
0.40137868 0.64362745 0.18995098
0.62935815 0.69565717 0.10841759
0.85654105 0.74900429 0
0.97115502 0.73465839 0
1 0.72322304 0
0 0.73370098 0.26066176
0 0.73616728 0.26280637
0 0.73128064 0.25946691
0.14707414 0.7207261 0.25588235
0.37156863 0.75073529 0.23014706
0.5734375 0.78377757 0.17693015
0.77058824 0.81372549 0.05367647
0.95392157 0.85611213 0
1 0.84387255 0
0 0.86372549 0.34166667
0 0.8641008 0.34215686
0.08973652 0.86265319 0.34070159
0.28088235 0.85917586 0.33776808
0.42800245 0.86151961 0.32579657
0.5877451 0.87938879 0.29522059
0.7464614 0.89848346 0.24571078
0.88724724 0.91459099 0.1372549
1 0.93731618 0
0.48627451 0.97254902 0.56470588
0.50147059 0.9721201 0.5651348
0.53247549 0.97169118 0.56776961
0.58069853 0.97022059 0.57040441
0.64485294 0.96862745 0.57818627
0.71158088 0.97647059 0.56323529
0.79191176 0.98308824 0.5307598
0.87591912 0.98872549 0.47009804
0.97254902 0.99264706 0.34509804
0.03529412 0.13333333 0.29607843
0.12107843 0.12941176 0.29620098
0.24117647 0.1254902 0.3
0.39264706 0.09840686 0.30098039
0.60588235 0 0.29607843
0.81470588 0 0.2627451
0.95 0.13382353 0.29289216
1 0.22303922 0.28333333
1 0.30098039 0.27156863
0.02352941 0.17328431 0.28921569
0.11441483 0.17683824 0.29303002
0.23826593 0.1739277 0.29806985
0.39402574 0.15142463 0.29696691
0.60974265 0.09846814 0.28455882
0.80200674 0.14234069 0.28913909
0.94595588 0.21115196 0.28823529
1 0.27058824 0.2761489
1 0.33970588 0.26764706
0.03039216 0.25294118 0.28455882
0.10903799 0.25631127 0.28759191
0.22022059 0.26599265 0.29362745
0.39166667 0.27662377 0.29387255
0.59117647 0.28676471 0.29068627
0.78079044 0.29981618 0.28066789
0.93063725 0.3245098 0.26997549
0.99996936 0.36237745 0.25992647
1 0.40955882 0.2495098
0.00992647 0.37071078 0.30551471
0.10762868 0.3787837 0.31055453
0.19604779 0.37536765 0.30143995
0.35068934 0.40765931 0.28782169
0.56629902 0.42794118 0.26231618
0.74480699 0.42519914 0.24878983
0.90073529 0.44509804 0.23753064
1 0.4717065 0.22659314
1 0.50330882 0.21764706
0 0.50392157 0.31372549
0 0.50625 0.30833333
0.12830882 0.49411765 0.30490196
0.28112745 0.50428922 0.29430147
0.49362745 0.55931373 0.2629902
0.72830882 0.60055147 0.21654412
0.87071078 0.58198529 0.19252451
0.99289216 0.58063725 0.17113971
1 0.6004902 0.15441176
0 0.62254902 0.31176471
0 0.62647059 0.3127451
0 0.61706495 0.31047794
0.22636336 0.60516238 0.30467218
0.41727941 0.65018382 0.27843137
0.63846507 0.6972886 0.23435968
0.8573223 0.74365809 0.15958946
0.97175245 0.72820159 0.1154565
1 0.71666667 0.03235294
0 0.7504902 0.33039216
0 0.74840686 0.33002451
0 0.74497549 0.3278799
0.1995098 0.73575368 0.32156863
0.38480392 0.74791667 0.30588235
0.58060662 0.78373162 0.27530637
0.7752451 0.81556373 0.22310049
0.95542279 0.85453431 0.10015319
1 0.83970588 0
0 0.8685049 0.40085784
0 0.87043505 0.4035386
0.17303922 0.86724877 0.39990809
0.3122549 0.86234681 0.39469975
0.43982843 0.859375 0.38658088
0.59537377 0.87896752 0.36804534
0.74696691 0.89822304 0.33204657
0.88736213 0.91421569 0.26654412
1 0.9377451 0.09534314
0.50196078 0.97254902 0.59607843
0.51470588 0.96997549 0.59620098
0.54436275 0.96887255 0.59681373
0.59068627 0.96862745 0.60183824
0.6504902 0.96862745 0.60686275
0.71556373 0.97291667 0.59607843
0.79313725 0.98063725 0.57083333
0.8754902 0.98823529 0.52058824
0.97254902 0.99509804 0.42254902
0 0.13333333 0.43235294
0.11666667 0.13186275 0.43480392
0.26580882 0.12193627 0.44411765
0.42941176 0.08290441 0.45349265
0.61176471 0 0.45784314
0.82009804 0 0.45196078
0.97352941 0 0.41421569
1 0 0.37567402
1 0.27156863 0.41176471
0 0.17598039 0.4245098
0.10508578 0.17804075 0.43106618
0.25877757 0.17210478 0.44033395
0.42715227 0.14988511 0.45166973
0.61764706 0.06446078 0.45710784
0.81929381 0 0.44429381
0.9707261 0 0.40695466
1 0.03676471 0.38447457
1 0.37598039 0.44313725
0 0.2625 0.41384804
0.00396752 0.26478248 0.42143076
0.2296875 0.26908701 0.43590686
0.42521446 0.26835172 0.4509038
0.62077206 0.23511029 0.44730392
0.81556373 0.2140625 0.42634804
0.95508578 0.25300245 0.40768995
1 0.40183824 0.44603248
1 0.45343137 0.4439951
0 0.39068627 0.41029412
0.00698529 0.40157782 0.41825214
0.2203125 0.4111826 0.42648591
0.38887102 0.42175245 0.43327206
0.5870098 0.43189338 0.42889093
0.7683364 0.44446232 0.42428002
0.91507353 0.46616115 0.42058824
1 0.49148284 0.41519608
1 0.52647059 0.41427696
0 0.53970588 0.43308824
0.06945466 0.54617034 0.43988971
0.24203431 0.54571078 0.44074755
0.34825368 0.53455882 0.42273284
0.52438725 0.57156863 0.40943627
0.73308824 0.58553922 0.38501838
0.87794118 0.57181373 0.36568627
0.99828431 0.59126838 0.36461397
1 0.6122549 0.36470588
0 0.66029412 0.45196078
0.12813266 0.66702665 0.4566636
0.16401654 0.66222426 0.43296569
0.30484069 0.64669118 0.42001379
0.44708946 0.65560662 0.40563725
0.65692402 0.70377604 0.38866422
0.85994179 0.73658088 0.35945159
0.97175245 0.71747089 0.32568934
1 0.70490196 0.29460784
0 0.77156863 0.44754902
0 0.77328431 0.44502145
0.11596201 0.76712623 0.43826593
0.28483456 0.75882353 0.43005515
0.41415441 0.74834559 0.4161152
0.5939951 0.78386949 0.40386029
0.78296569 0.81626838 0.38069853
0.95356924 0.84998468 0.33772978
1 0.83394608 0.29338235
0.14001225 0.87677696 0.49344363
0.19891238 0.8779565 0.4959712
0.27443321 0.87440257 0.49240196
0.36966912 0.8681296 0.48448989
0.47153799 0.86354167 0.47383578
0.60343137 0.87585784 0.46305913
0.75093444 0.89492953 0.44420956
0.89025735 0.91421569 0.40931373
1 0.9377451 0.33511029
0.5254902 0.97254902 0.64558824
0.5408701 0.97401961 0.64705882
0.56470588 0.97254902 0.64595588
0.60637255 0.97254902 0.64859069
0.66078431 0.96862745 0.6495098
0.72359069 0.97101716 0.6495098
0.79742647 0.98039216 0.6310049
0.87892157 0.98823529 0.59442402
0.97107843 0.99215686 0.52254902
0 0.1254902 0.60392157
0.11446078 0.12156863 0.60784314
0.29117647 0.10441176 0.61568627
0.47401961 0.0375 0.62867647
0.66078431 0 0.64313725
0.81151961 0 0.62352941
0.96470588 0 0.60784314
1 0 0.57598039
1 0 0.54117647
0 0.17598039 0.59632353
0.08753064 0.17208946 0.60395221
0.27953431 0.16403186 0.61176471
0.47083333 0.13318015 0.63063725
0.65882353 0.03982843 0.64019608
0.81348039 0 0.6236826
0.96360294 0 0.60655637
1 0 0.5708027
1 0.13970588 0.54338235
0 0.26078431 0.59215686
0 0.26997549 0.60128676
0.24595588 0.27046569 0.61004902
0.45392157 0.26764706 0.62334559
0.6502451 0.24803922 0.63431373
0.80900735 0.2026348 0.61691176
0.95759804 0.1877451 0.59681373
1 0.24564951 0.56832108
1 0.3495098 0.55294118
0 0.40171569 0.56862745
0 0.4109375 0.57931985
0.14185049 0.40974265 0.58351716
0.40297181 0.42003676 0.6
0.61973039 0.42610294 0.61384804
0.79237132 0.41127451 0.60223652
0.93553922 0.42971814 0.58431373
1 0.4731924 0.57334559
1 0.58308824 0.61348039
0 0.55784314 0.56176471
0 0.56470588 0.56862745
0.20563725 0.56936275 0.57034314
0.39595588 0.57708333 0.57647059
0.56715686 0.5872549 0.58431373
0.74252451 0.5997549 0.58492647
0.88308824 0.61568627 0.58504902
0.99068627 0.63639706 0.58517157
1 0.65686275 0.58431373
0.09656863 0.69166667 0.57720588
0.19779412 0.69779412 0.58382353
0.31464461 0.69577206 0.58431373
0.44261642 0.6953125 0.58768382
0.52438725 0.68026961 0.56458333
0.68455882 0.71320466 0.5580576
0.85582108 0.7252451 0.53995098
0.96804534 0.70637255 0.51053922
1 0.72303922 0.52083333
0.27205882 0.79411765 0.5995098
0.31421569 0.79601716 0.60098039
0.38296569 0.7932598 0.60208333
0.42990196 0.78841912 0.5814951
0.49803922 0.77377451 0.55686275
0.61770833 0.78314951 0.54436275
0.7942402 0.82083333 0.54485294
0.9473652 0.84503676 0.52622549
1 0.82696078 0.4877451
0.41617647 0.88504902 0.64142157
0.42202819 0.88697917 0.63575368
0.4161152 0.88676471 0.61770833
0.45704657 0.88112745 0.60033701
0.5307598 0.87414216 0.58848039
0.61911765 0.86734069 0.57117034
0.75637255 0.89313725 0.56905637
0.89289216 0.91449142 0.55928309
1 0.9377451 0.52573529
0.56078431 0.9745098 0.70784314
0.57230392 0.97647059 0.71176471
0.59166667 0.97303922 0.70833333
0.62867647 0.97377451 0.70784314
0.67647059 0.97254902 0.70784314
0.73480392 0.96985294 0.70906863
0.80147059 0.97745098 0.7
0.88259804 0.9879902 0.67965686
0.96862745 0.99215686 0.62941176
0 0.11764706 0.75196078
0.15520833 0.11029412 0.75373775
0.31678922 0.08688725 0.75980392
0.49417892 0.0098652 0.76917892
0.6745098 0 0.77794118
0.83431373 0 0.78186275
0.9495098 0 0.75980392
1 0 0.74068627
1 0 0.71421569
0 0.17156863 0.74785539
0.13803615 0.16770833 0.75459559
0.31176471 0.15522365 0.76128983
0.48811275 0.12732077 0.76629136
0.67058824 0.06479779 0.77671569
0.83168658 0 0.78063725
0.95070466 0 0.76171875
1 0 0.74035692
1 0.05814951 0.71421569
0 0.27009804 0.74460784
0.02029718 0.27250306 0.74880515
0.27974877 0.26862745 0.75376838
0.4698989 0.26409314 0.76072304
0.65765931 0.2588848 0.76917892
0.8227788 0.24336703 0.77535233
0.94497549 0.21580882 0.75854779
1 0.23043811 0.73938419
1 0.31286765 0.71237745
0 0.39859069 0.71966912
0 0.40335478 0.72854626
0.18147978 0.40908395 0.73627451
0.42747396 0.4187117 0.74224112
0.62996324 0.43235294 0.75343137
0.80202206 0.44172794 0.7646829
0.92431066 0.42866115 0.74803922
1 0.44474571 0.73407629
1 0.50539216 0.71721814
0 0.56004902 0.70416667
0 0.56289828 0.7088848
0.10667892 0.56341912 0.71035539
0.35395221 0.5627451 0.7127451
0.58112745 0.58431373 0.72806373
0.76519608 0.60465686 0.74457721
0.89607843 0.60104167 0.73645833
0.9989277 0.6239277 0.72778799
1 0.65882353 0.72377451
0 0.70098039 0.69613971
0.09810815 0.70490196 0.69927237
0.28152574 0.70738358 0.70084252
0.44019608 0.71184896 0.70455729
0.58504902 0.71789216 0.70882353
0.7209329 0.72751225 0.71932445
0.85546875 0.74287684 0.72386642
0.95728401 0.75618873 0.72755821
1 0.77248775 0.73235294
0.36715686 0.81764706 0.72009804
0.39839154 0.81861213 0.7213848
0.45661765 0.81847426 0.72120098
0.53515625 0.81482843 0.72120098
0.62377451 0.81035539 0.71795343
0.68242953 0.79742647 0.69534314
0.81121324 0.82677696 0.69960172
0.93835784 0.83394608 0.68590686
1 0.82058824 0.65992647
0.48823529 0.89852941 0.74264706
0.50467984 0.89855239 0.74309896
0.54060968 0.89787071 0.74257047
0.5919807 0.89460784 0.73990502
0.6354473 0.89053309 0.72466299
0.67585784 0.87922028 0.69851409
0.76859681 0.88935355 0.69203431
0.89463082 0.9161152 0.69895833
0.99785539 0.92775735 0.68707108
0.65098039 0.97647059 0.80539216
0.65618873 0.97285539 0.80392157
0.67561275 0.97463235 0.80355392
0.68584559 0.97310049 0.79417892
0.70465686 0.9752451 0.77867647
0.75386029 0.97438725 0.77794118
0.81213235 0.97647059 0.7754902
0.88517157 0.98431373 0.7658701
0.96862745 0.99215686 0.73872549
0.17058824 0.10980392 0.87156863
0.24362745 0.10208333 0.87169118
0.36666667 0.07916667 0.8745098
0.51470588 0.01078431 0.8754902
0.675 0 0.88137255
0.83504902 0 0.8872549
0.96176471 0 0.89044118
1 0 0.87328431
1 0 0.85294118
0.14754902 0.16801471 0.86764706
0.23534007 0.16721814 0.87124694
0.3604473 0.15309436 0.87221201
0.51251532 0.13158701 0.87526042
0.67365196 0.09644608 0.88069853
0.83345588 0.07905944 0.88671875
0.95842525 0.02775735 0.88783701
1 0 0.86937806
1 0.11188725 0.85171569
0.07867647 0.27328431 0.86348039
0.19417892 0.27414216 0.86553309
0.33927696 0.27254902 0.86580882
0.49865196 0.26890319 0.87028186
0.66605392 0.27156863 0.87622549
0.82349877 0.28792892 0.88318015
0.94926471 0.290625 0.88590686
1 0.28333333 0.86755515
1 0.32254902 0.84803922
0 0.39534314 0.84840686
0.05081189 0.4127451 0.8524663
0.28887868 0.41583946 0.85533088
0.4708027 0.42372855 0.85796569
0.64332108 0.43627451 0.86409314
0.80418199 0.46303615 0.8721201
0.92720588 0.47904412 0.87806373
1 0.4727788 0.86167279
1 0.49681373 0.84620098
0 0.54509804 0.8254902
0 0.54901961 0.82916667
0.13590686 0.55220588 0.83333333
0.40104167 0.56090686 0.83958333
0.60857843 0.58578431 0.84656863
0.7754902 0.61390931 0.85925245
0.89877451 0.63112745 0.86397059
0.98915441 0.62622549 0.853125
1 0.64264706 0.84411765
0 0.69705882 0.81727941
0 0.70007659 0.81732537
0.21890319 0.70098039 0.81985294
0.3939951 0.70098039 0.8207261
0.54748775 0.70098039 0.82126225
0.73442096 0.72699142 0.8385723
0.87009804 0.75220588 0.85422794
0.96162684 0.75182292 0.84606311
0.99963235 0.77120098 0.84080882
0.29387255 0.81838235 0.81078431
0.3372549 0.82061887 0.81501225
0.41672794 0.82156863 0.81666667
0.51666667 0.82202819 0.81599265
0.62769608 0.8254902 0.81813725
0.73633578 0.83079044 0.82411152
0.83645833 0.8403799 0.83406863
0.93382353 0.85217525 0.83848039
1 0.86470588 0.84509804
0.5622549 0.91041667 0.83762255
0.57558211 0.9114277 0.83794424
0.60563725 0.91124387 0.84019608
0.65159314 0.91006434 0.8399663
0.70839461 0.90821078 0.84019608
0.76533395 0.90356924 0.83535539
0.80401348 0.89405637 0.81286765
0.90289522 0.91813725 0.82414216
1 0.92242647 0.81409314
0.68235294 0.97647059 0.86764706
0.68982843 0.97745098 0.87120098
0.70367647 0.97818627 0.86936275
0.73223039 0.97892157 0.87046569
0.76715686 0.97696078 0.86960784
0.80098039 0.97855392 0.86433824
0.82941176 0.97720588 0.84901961
0.89080882 0.98345588 0.84718137
0.97254902 0.99215686 0.84019608
0.30245098 0.125 0.96078431
0.34509804 0.11764706 0.95735294
0.43382353 0.10588235 0.95992647
0.55392157 0.07469363 0.96078431
0.68848039 0.0247549 0.96102941
0.82303922 0.01158088 0.96176471
0.94693627 0.11654412 0.96507353
1 0.13835784 0.96519608
1 0.13872549 0.96176471
0.29209559 0.18039216 0.95392157
0.3442402 0.1830193 0.95735294
0.43275123 0.17512255 0.95735294
0.55065104 0.16099112 0.95762102
0.68630515 0.15223652 0.96038603
0.8214231 0.16090686 0.96127451
0.94603248 0.21704963 0.96439951
1 0.23534773 0.9647595
1 0.23878676 0.95827206
0.28137255 0.29154412 0.95245098
0.32979473 0.29252451 0.95347733
0.42303922 0.29224877 0.95438113
0.54725797 0.29312194 0.95661765
0.68125 0.29773284 0.95557598
0.81672794 0.31881127 0.9589614
0.93465074 0.36547181 0.96035539
1 0.38203125 0.96127451
1 0.37990196 0.95
0.22824755 0.42481618 0.94558824
0.29607843 0.43208487 0.94689798
0.39938725 0.43316483 0.94632353
0.53216912 0.44253217 0.94859069
0.67068015 0.45450368 0.9495098
0.80405178 0.48021599 0.95142463
0.91755515 0.5205576 0.95343137
1 0.53838082 0.95700827
1 0.53216912 0.94215686
0 0.55441176 0.93382353
0.15612745 0.55686275 0.93575368
0.32254902 0.56078431 0.93578431
0.50082721 0.58293505 0.9370098
0.64840686 0.59705882 0.93860294
0.78275123 0.61960784 0.94157475
0.89509804 0.65122549 0.94344363
0.98480392 0.66865809 0.94797794
1 0.66127451 0.93602941
0 0.68921569 0.91844363
0.00048254 0.69309896 0.91876532
0.23053002 0.69082414 0.91974571
0.41158854 0.69039522 0.91943168
0.59322917 0.70425858 0.92533701
0.75189951 0.72965686 0.92983303
0.87189032 0.75801164 0.93547794
0.96125153 0.77751225 0.94164369
1 0.77401961 0.93363971
0.28272059 0.81776961 0.91041667
0.32254902 0.81807598 0.91041667
0.39509804 0.82022059 0.91124387
0.49231005 0.81796875 0.91087623
0.59828431 0.81758578 0.91207108
0.70412071 0.81527267 0.91214767
0.84126838 0.83789828 0.92215074
0.94306066 0.86372549 0.93523284
1 0.86470588 0.93002451
0.50778186 0.91372549 0.9098652
0.52646293 0.91372549 0.90980392
0.56433824 0.91329657 0.90997243
0.62284007 0.91187194 0.90841759
0.69439338 0.91271446 0.91204044
0.7718367 0.91552543 0.91421569
0.84852941 0.91927083 0.91803002
0.92205882 0.92640931 0.92248775
0.99215686 0.93468137 0.92990196
0.71323529 0.98382353 0.92990196
0.72365196 0.98345588 0.93290441
0.73982843 0.9807598 0.92990196
0.76715686 0.98198529 0.93363971
0.8002451 0.98235294 0.93382353
0.83780637 0.98272059 0.93223039
0.87941176 0.98137255 0.93382353
0.91029412 0.98082108 0.92205882
0.98039216 0.99215686 0.9254902
0.43137255 0.2 1
0.4622549 0.2 1
0.52058824 0.19705882 1
0.61029412 0.19607843 1
0.71764706 0.2 1
0.82892157 0.21960784 1
0.92745098 0.26372549 1
1 0.34166667 1
1 0.34901961 1
0.43137255 0.25 1
0.46188725 0.25055147 1
0.52095588 0.2504902 1
0.6127451 0.2504902 1
0.71568627 0.25833333 1
0.82647059 0.27941176 1
0.92610294 0.32169118 1
1 0.38480392 1
1 0.3995098 1
0.43823529 0.35392157 1
0.46531863 0.35404412 1
0.5252451 0.35563725 1
0.61384804 0.36176471 1
0.71519608 0.37009804 1
0.82107843 0.39129902 1
0.91936275 0.43161765 1
1 0.48737745 1
1 0.49411765 1
0.43529412 0.47941176 1
0.46666667 0.48511029 1
0.52561275 0.48835784 1
0.61182598 0.49509804 1
0.71176471 0.50686275 1
0.81378676 0.52702206 1
0.90686275 0.5560049 1
0.98658088 0.59883578 1
1 0.60490196 1
0.42156863 0.60784314 1
0.4622549 0.61568627 1
0.52009804 0.61862745 1
0.60637255 0.62352941 1
0.70294118 0.63333333 1
0.8002451 0.64901961 1
0.89117647 0.67107843 1
0.96936275 0.70220588 1
1 0.70980392 1
0.33578431 0.70735294 1
0.37843137 0.71127451 1
0.45637255 0.71519608 1
0.56084559 0.71911765 1
0.68357843 0.7379902 0.99926471
0.7848652 0.7504902 0.99908088
0.8754902 0.77009804 1
0.95343137 0.79148284 0.9973652
1 0.80294118 0.99754902
0.41568627 0.82156863 0.99215686
0.43909314 0.8254902 0.99595588
0.48112745 0.82156863 0.99215686
0.54840686 0.82095588 0.99215686
0.63529412 0.82107843 0.99607843
0.75379902 0.82843137 0.9939951
0.85980392 0.84901961 0.99289216
0.94166667 0.87156863 0.99473039
1 0.87941176 0.99215686
0.57745098 0.91813725 0.98823529
0.58829657 0.91813725 0.99123775
0.61360294 0.91813725 0.98909314
0.65539216 0.91813725 0.98952206
0.70882353 0.91470588 0.98848039
0.77273284 0.91813725 0.9908701
0.83541667 0.91458333 0.98823529
0.92984069 0.92984069 0.99209559
0.99607843 0.94509804 0.99215686
0.70196078 0.98431373 0.98431373
0.70980392 0.98431373 0.98431373
0.7254902 0.98431373 0.98529412
0.75294118 0.98578431 0.98578431
0.79215686 0.98627451 0.98627451
0.83284314 0.98431373 0.98578431
0.88333333 0.98529412 0.98529412
0.9377451 0.98872549 0.98872549
0.99215686 0.99215686 0.99215686
