Kodak Converted/Kodak Kodachrome 64 Generic.cube
# Exported with LUT Lab 1.2.1
# LUTLab.com
TITLE Kodak Kodachrome 64 Generic
LUT_3D_SIZE 9
0 0 0
0.07009804 0 0
0.17058824 0 0
0.33284314 0 0
0.52745098 0 0
0.72598039 0.00147059 0
0.9 0.00392157 0
1 0.00784314 0
1 0.00784314 0
0.01176471 0.05833333 0
0.06176471 0.05833333 0
0.1627451 0.0622549 0.00343137
0.33284314 0.07009804 0.00392157
0.52156863 0.07769608 0.00392157
0.71813725 0.08314951 0.00735294
0.89215686 0.09056373 0.00784314
1 0.09754902 0.00784314
1 0.10147059 0.01127451
0.05 0.15196078 0.01470588
0.08186275 0.15490196 0.01568627
0.15882353 0.15882353 0.01568627
0.34460784 0.1627451 0.01862745
0.52745098 0.17058824 0.01960784
0.71813725 0.1754902 0.02352941
0.88921569 0.18235294 0.02671569
1 0.1872549 0.03039216
1 0.19019608 0.03137255
0.01960784 0.32107843 0.0377451
0.03265931 0.32254902 0.03921569
0.10196078 0.325 0.04105392
0.33523284 0.33039216 0.04313725
0.51960784 0.33553922 0.04705882
0.70882353 0.34215686 0.05098039
0.87463235 0.34852941 0.05343137
1 0.35392157 0.05490196
1 0.35637255 0.05735294
0 0.48823529 0.0627451
0 0.48823529 0.0627451
0.04656863 0.49215686 0.0627451
0.30343137 0.49607843 0.06666667
0.50784314 0.50196078 0.06764706
0.69313725 0.50784314 0.07058824
0.85686275 0.51176471 0.0745098
0.98897059 0.51764706 0.0745098
1 0.51960784 0.0745098
0 0.65392157 0.07205882
0 0.65392157 0.07205882
0 0.65539216 0.07205882
0.25931373 0.65876225 0.0745098
0.49142157 0.66446078 0.0745098
0.67352941 0.66960784 0.07542892
0.83186275 0.67352941 0.07843137
0.95606618 0.67745098 0.07843137
1 0.67892157 0.07843137
0 0.79313725 0.05490196
0 0.79411765 0.05392157
0 0.79411765 0.05392157
0.25686275 0.79803922 0.05392157
0.48431373 0.80196078 0.05490196
0.66176471 0.80588235 0.05392157
0.80980392 0.80980392 0.05098039
0.92242647 0.81372549 0.05012255
0.99607843 0.81666667 0.05
0 0.89460784 0.00343137
0 0.89460784 0.00343137
0.04987745 0.89460784 0.00343137
0.32598039 0.89852941 0
0.51397059 0.90245098 0
0.67352941 0.90637255 0
0.80588235 0.90686275 0
0.90637255 0.91029412 0
0.99607843 0.91421569 0
0 1 0.03529412
0.00343137 1 0.03529412
0.13235294 1 0.03921569
0.36176471 1 0.04313725
0.52941176 1 0.04705882
0.67352941 1 0.05490196
0.78921569 1 0.05882353
0.89117647 1 0.0627451
1 1 0.06666667
0 0 0.0504902
0.07009804 0 0.0504902
0.17058824 0 0.05441176
0.33284314 0 0.05833333
0.52745098 0 0.0622549
0.72598039 0 0.06617647
0.9 0.00392157 0.07009804
1 0.00392157 0.07401961
1 0.00784314 0.07401961
0.01176471 0.05484069 0.05833333
0.0622549 0.05833333 0.06176471
0.1627451 0.0622549 0.0622549
0.33284314 0.06991422 0.06617647
0.52352941 0.07401961 0.07009804
0.71813725 0.08186275 0.07401961
0.89215686 0.08970588 0.07794118
1 0.09362745 0.08186275
1 0.09754902 0.08186275
0.04705882 0.15098039 0.07046569
0.08186275 0.15196078 0.07316176
0.1627451 0.15490196 0.07401961
0.34460784 0.1627451 0.07794118
0.52745098 0.16764706 0.08186275
0.71813725 0.1745098 0.08578431
0.88921569 0.18235294 0.08970588
1 0.18627451 0.09264706
1 0.19019608 0.09362745
0.01960784 0.32107843 0.08609069
0.03265931 0.32107843 0.08839614
0.10580576 0.32254902 0.08970588
0.33676471 0.32984069 0.09362745
0.51960784 0.33431373 0.09626225
0.70882353 0.34075521 0.10006893
0.87463235 0.34607843 0.10147059
1 0.35245098 0.10539216
1 0.35392157 0.10539216
0 0.48823529 0.09803922
0 0.48823529 0.09803922
0.05 0.49215686 0.10147059
0.30343137 0.49607843 0.10196078
0.50882353 0.50098039 0.10539216
0.69387255 0.50588235 0.10931373
0.85686275 0.51176471 0.10955882
0.98897059 0.51568627 0.11323529
1 0.51764706 0.11323529
0 0.65147059 0.10147059
0 0.65392157 0.10147059
0 0.65405944 0.10147059
0.26011795 0.65784314 0.10147059
0.49215686 0.6625 0.10162377
0.67352941 0.66960784 0.10410539
0.83223039 0.67352941 0.10539216
0.95606618 0.67745098 0.10569853
1 0.67745098 0.10588235
0 0.79313725 0.07438725
0 0.79411765 0.07438725
0 0.79411765 0.07438725
0.25747549 0.79803922 0.07352941
0.48431373 0.80196078 0.07352941
0.66176471 0.80588235 0.07316176
0.80980392 0.80980392 0.07316176
0.92242647 0.81372549 0.07078738
0.99607843 0.81409314 0.07046569
0 0.89117647 0.05349265
0 0.89460784 0.05392157
0.05343137 0.89460784 0.05741422
0.32941176 0.89852941 0.06160386
0.51421569 0.90245098 0.06568627
0.67352941 0.90294118 0.07009804
0.80588235 0.90637255 0.07702206
0.90637255 0.91029412 0.07794118
0.99607843 0.91421569 0.08186275
0 1 0.10539216
0.00343137 1 0.10539216
0.13333333 1 0.10882353
0.36176471 1 0.10931373
0.52941176 1 0.11323529
0.67352941 1 0.11715686
0.78921569 1 0.12058824
0.89117647 1 0.12107843
1 1 0.125
0 0 0.14019608
0.07352941 0 0.14313725
0.17058824 0 0.14411765
0.33284314 0 0.14705882
0.52745098 0 0.15196078
0.72598039 0 0.15526961
0.9 0.00392157 0.15882353
1 0.00392157 0.1627451
1 0.00784314 0.16372549
0.01176471 0.05441176 0.15098039
0.0622549 0.05795037 0.15098039
0.1627451 0.05833333 0.15196078
0.33284314 0.06617647 0.1557598
0.52156863 0.07401961 0.15968137
0.71813725 0.08155637 0.1627451
0.89215686 0.08599877 0.16666667
1 0.09362745 0.17058824
1 0.09754902 0.17144608
0.04705882 0.15098039 0.15882353
0.08186275 0.15098039 0.15882353
0.1627451 0.15490196 0.1620098
0.34460784 0.15980392 0.16363358
0.52745098 0.16666667 0.16740196
0.71813725 0.17313113 0.17132353
0.88921569 0.17941176 0.1745098
1 0.18434436 0.17843137
1 0.1872549 0.17916667
0.01960784 0.31862745 0.17058824
0.03284314 0.31862745 0.17152267
0.10588235 0.32254902 0.1745098
0.33676471 0.32800245 0.17663909
0.51960784 0.33357843 0.17843137
0.70882353 0.33823529 0.18235294
0.87647059 0.34525123 0.18627451
1 0.35 0.18627451
1 0.35281863 0.19019608
0 0.48627451 0.17843137
0 0.48627451 0.17843137
0.05637255 0.49019608 0.18235294
0.30612745 0.49411765 0.18235294
0.51078431 0.5 0.18627451
0.69387255 0.50392157 0.19019608
0.85686275 0.50980392 0.19252451
0.98897059 0.51372549 0.19411765
1 0.51568627 0.19754902
0 0.65 0.18627451
0 0.65032169 0.18737745
0 0.65392157 0.19019608
0.26078431 0.65784314 0.19088542
0.49215686 0.66176471 0.19411765
0.67444853 0.66568627 0.19803922
0.83333333 0.66997549 0.19914216
0.95735294 0.67357537 0.20196078
1 0.67745098 0.20196078
0 0.79019608 0.20098039
0 0.79019608 0.20098039
0 0.79411765 0.20122549
0.26078431 0.79705882 0.20269608
0.48468137 0.80098039 0.20514706
0.66176471 0.80490196 0.20882353
0.8127451 0.80882353 0.21053922
0.92512255 0.8127451 0.2127451
0.99607843 0.81372549 0.21372549
0 0.89068627 0.22193627
0 0.89068627 0.22193627
0.06041667 0.89460784 0.2245098
0.32990196 0.89460784 0.22486213
0.51593137 0.89852941 0.22843137
0.67401961 0.90245098 0.22977941
0.80882353 0.90637255 0.23235294
0.90637255 0.91029412 0.23370098
0.99607843 0.91029412 0.23627451
0 0.99705882 0.24803922
0.00343137 1 0.24803922
0.14338235 1 0.24877451
0.36421569 1 0.24901961
0.52941176 1 0.25245098
0.67352941 1 0.25588235
0.79019608 1 0.25686275
0.89117647 1 0.25980392
1 1 0.26372549
0 0 0.30294118
0.07352941 0 0.30294118
0.17058824 0 0.3064951
0.33284314 0 0.30839461
0.52745098 0 0.31078431
0.72598039 0 0.31470588
0.90098039 0.00392157 0.31862745
1 0.00392157 0.32254902
1 0.00392157 0.325
0.01305147 0.0504902 0.31078431
0.0622549 0.05392157 0.31078431
0.1627451 0.05441176 0.31452206
0.33284314 0.0622549 0.31685049
0.52352941 0.07009804 0.31862745
0.71813725 0.07774969 0.32254902
0.89215686 0.08186275 0.32647059
1 0.08970588 0.33039216
1 0.09362745 0.33039216
0.05 0.14705882 0.31862745
0.08186275 0.14705882 0.32100184
0.1627451 0.15098039 0.32254902
0.3477788 0.15565257 0.32610294
0.52745098 0.1627451 0.32830882
0.72058824 0.17058824 0.33223039
0.88921569 0.1754902 0.33431373
1 0.18235294 0.33823529
1 0.18333333 0.33823529
0.01960784 0.31470588 0.33431373
0.03431373 0.315625 0.33431373
0.10980392 0.31862745 0.33584559
0.33915441 0.325 0.33823529
0.51960784 0.33039216 0.34215686
0.709375 0.33676471 0.34552696
0.87647059 0.34215686 0.34761029
1 0.34607843 0.35
1 0.35 0.35153186
0 0.48235294 0.34607843
0 0.48431373 0.34730392
0.06366422 0.48627451 0.35
0.30808824 0.49019608 0.35122549
0.51176471 0.49607843 0.35392157
0.69460784 0.50196078 0.35784314
0.85686275 0.50692402 0.36102941
0.99068627 0.51176471 0.36176471
1 0.51372549 0.3629902
0 0.64607843 0.36176471
0 0.65 0.36176471
0 0.65 0.36176471
0.26528033 0.65392157 0.36534161
0.49534314 0.65784314 0.36568627
0.67653186 0.66266085 0.36960784
0.83333333 0.66960784 0.37261029
0.95765931 0.67352941 0.37352941
1 0.67352941 0.37444853
0 0.78627451 0.37352941
0 0.78921569 0.37352941
0 0.79019608 0.3745098
0.26531863 0.79411765 0.37745098
0.48823529 0.79803922 0.37843137
0.66323529 0.80196078 0.38137255
0.81372549 0.80588235 0.38446691
0.92512255 0.80980392 0.38529412
0.99607843 0.80980392 0.38590686
0 0.8872549 0.38921569
0 0.8904182 0.38921569
0.06911765 0.89068627 0.38970588
0.33382353 0.89460784 0.39313725
0.51813725 0.89509804 0.39313725
0.67745098 0.89871324 0.39705882
0.80980392 0.90245098 0.39705882
0.90686275 0.90637255 0.39985447
0.99607843 0.90814951 0.40098039
0 0.99607843 0.40490196
0.00343137 0.99607843 0.40490196
0.15477941 0.99607843 0.40490196
0.36568627 1 0.40882353
0.52941176 1 0.40882353
0.67598039 1 0.4127451
0.79019608 1 0.4127451
0.89117647 1 0.41305147
1 1 0.41666667
0 0 0.46078431
0.07377451 0 0.4627451
0.17058824 0 0.46470588
0.33284314 0 0.46666667
0.52745098 0 0.47058824
0.72598039 0 0.4745098
0.90098039 0 0.47843137
1 0.00392157 0.48039216
1 0.00392157 0.48235294
0.01519608 0.04656863 0.46862745
0.06617647 0.05 0.47058824
0.16323529 0.05177696 0.471875
0.33284314 0.05833333 0.4745098
0.52352941 0.06617647 0.47843137
0.71813725 0.07401961 0.48235294
0.89313725 0.07794118 0.48474265
1 0.08578431 0.48823529
1 0.08970588 0.49019608
0.05 0.14313725 0.47843137
0.08186275 0.14362745 0.47843137
0.1627451 0.14705882 0.47990196
0.34852941 0.15196078 0.48235294
0.52745098 0.15882353 0.48627451
0.72058824 0.16666667 0.49019608
0.89215686 0.17156863 0.49362745
1 0.17843137 0.49558824
1 0.17941176 0.49754902
0.02107843 0.31078431 0.49142157
0.03560049 0.31323529 0.49215686
0.11409314 0.31470588 0.49411765
0.34068627 0.32107843 0.49730392
0.52352941 0.32647059 0.49963235
0.71029412 0.33284314 0.50196078
0.87647059 0.33823529 0.50588235
1 0.34246324 0.50906863
1 0.34607843 0.50980392
0 0.47941176 0.50588235
0 0.48039216 0.5067402
0.07426471 0.48406863 0.50882353
0.31127451 0.48823529 0.51041667
0.5127451 0.49215686 0.51372549
0.69583333 0.49803922 0.51666667
0.85882353 0.50392157 0.51862745
0.99093137 0.50784314 0.52156863
1 0.50980392 0.52254902
0 0.64362745 0.52156863
0 0.64607843 0.52156863
0 0.6466299 0.52230392
0.26954657 0.65 0.52503064
0.49607843 0.65502451 0.52622549
0.67745098 0.66176471 0.52941176
0.83578431 0.66568627 0.53210784
0.95998775 0.66960784 0.53333333
1 0.66960784 0.53529412
0 0.78529412 0.53578431
0 0.78627451 0.53578431
0 0.78627451 0.5372549
0.27254902 0.79019608 0.5377451
0.49019608 0.79411765 0.54117647
0.66568627 0.79803922 0.54221814
0.81372549 0.80196078 0.54509804
0.92634804 0.80588235 0.54577206
0.99901961 0.80882353 0.54754902
0 0.88676471 0.54926471
0 0.88676471 0.54926471
0.08278186 0.88676471 0.55122549
0.3377451 0.89068627 0.55294118
0.52181373 0.89460784 0.55404412
0.67794118 0.89852941 0.55686275
0.80980392 0.89901961 0.55710784
0.91029412 0.90245098 0.56078431
0.9995098 0.90637255 0.56078431
0 0.99215686 0.56470588
0.00343137 0.99215686 0.56470588
0.16470588 0.99607843 0.56470588
0.37205882 0.99607843 0.56862745
0.53333333 1 0.56862745
0.67598039 1 0.56862745
0.79019608 1 0.57254902
0.89117647 1 0.57254902
1 1 0.57647059
0 0 0.61470588
0.07352941 0 0.61470588
0.17058824 0 0.61862745
0.33676471 0 0.61862745
0.52941176 0 0.62254902
0.72598039 0 0.62647059
0.90098039 0 0.63039216
1 0 0.63431373
1 0.00392157 0.63431373
0.01176471 0.04264706 0.62254902
0.06617647 0.04607843 0.62254902
0.16666667 0.04656863 0.62512255
0.33498775 0.05441176 0.62647059
0.52352941 0.06216299 0.63039216
0.72058824 0.07009804 0.63431373
0.89313725 0.0765625 0.63823529
1 0.08186275 0.64168964
1 0.08578431 0.64215686
0.05 0.13921569 0.63039216
0.08186275 0.14015012 0.63039216
0.16666667 0.14313725 0.63039216
0.34852941 0.14803922 0.63431373
0.52892157 0.15490196 0.63823529
0.72058824 0.1627451 0.64215686
0.89215686 0.16764706 0.64607843
1 0.1745098 0.64607843
1 0.17843137 0.65
0.02254902 0.30839461 0.64215686
0.03707108 0.30931373 0.64215686
0.12046569 0.31300551 0.64607843
0.34123775 0.31773131 0.64852941
0.52352941 0.32254902 0.65
0.71029412 0.32892157 0.65392157
0.87647059 0.33431373 0.65784314
1 0.34068627 0.66029412
1 0.34215686 0.66176471
0 0.47647059 0.65784314
0 0.47647059 0.65784314
0.08186275 0.48039216 0.65784314
0.31397059 0.48431373 0.66176471
0.51470588 0.48982843 0.66372549
0.69705882 0.49561887 0.66568627
0.85931373 0.5 0.66960784
0.99264706 0.50392157 0.67156863
1 0.50784314 0.67352941
0 0.64215686 0.66960784
0 0.64215686 0.67041207
0 0.64477635 0.67352941
0.27404259 0.64734222 0.67352941
0.49926471 0.65392157 0.67745098
0.6783701 0.65784314 0.6785769
0.8372549 0.66176471 0.68137255
0.95998775 0.66568627 0.68303462
1 0.66868873 0.68529412
0 0.78235294 0.68419118
0 0.78235294 0.68529412
0 0.78501838 0.68529412
0.27647059 0.78627451 0.68529412
0.49215686 0.79019608 0.68921569
0.66715686 0.79411765 0.68982843
0.81740196 0.79803922 0.69313725
0.92892157 0.80196078 0.69321385
0.99901961 0.80588235 0.69705882
0 0.88284314 0.69705882
0 0.88284314 0.69705882
0.096875 0.88333333 0.69705882
0.34295343 0.88676471 0.6973652
0.52377451 0.89068627 0.70098039
0.68137255 0.89460784 0.70098039
0.8127451 0.89852941 0.70490196
0.91029412 0.89885876 0.70490196
1 0.90245098 0.70539216
0 0.98823529 0.70882353
0.00392157 0.99215686 0.70882353
0.17647059 0.99215686 0.70882353
0.37598039 0.99215686 0.70882353
0.5372549 0.99607843 0.7127451
0.67745098 1 0.7127451
0.79019608 1 0.71519608
0.89117647 1 0.71666667
1 1 0.71666667
0 0 0.74313725
0.07401961 0 0.74571078
0.17058824 0 0.74681373
0.33529412 0 0.75
0.52941176 0 0.75245098
0.72598039 0 0.75490196
0.90098039 0 0.75882353
1 0 0.7627451
1 0 0.7627451
0.01519608 0.03872549 0.75098039
0.06703431 0.04264706 0.75098039
0.16666667 0.04264706 0.75392157
0.33284314 0.0504902 0.75490196
0.52352941 0.05833333 0.75882353
0.72058824 0.06617647 0.7627451
0.89313725 0.07362132 0.76666667
1 0.07794118 0.76960784
1 0.08186275 0.77058824
0.05 0.13529412 0.75882353
0.08223039 0.13627451 0.75882353
0.16666667 0.13995098 0.76102941
0.34852941 0.14705882 0.7627451
0.52941176 0.15183824 0.76666667
0.72058824 0.15919118 0.77034314
0.89215686 0.16666667 0.77352941
1 0.17058824 0.7745098
1 0.1745098 0.77745098
0.02401961 0.30539216 0.77058824
0.03939951 0.30686275 0.77058824
0.12181373 0.30931373 0.77352941
0.34307598 0.31470588 0.7756587
0.52352941 0.31985294 0.77843137
0.71121324 0.32647059 0.78198529
0.87683824 0.33238358 0.78529412
1 0.3379136 0.78627451
1 0.33823529 0.78921569
0 0.47254902 0.78382353
0 0.4745098 0.78529412
0.08823529 0.47647059 0.78578431
0.3153799 0.48161765 0.7877451
0.51568627 0.48627451 0.79019608
0.69779412 0.49215686 0.79362745
0.86078431 0.49803922 0.79705882
0.99264706 0.50196078 0.79803922
1 0.50392157 0.7995098
0 0.63823529 0.79705882
0 0.63823529 0.79742647
0 0.64215686 0.79803922
0.27738971 0.64607843 0.80098039
0.5 0.65 0.80196078
0.68045343 0.65392157 0.80526961
0.8372549 0.65811887 0.80744485
0.96127451 0.66176471 0.80980392
1 0.66568627 0.80980392
0 0.77843137 0.80882353
0 0.77843137 0.80882353
0 0.78235294 0.80980392
0.28048407 0.78529412 0.81053922
0.49607843 0.78921569 0.81335784
0.66960784 0.79341299 0.81666667
0.81764706 0.79785539 0.81764706
0.92904412 0.80098039 0.81865809
1 0.80196078 0.82058824
0 0.87892157 0.81764706
0 0.87941176 0.81801471
0.10542279 0.88284314 0.82058824
0.346875 0.88333333 0.82071078
0.52598039 0.88676471 0.82175245
0.68163297 0.89068627 0.8245098
0.81372549 0.89460784 0.8254902
0.91078431 0.89852941 0.82843137
1 0.89901961 0.82941176
0 0.98823529 0.82843137
0.01470588 0.98823529 0.82843137
0.18529412 0.98823529 0.82941176
0.37990196 0.99215686 0.82941176
0.5372549 0.99362745 0.83235294
0.67990196 0.99607843 0.83333333
0.79313725 1 0.83627451
0.89117647 1 0.83627451
1 1 0.8372549
0 0 0.83186275
0.07352941 0 0.83578431
0.17156863 0 0.83578431
0.33529412 0 0.83970588
0.52941176 0 0.84362745
0.72598039 0 0.84754902
0.90098039 0 0.84803922
1 0 0.85147059
1 0 0.85539216
0.01176471 0.03872549 0.83970588
0.0669807 0.03872549 0.84282322
0.16666667 0.04264706 0.84362745
0.33545496 0.04871324 0.84738817
0.52352941 0.05441176 0.84800858
0.72058824 0.0622549 0.85163143
0.89313725 0.07009804 0.85539216
1 0.07745098 0.85931373
1 0.07794118 0.85931373
0.05 0.13235294 0.84754902
0.08223039 0.13529412 0.84754902
0.16666667 0.13820466 0.85125613
0.34852941 0.14313725 0.85170037
0.52941176 0.15098039 0.85539216
0.72205882 0.15588235 0.85931373
0.89215686 0.16363358 0.86323529
1 0.16796875 0.86393995
1 0.17156863 0.86715686
0.02401961 0.30294118 0.85931373
0.0412837 0.30294118 0.8595818
0.12556679 0.30686275 0.86323529
0.34460784 0.3131204 0.86354167
0.52352941 0.31862745 0.86715686
0.7127451 0.325 0.87107843
0.87683824 0.33039216 0.875
1 0.33431373 0.875
1 0.33823529 0.87892157
0 0.47058824 0.87107843
0 0.47254902 0.87132353
0.09301471 0.47640931 0.875
0.31724877 0.48039216 0.8752451
0.51568627 0.48431373 0.87892157
0.69852941 0.49019608 0.88284314
0.86078431 0.49607843 0.88504902
0.99264706 0.5 0.88676471
1 0.50196078 0.8870098
0 0.63578431 0.88302696
0 0.63823529 0.8846201
0 0.63933824 0.88676471
0.28039216 0.64215686 0.8868796
0.50122549 0.64754902 0.89068627
0.68137255 0.65392157 0.89246324
0.8372549 0.65784314 0.89460784
0.96158088 0.66176471 0.89852941
1 0.66176471 0.89852941
0 0.77843137 0.89460784
0 0.77843137 0.89460784
0.00220588 0.77843137 0.89509804
0.28431373 0.78235294 0.89852941
0.49607843 0.78627451 0.89883578
0.66960784 0.79019608 0.90245098
0.81764706 0.79411765 0.90315564
0.92990196 0.79803922 0.90637255
1 0.80098039 0.90637255
0 0.87892157 0.90294118
0 0.87892157 0.9033701
0.11176471 0.87941176 0.90637255
0.34920343 0.88284314 0.90637255
0.52769608 0.88676471 0.90729167
0.68314951 0.89068627 0.91029412
0.81372549 0.89460784 0.91078431
0.91378676 0.89460784 0.91421569
1 0.89852941 0.91421569
0 0.98431373 0.91421569
0.01862745 0.98731618 0.91421569
0.18921569 0.98823529 0.91421569
0.38137255 0.98823529 0.91421569
0.54117647 0.99215686 0.91813725
0.68137255 0.99607843 0.91813725
0.79313725 0.99607843 0.91862745
0.89460784 1 0.92205882
1 1 0.92205882
0 0 0.90588235
0.07401961 0 0.90588235
0.17058824 0 0.90980392
0.33529412 0 0.90980392
0.52941176 0 0.91372549
0.72598039 0 0.91764706
0.90098039 0 0.92156863
1 0 0.9254902
1 0 0.9254902
0.01176471 0.03480392 0.91372549
0.07009804 0.03872549 0.91372549
0.16666667 0.04215686 0.91372549
0.33658088 0.04656863 0.91764706
0.52352941 0.05441176 0.92156863
0.72058824 0.0622549 0.9254902
0.89313725 0.07009804 0.92941176
1 0.07401961 0.92941176
1 0.07794118 0.93333333
0.05 0.13137255 0.92156863
0.08223039 0.13235294 0.92156863
0.16764706 0.13529412 0.92156863
0.35147059 0.14203431 0.9254902
0.52941176 0.14754902 0.92941176
0.72205882 0.15490196 0.93235294
0.89215686 0.1627451 0.93333333
1 0.16666667 0.9372549
1 0.17058824 0.9372549
0.02401961 0.30147059 0.93333333
0.04705882 0.30294118 0.93333333
0.12830882 0.30539216 0.93333333
0.34460784 0.31078431 0.9372549
0.52352941 0.31715686 0.94117647
0.7127451 0.32254902 0.94417892
0.87855392 0.32892157 0.94509804
1 0.33431373 0.94901961
1 0.33431373 0.94901961
0 0.46862745 0.94509804
0 0.47058824 0.94509804
0.0995098 0.47401961 0.94901961
0.31911765 0.47843137 0.94901961
0.51764706 0.48235294 0.95294118
0.6997549 0.48823529 0.95686275
0.86078431 0.49411765 0.95686275
0.99264706 0.49803922 0.96078431
1 0.5 0.96078431
0 0.63431373 0.95833333
0 0.63560049 0.96078431
0 0.63823529 0.96078431
0.28339461 0.64215686 0.9622549
0.50392157 0.64607843 0.96470588
0.68137255 0.65 0.96862745
0.8372549 0.65539216 0.96862745
0.96158088 0.65931373 0.97254902
1 0.66176471 0.97254902
0 0.7745098 0.97254902
0 0.77708333 0.97254902
0.00220588 0.77843137 0.97254902
0.28639706 0.78235294 0.97316176
0.49803922 0.78627451 0.97647059
0.67071078 0.79019608 0.97745098
0.81985294 0.79411765 0.98039216
0.92990196 0.79705882 0.98137255
1 0.79803922 0.98431373
0 0.8754902 0.98039216
0 0.87892157 0.98088235
0.11666667 0.87892157 0.98431373
0.35294118 0.88284314 0.98431373
0.52965686 0.88333333 0.98480392
0.68529412 0.88694853 0.98823529
0.81666667 0.89068627 0.98823529
0.91421569 0.89460784 0.99215686
1 0.89509804 0.99215686
0 0.98431373 0.99215686
0.02205882 0.98431373 0.99215686
0.19607843 0.98431373 0.99215686
0.38529412 0.98823529 0.99607843
0.54117647 0.99215686 0.99607843
0.68137255 0.99215686 0.99607843
0.79411765 0.99607843 1
0.89509804 1 1
1 1 1
