Kodak Converted/Kodak Elite Color 200.cube
# Exported with LUT Lab 1.2.1
# LUTLab.com
TITLE Kodak Elite Color 200
LUT_3D_SIZE 9
0 0 0
0.06617647 0 0
0.15196078 0 0
0.2495098 0 0.00392157
0.36470588 0.00392157 0.00392157
0.52058824 0.01176471 0.01176471
0.67745098 0.02352941 0.02352941
0.83235294 0.05098039 0.04313725
0.96862745 0.09411765 0.0745098
0.02745098 0.05833333 0
0.08186275 0.0622549 0.00386029
0.1627451 0.06875 0.00392157
0.25980392 0.07616422 0.00784314
0.37647059 0.08578431 0.01544118
0.52990196 0.10147059 0.02696078
0.68517157 0.12107843 0.04264706
0.83976716 0.14852941 0.06317402
0.97254902 0.18823529 0.09754902
0.08529412 0.14019608 0.01568627
0.11360294 0.14019608 0.01960784
0.17941176 0.14779412 0.02352941
0.2754902 0.15196078 0.03039216
0.39215686 0.16372549 0.03921569
0.54522059 0.1754902 0.05098039
0.69926471 0.19509804 0.06764706
0.84803922 0.21862745 0.08933824
0.97647059 0.25784314 0.12156863
0.1254902 0.22843137 0.02745098
0.14509804 0.22990196 0.02745098
0.20294118 0.23382353 0.03137255
0.29656863 0.24019608 0.03921569
0.41568627 0.24877451 0.04828431
0.57009804 0.26035539 0.05974265
0.71629902 0.27696078 0.07843137
0.85980392 0.30079657 0.09460784
0.98431373 0.33970588 0.1254902
0.11764706 0.34117647 0.02156863
0.15637255 0.34313725 0.02156863
0.22647059 0.34656863 0.0254902
0.32254902 0.35294118 0.03063725
0.45294118 0.35980392 0.0372549
0.59901961 0.36936275 0.04779412
0.74117647 0.38431373 0.06323529
0.87941176 0.40416667 0.08259804
0.99607843 0.43333333 0.11372549
0.15833333 0.45637255 0.00392157
0.19313725 0.45784314 0.00392157
0.26176471 0.46029412 0.00784314
0.36415441 0.46421569 0.00784314
0.4995098 0.46960784 0.01421569
0.63431373 0.47745098 0.02052696
0.77205882 0.4877451 0.03137255
0.9026348 0.5036152 0.05128676
1 0.52843137 0.08088235
0.22843137 0.56176471 0
0.25943627 0.56176471 0
0.32941176 0.56176471 0
0.4372549 0.56176471 0
0.55784314 0.56176471 0
0.68480392 0.56568627 0
0.81446078 0.57352941 0
0.93137255 0.58529412 0.00784314
1 0.60490196 0.02647059
0.34166667 0.65147059 0
0.36868873 0.65147059 0
0.42745098 0.65147059 0
0.51666667 0.65147059 0
0.62009804 0.65147059 0
0.73890931 0.64803922 0
0.85723039 0.65147059 0
0.96917892 0.65147059 0
1 0.65539216 0
0.4627451 0.72156863 0
0.48235294 0.72156863 0
0.52843137 0.72156863 0
0.60098039 0.72156863 0
0.69215686 0.72156863 0
0.79754902 0.72009804 0
0.9 0.71764706 0
1 0.71764706 0
1 0.71764706 0
0 0.00392157 0.07745098
0.07401961 0.00392157 0.08578431
0.15980392 0.00784314 0.09620098
0.25735294 0.01176471 0.10539216
0.37254902 0.01960784 0.11691176
0.52990196 0.03137255 0.12892157
0.68431373 0.05098039 0.14546569
0.83627451 0.07886029 0.16813725
0.96862745 0.1254902 0.1995098
0.03480392 0.07794118 0.07794118
0.08529412 0.08223805 0.08448989
0.16752451 0.08970588 0.08970588
0.26519608 0.09754902 0.09969363
0.38039216 0.10931373 0.10952819
0.53627451 0.12469363 0.12469363
0.69215686 0.1442402 0.14068627
0.84019608 0.17205882 0.16078431
0.97254902 0.21470588 0.19166667
0.09019608 0.1557598 0.08578431
0.12020527 0.15588235 0.08970588
0.18161765 0.16323529 0.09362745
0.27879902 0.16979167 0.10147059
0.39607843 0.17941176 0.11323529
0.55134804 0.19246324 0.125
0.70064338 0.21078431 0.14090074
0.84803922 0.23480392 0.16078431
0.97647059 0.27352941 0.19166667
0.11764706 0.24166667 0.08186275
0.14348192 0.2435432 0.08578431
0.20294118 0.24719669 0.08970588
0.29810049 0.25336244 0.09754902
0.41960784 0.26127451 0.10628064
0.57156863 0.27384344 0.12107843
0.71960784 0.29154412 0.13515625
0.85980392 0.31644455 0.15422794
0.98431373 0.35520833 0.18382353
0.11568627 0.35294118 0.06617647
0.15245098 0.35465686 0.06642157
0.22604167 0.35814951 0.07028186
0.32254902 0.36446078 0.07729779
0.45392157 0.37230392 0.08578431
0.59901961 0.38219975 0.09754902
0.74313725 0.39650735 0.11372549
0.87916667 0.41764706 0.13308824
0.99607843 0.44877451 0.1622549
0.15079657 0.46813725 0.03333333
0.18792892 0.46942402 0.03351716
0.25899203 0.47175245 0.0372549
0.36323529 0.47567402 0.04209559
0.4995098 0.48118873 0.05039828
0.63431373 0.48903186 0.06078431
0.77205882 0.4998315 0.07647059
0.90030637 0.5167739 0.09626225
1 0.54264706 0.125
0.23333333 0.56568627 0
0.26421569 0.56568627 0
0.33406863 0.56632966 0.00257353
0.43933824 0.56960784 0.00392157
0.55784314 0.57352941 0.00729167
0.68235294 0.57745098 0.01164216
0.8129902 0.58529412 0.02205882
0.93002451 0.59705882 0.03823529
1 0.61666667 0.06911765
0.35 0.65147059 0
0.37733609 0.65147059 0
0.43829657 0.65147059 0
0.52320006 0.65147059 0
0.62598039 0.65147059 0
0.74426317 0.65147059 0
0.86115196 0.65147059 0
0.97003676 0.65147059 0
1 0.66623775 0
0.47401961 0.7254902 0
0.49019608 0.7254902 0
0.53627451 0.72156863 0
0.60637255 0.72156863 0
0.69803922 0.72156863 0
0.80147059 0.72156863 0
0.90392157 0.71764706 0
1 0.71764706 0
1 0.71764706 0
0 0.01568627 0.16764706
0.08137255 0.01568627 0.17843137
0.16666667 0.02254902 0.18553922
0.26519608 0.02745098 0.19473039
0.38039216 0.03921569 0.20294118
0.53627451 0.05208333 0.21580882
0.68921569 0.07132353 0.23039216
0.84019608 0.09852941 0.25
0.96862745 0.14509804 0.27745098
0.04264706 0.1004902 0.16764706
0.08970588 0.10526961 0.17414216
0.17058824 0.10931373 0.17941176
0.26911765 0.11715686 0.18909314
0.38823529 0.12892157 0.19901961
0.54411765 0.14460784 0.21078431
0.69607843 0.16421569 0.22647059
0.84411765 0.19166667 0.24640012
0.97254902 0.23125 0.27352941
0.09705882 0.1752451 0.17156863
0.12536765 0.1754902 0.1754902
0.18333333 0.18235294 0.18235294
0.28088235 0.19019608 0.19108456
0.4 0.19901961 0.20196078
0.55572917 0.21409314 0.21409314
0.70392157 0.23112745 0.22965686
0.84803922 0.25698529 0.25
0.97647059 0.29313725 0.27745098
0.11372549 0.26311275 0.17156863
0.13333333 0.26482843 0.1745098
0.20257353 0.26875 0.17941176
0.29810049 0.27487745 0.1872549
0.42352941 0.28357843 0.19822304
0.5754902 0.29633885 0.21040135
0.7200674 0.31271446 0.22647059
0.85980392 0.33788297 0.24644608
0.98431373 0.375 0.27647059
0.11176471 0.37598039 0.15539216
0.14656863 0.37647059 0.15735294
0.2189951 0.38039216 0.16127451
0.31936275 0.38756127 0.16856618
0.45588235 0.39558824 0.17696078
0.59901961 0.40612745 0.18946078
0.74313725 0.42107843 0.20686275
0.8754902 0.44093137 0.22947304
0.99215686 0.47205882 0.26078431
0.13370098 0.49105392 0.11813725
0.17352941 0.49276961 0.1185049
0.24981618 0.49497549 0.12242647
0.36023284 0.49889706 0.12806373
0.49803922 0.50471814 0.13792892
0.63186275 0.51343444 0.14964767
0.77058824 0.52469363 0.1638174
0.8963848 0.54211091 0.18921569
1 0.56727941 0.22794118
0.21862745 0.58921569 0.05686275
0.25254289 0.58921569 0.05686275
0.32647059 0.59215686 0.06078431
0.43541667 0.59313725 0.06780025
0.55392157 0.59705882 0.07647059
0.67843137 0.60392157 0.08808211
0.80686275 0.6120098 0.103125
0.92340686 0.6245098 0.12288603
1 0.64411765 0.16004902
0.36997549 0.65404412 0
0.39656863 0.65404412 0
0.45183824 0.65404412 0
0.53337929 0.65526961 0
0.6338848 0.65796569 0.00257353
0.74705882 0.66188725 0.0064951
0.86001838 0.66770833 0.01421569
0.96536458 0.67757353 0.02945772
1 0.69411765 0.05992647
0.49019608 0.7254902 0
0.50845588 0.7254902 0
0.55122549 0.7254902 0
0.61997549 0.72156863 0
0.70980392 0.72156863 0
0.80931373 0.72156863 0
0.91078431 0.72156863 0
1 0.71764706 0
1 0.72156863 0
0 0.03921569 0.25735294
0.08560049 0.03921569 0.26764706
0.17156863 0.03921569 0.2754902
0.27064951 0.0495098 0.28333333
0.38823529 0.05882353 0.29264706
0.54411765 0.07359069 0.30441176
0.69607843 0.09411765 0.32009804
0.84019608 0.12156863 0.33841912
0.96862745 0.16862745 0.36715686
0.04705882 0.12107843 0.26734069
0.09754902 0.12714461 0.27156863
0.17437194 0.13284314 0.27933517
0.27303922 0.14068627 0.2872549
0.39430147 0.15098039 0.29656863
0.54884344 0.16421569 0.30913756
0.7 0.18466605 0.32401961
0.84411765 0.21390931 0.34389553
0.96862745 0.25471814 0.37107843
0.10196078 0.19754902 0.27696078
0.12936581 0.19901961 0.2808364
0.1872549 0.20539216 0.2872549
0.28333333 0.21193321 0.29509804
0.40716912 0.22254902 0.30441176
0.55980392 0.23523284 0.31709559
0.70784314 0.25453431 0.3323223
0.85183824 0.28008578 0.35338542
0.97254902 0.31911765 0.38137255
0.11519608 0.28633578 0.28333333
0.13157169 0.28872549 0.2872549
0.19901961 0.29264706 0.29117647
0.29993873 0.29924939 0.29901961
0.42867647 0.3080576 0.30955882
0.57794118 0.32067249 0.32254902
0.72352941 0.33777574 0.33823529
0.85980392 0.36294424 0.35802696
0.98039216 0.40245098 0.38921569
0.10196078 0.40392157 0.27622549
0.13961397 0.40514706 0.27941176
0.21078431 0.40876225 0.28333333
0.31862745 0.41495098 0.29117647
0.45784314 0.42316176 0.30294118
0.59901961 0.43455882 0.31470588
0.74117647 0.44877451 0.33088235
0.87328431 0.47009804 0.35392157
0.98823529 0.50122549 0.38529412
0.09944853 0.52395833 0.25349265
0.14607843 0.52444087 0.25533088
0.23434436 0.5278799 0.26095282
0.35539216 0.53180147 0.26860447
0.49411765 0.53780637 0.27913603
0.62851562 0.54599418 0.29397212
0.7662837 0.55787377 0.31116728
0.88941483 0.57513021 0.33607537
1 0.60055147 0.37113971
0.18664216 0.62696078 0.19852941
0.2261489 0.62732843 0.20245098
0.31063113 0.62904412 0.20637255
0.4243413 0.63235294 0.2166973
0.54381127 0.63627451 0.22990196
0.67058824 0.64264706 0.24558824
0.79831495 0.6504902 0.26556373
0.91265319 0.66243873 0.29283088
1 0.68186275 0.33223039
0.35410539 0.69313725 0.08235294
0.38090533 0.69313725 0.08600643
0.43676471 0.69442402 0.08676471
0.5198989 0.69675245 0.09411765
0.62107843 0.70067402 0.10196078
0.73529412 0.70459559 0.11372549
0.84551164 0.7122549 0.13756127
0.95016085 0.72074908 0.17465533
1 0.73756127 0.23204657
0.51372549 0.7254902 0
0.52941176 0.7254902 0
0.57156863 0.7254902 0
0.6377451 0.7254902 0
0.7254902 0.72156863 0
0.82199755 0.72156863 0
0.91960784 0.72156863 0
1 0.72156863 0
1 0.72156863 0
0.00392157 0.06862745 0.36078431
0.08921569 0.07058824 0.37058824
0.17941176 0.07058824 0.37843137
0.27696078 0.07254902 0.38823529
0.39607843 0.08431373 0.4
0.55196078 0.09877451 0.41176471
0.7 0.11960784 0.42745098
0.84411765 0.14901961 0.44705882
0.96862745 0.19215686 0.47254902
0.05833333 0.14656863 0.37818627
0.1073223 0.15070466 0.38431373
0.17677696 0.15655637 0.39215686
0.27941176 0.16544118 0.40278799
0.4 0.17598039 0.41433824
0.55588235 0.19166667 0.42745098
0.70392157 0.21127451 0.44313725
0.84411765 0.23900123 0.4627451
0.96862745 0.28186275 0.4879902
0.09411765 0.22254902 0.4
0.125 0.22640931 0.40392157
0.18333333 0.23186275 0.41164216
0.2872549 0.23915441 0.41960784
0.41176471 0.25 0.43137255
0.56372549 0.26427696 0.44644608
0.71176471 0.28186275 0.46237745
0.84803922 0.30882353 0.4814951
0.97009804 0.34607843 0.50588235
0.0877451 0.31740196 0.41960784
0.10842525 0.31936275 0.42352941
0.19509804 0.32328431 0.43014706
0.29901961 0.32962623 0.43921569
0.43419118 0.33897059 0.45061275
0.57941176 0.35193015 0.4627451
0.72352941 0.36887255 0.47843137
0.85802696 0.39411765 0.49803922
0.97647059 0.43308824 0.52156863
0.10196078 0.4372549 0.43137255
0.12928922 0.43921569 0.43333333
0.19852941 0.44313725 0.43921569
0.31470588 0.44901961 0.44705882
0.45882353 0.45833333 0.45882353
0.59901961 0.46960784 0.47058824
0.73921569 0.48455882 0.48627451
0.86764706 0.50514706 0.50588235
0.98039216 0.53627451 0.52941176
0.09313725 0.5629902 0.42671569
0.1270527 0.56479779 0.42941176
0.21446078 0.56691176 0.43333333
0.34754902 0.57083333 0.4419424
0.4877451 0.57745098 0.45257353
0.62254902 0.58651961 0.46620711
0.75882353 0.59828431 0.48235294
0.87941176 0.61421569 0.50196078
0.98897059 0.63946078 0.52941176
0.14117647 0.67205882 0.39803922
0.19166667 0.67205882 0.40098039
0.29019608 0.67389706 0.40490196
0.40980392 0.67745098 0.41335784
0.53112745 0.68137255 0.4247549
0.65974265 0.68743873 0.44019608
0.78553922 0.69595588 0.45723039
0.89883578 0.70753676 0.48014706
0.99852941 0.72647059 0.51127451
0.32303922 0.74362745 0.31053922
0.35193015 0.74534314 0.3125
0.41176471 0.74730392 0.31666667
0.49862132 0.74754902 0.32622549
0.60355392 0.75147059 0.33811275
0.71715686 0.75539216 0.35465686
0.82745098 0.7629902 0.37745098
0.93060662 0.77129289 0.40710784
1 0.78848039 0.44852941
0.5254902 0.74509804 0.01372549
0.54117647 0.74705882 0.01372549
0.57990196 0.74705882 0.01568627
0.64558824 0.74705882 0.01764706
0.72745098 0.74803922 0.02352941
0.81985294 0.75098039 0.03137255
0.91127451 0.75588235 0.04166667
1 0.76666667 0.06102941
1 0.78235294 0.10784314
0.00784314 0.10735294 0.48529412
0.09754902 0.10735294 0.49705882
0.18627451 0.10735294 0.50490196
0.28480392 0.10980392 0.5127451
0.40784314 0.10980392 0.52303922
0.55980392 0.1254902 0.53327206
0.70784314 0.14509804 0.54803922
0.84411765 0.17254902 0.56372549
0.96862745 0.21568627 0.58578431
0.07009804 0.17598039 0.51617647
0.12061121 0.17990196 0.52058824
0.18333333 0.18492647 0.52843137
0.2872549 0.19258578 0.53627451
0.41176471 0.20343137 0.5479473
0.56372549 0.21574755 0.55942862
0.70784314 0.23517157 0.57156863
0.84754902 0.2627451 0.5872549
0.96470588 0.30539216 0.60900735
0.09313725 0.25110294 0.54313725
0.11764706 0.25392157 0.54692096
0.19019608 0.25867034 0.55196078
0.29264706 0.26568627 0.55980392
0.42352941 0.27714461 0.57089461
0.57156863 0.28962929 0.5801011
0.71568627 0.30882353 0.59427083
0.85061275 0.33284314 0.60891544
0.96862745 0.37156863 0.63002451
0.0627451 0.3466299 0.56764706
0.10147059 0.34846814 0.57009804
0.19734988 0.35238971 0.5754902
0.3040671 0.35896906 0.58333333
0.44313725 0.36715686 0.59117647
0.58633578 0.37926624 0.60259651
0.72745098 0.39590993 0.61470588
0.85588235 0.41931679 0.62990962
0.97254902 0.45735294 0.64944853
0.08357843 0.47058824 0.58333333
0.10765931 0.47058824 0.5872549
0.19460784 0.4745098 0.59117647
0.31862745 0.47990196 0.59751838
0.4627451 0.48897059 0.60686275
0.60171569 0.49996936 0.61470588
0.73921569 0.51464461 0.62696078
0.86372549 0.53431373 0.64215686
0.97647059 0.56544118 0.66176471
0.05042892 0.6004902 0.59117647
0.08185509 0.6004902 0.59345129
0.20404412 0.60386029 0.59656863
0.34812347 0.60743719 0.60294118
0.48627451 0.61378676 0.61078431
0.62254902 0.62197457 0.62254902
0.75490196 0.63339461 0.63431373
0.87237286 0.64908088 0.65
0.98039216 0.67261029 0.66960784
0.10404412 0.71617647 0.58443627
0.16323529 0.71678922 0.58664216
0.27423407 0.7189951 0.59010417
0.39803922 0.72071078 0.59578738
0.52254902 0.72463235 0.60404412
0.65098039 0.73039216 0.61470588
0.77496936 0.73685662 0.62757353
0.88711703 0.74762561 0.64522059
0.99105392 0.76568627 0.66568627
0.28596814 0.8004902 0.54117647
0.31701134 0.80177696 0.54332108
0.38276654 0.80196078 0.5467065
0.47529105 0.80330116 0.55294118
0.58480392 0.80588235 0.56185662
0.6988894 0.80980392 0.57346814
0.80894608 0.81426164 0.58884804
0.91121324 0.82371324 0.60814951
1 0.83707108 0.63792892
0.48627451 0.81715686 0.28970588
0.50410539 0.81862745 0.29362745
0.54656863 0.82107843 0.29754902
0.61366422 0.82107843 0.30539216
0.69730392 0.82254902 0.31715686
0.78823529 0.82555147 0.33431373
0.88002451 0.83284314 0.35735294
0.97156863 0.84068627 0.39166667
1 0.85245098 0.44656863
0.01666667 0.14509804 0.61372549
0.11323529 0.14607843 0.62156863
0.19509804 0.14607843 0.62941176
0.29718137 0.14607843 0.6372549
0.42352941 0.14607843 0.64656863
0.57156863 0.14546569 0.65625
0.71568627 0.16495098 0.66544118
0.84803922 0.1935049 0.68039216
0.96862745 0.23529412 0.69607843
0.08590686 0.1995098 0.64767157
0.13296569 0.20343137 0.65234375
0.19607843 0.20735294 0.65686275
0.29938725 0.21519608 0.66470588
0.4278799 0.22303922 0.67254902
0.5754902 0.23524816 0.68310355
0.71568627 0.2544424 0.69215686
0.84803922 0.28187806 0.70424326
0.96470588 0.32242647 0.71960784
0.10882353 0.27352941 0.6747549
0.12996324 0.27417279 0.67647059
0.20349265 0.28008578 0.6838848
0.3080576 0.28529412 0.68961397
0.43995098 0.29669118 0.69718137
0.58333333 0.30882353 0.70612745
0.72352941 0.32622549 0.71544118
0.85196078 0.35196078 0.7265625
0.96764706 0.38823529 0.74142157
0.07794118 0.36960784 0.7
0.12745098 0.37107843 0.70355392
0.21151961 0.37472426 0.70747549
0.32185968 0.38068321 0.71176471
0.45882353 0.38829657 0.71942402
0.59571078 0.3998315 0.7272212
0.73501838 0.41528799 0.73529412
0.85931373 0.43805147 0.74669118
0.96862745 0.4754902 0.76066176
0.06029412 0.49411765 0.72107843
0.10569853 0.49411765 0.72352941
0.21384804 0.49803922 0.72696078
0.33823529 0.50294118 0.73137255
0.47696078 0.51078431 0.73676471
0.61078431 0.52175245 0.74368873
0.7435049 0.5372549 0.75245098
0.86372549 0.55692402 0.76231618
0.97254902 0.58627451 0.7745098
0.03284314 0.63039216 0.73529412
0.10784314 0.63039216 0.73800551
0.22447917 0.63321078 0.73921569
0.36213235 0.63529412 0.74313725
0.49503676 0.64215686 0.75067402
0.62832414 0.65 0.75669424
0.75490196 0.65900735 0.76568627
0.87107843 0.67437194 0.7745098
0.97647059 0.69767157 0.78737745
0.12401961 0.75171569 0.74313725
0.17365196 0.75416667 0.74313725
0.28143382 0.75416667 0.74705882
0.39996936 0.75563725 0.75098039
0.52561275 0.75955882 0.75490196
0.65281863 0.76348039 0.7627451
0.77058824 0.77022059 0.77058824
0.87941176 0.78137255 0.7814951
0.98039216 0.79705882 0.79411765
0.27156863 0.84754902 0.7310049
0.30245098 0.84767157 0.73137255
0.37205882 0.84852941 0.73492647
0.4665288 0.84875919 0.73884804
0.57696078 0.85159314 0.7439951
0.68952206 0.85539216 0.75130208
0.79641544 0.85931373 0.76228554
0.89857537 0.86421569 0.77408088
0.99215686 0.875 0.79019608
0.44215686 0.89509804 0.61078431
0.46262255 0.89509804 0.61176471
0.50808824 0.89901961 0.61544118
0.57855392 0.89901961 0.61960784
0.66421569 0.89901961 0.62745098
0.75441176 0.90294118 0.63860294
0.84730392 0.90686275 0.65171569
0.9377451 0.91078431 0.66973039
1 0.91862745 0.70098039
0.03921569 0.18039216 0.73039216
0.13676471 0.18039216 0.73823529
0.21384804 0.18039216 0.74558824
0.31617647 0.18039216 0.75
0.44534314 0.17696078 0.75735294
0.5872549 0.17677696 0.76176471
0.72659314 0.17647059 0.76911765
0.85539216 0.20435049 0.7778799
0.96862745 0.24313725 0.78921569
0.10196078 0.21176471 0.76170343
0.14944853 0.21519608 0.76557138
0.22169118 0.2191636 0.76954657
0.32273284 0.22696078 0.77653186
0.45147059 0.23480392 0.78109681
0.59117647 0.24656863 0.78829657
0.72781863 0.2622549 0.7930913
0.85544577 0.28627451 0.80130208
0.96862745 0.32892157 0.8122549
0.12585784 0.28137255 0.78529412
0.15159314 0.28529412 0.78872549
0.23458946 0.28921569 0.79264706
0.33609069 0.29313725 0.79693627
0.46666667 0.30245098 0.80226716
0.60208333 0.31605392 0.80833333
0.73529412 0.33235294 0.81531863
0.85935968 0.35637255 0.82305453
0.96862745 0.39509804 0.83186275
0.13627451 0.37892157 0.81096814
0.17123928 0.38106618 0.8122549
0.24990809 0.38284314 0.81488971
0.3571538 0.38921569 0.81881127
0.48627451 0.39705882 0.82401961
0.61653646 0.40729167 0.82805607
0.74705882 0.42205882 0.83481924
0.86399357 0.44430147 0.84217984
0.97254902 0.48088235 0.85147059
0.13039216 0.50220588 0.83186275
0.17647059 0.50588235 0.83210784
0.26501225 0.50735294 0.83406863
0.37794118 0.51372549 0.8379902
0.50416667 0.52058824 0.84191176
0.63195466 0.52941176 0.84754902
0.75796569 0.54509804 0.85153186
0.87107843 0.56495098 0.85931373
0.97254902 0.59607843 0.86715686
0.14705882 0.64607843 0.84803922
0.18872549 0.64607843 0.84932598
0.28484988 0.64871324 0.85160846
0.39970895 0.65019148 0.85539216
0.52190564 0.65784314 0.85931373
0.64737286 0.66294424 0.86323529
0.76666667 0.67352941 0.86734069
0.875 0.68921569 0.875
0.97647059 0.71145833 0.88284314
0.19889706 0.77487745 0.86323529
0.24411765 0.77487745 0.86334252
0.32598039 0.77757353 0.86372549
0.43086703 0.77843137 0.86727941
0.54914216 0.78235294 0.87107843
0.66657475 0.78627451 0.87504596
0.77778799 0.79313725 0.87962623
0.8805913 0.80121017 0.88676471
0.97647059 0.81666667 0.89460784
0.30735294 0.87898284 0.86764706
0.33780637 0.87941176 0.86764706
0.4 0.87984069 0.87107843
0.48952206 0.88284314 0.87156863
0.59093137 0.88284314 0.8754902
0.69577206 0.88376225 0.88053768
0.79707414 0.88768382 0.88676471
0.89460784 0.89460784 0.89460784
0.98431373 0.90245098 0.90245098
0.43921569 0.95343137 0.82892157
0.45882353 0.95343137 0.82892157
0.50490196 0.95343137 0.83235294
0.57107843 0.95343137 0.83627451
0.65294118 0.95686275 0.84019608
0.74019608 0.95735294 0.84411765
0.82928922 0.95735294 0.85196078
0.91813725 0.96127451 0.85980392
1 0.96519608 0.8754902
0.05490196 0.20784314 0.82745098
0.16421569 0.20784314 0.83529412
0.24215686 0.20784314 0.83921569
0.34607843 0.20784314 0.84313725
0.4745098 0.20392157 0.84705882
0.60686275 0.20392157 0.85098039
0.74215686 0.2 0.85490196
0.86323529 0.2004902 0.8627451
0.97254902 0.24313725 0.87058824
0.13676471 0.21568627 0.85490196
0.18425245 0.21568627 0.85833333
0.26433824 0.21911765 0.8622549
0.36176471 0.22303922 0.86617647
0.48627451 0.23088235 0.87009804
0.61685049 0.24264706 0.8745098
0.74705882 0.25833333 0.87843137
0.86372549 0.28186275 0.88278186
0.97254902 0.32107843 0.89019608
0.17156863 0.27745098 0.87745098
0.21029412 0.28137255 0.87843137
0.28431373 0.28137255 0.88235294
0.38247549 0.28921569 0.88529412
0.50196078 0.29509804 0.88921569
0.63039216 0.3060049 0.89313725
0.75490196 0.32156863 0.89730392
0.87107843 0.34803922 0.90196078
0.97254902 0.3872549 0.90882353
0.21029412 0.37107843 0.89803922
0.24295343 0.37107843 0.9004902
0.3127451 0.375 0.90196078
0.40974265 0.37892157 0.90588235
0.5254902 0.38676471 0.90833333
0.64761029 0.39852941 0.91072304
0.7685049 0.41311275 0.91433824
0.8776348 0.43645833 0.92009804
0.97647059 0.47156863 0.9254902
0.24509804 0.49803922 0.91764706
0.27622549 0.49803922 0.91960784
0.34411765 0.49803922 0.92156863
0.43897059 0.50441176 0.92352941
0.54901961 0.50980392 0.9254902
0.66691176 0.52156863 0.92941176
0.77990196 0.53431373 0.93333333
0.88333333 0.55686275 0.9372549
0.98039216 0.58823529 0.94117647
0.27598039 0.64607843 0.9372549
0.30686275 0.64607843 0.9372549
0.37156863 0.64607843 0.9372549
0.46427696 0.65 0.94117647
0.57132353 0.65392157 0.94117647
0.68382353 0.66176471 0.94509804
0.78921569 0.66960784 0.94901961
0.8872549 0.68529412 0.95294118
0.98039216 0.70882353 0.95686275
0.32254902 0.78235294 0.95294118
0.35 0.78235294 0.95294118
0.41176471 0.78529412 0.95294118
0.49754902 0.78627451 0.95686275
0.59852941 0.78921569 0.95686275
0.70098039 0.79313725 0.96078431
0.79877451 0.79803922 0.96176471
0.89460784 0.80625 0.96568627
0.98039216 0.82156863 0.96960784
0.40882353 0.89509804 0.96862745
0.43143382 0.89509804 0.96862745
0.47928922 0.89852941 0.96862745
0.55196078 0.89852941 0.96862745
0.6377451 0.89852941 0.97254902
0.72696078 0.89901961 0.97303922
0.81666667 0.90294118 0.97647059
0.90245098 0.90686275 0.98039216
0.98431373 0.91813725 0.98431373
0.51372549 0.99215686 0.97254902
0.52941176 0.99215686 0.97254902
0.56372549 0.99215686 0.97254902
0.61813725 0.99215686 0.97647059
0.68823529 0.99215686 0.98039216
0.7622549 0.99215686 0.98431373
0.84019608 0.99607843 0.98823529
0.91813725 0.99607843 0.99215686
1 1 1
