Kodak Converted/Kodak Elite Chrome 200.cube
# Exported with LUT Lab 1.2.1
# LUTLab.com
TITLE Kodak Elite Chrome 200
LUT_3D_SIZE 33
0 0 0
0.00968137 0 0
0.01960784 0 0
0.03688725 0 0
0.05833333 0 0
0.07977941 0 0
0.09730392 0 0
0.11813725 0 0
0.15098039 0 0
0.17818627 0 0
0.20931373 0 0
0.23651961 0 0
0.26764706 0 0
0.29877451 0 0
0.33039216 0 0
0.37279412 0 0
0.40784314 0 0
0.44681373 0 0
0.48186275 0 0
0.51691176 0 0
0.55196078 0 0
0.57647059 0 0
0.61421569 0 0
0.64926471 0 0
0.68039216 0 0
0.71262255 0 0
0.74583333 0 0
0.77769608 0 0
0.80833333 0 0
0.83762255 0 0
0.86715686 0 0
0.89620098 0 0
0.9254902 0 0
0.0057598 0.01752451 0
0.02328431 0.01654795 0
0.04080882 0.01360294 0
0.05833333 0.01360294 0
0.07794118 0.00968137 0
0.09730392 0.00968137 0
0.11691176 0.00968137 0
0.13664216 0.0072572 0
0.16712623 0.0057598 0
0.19530867 0.00392157 0
0.22165288 0.00392157 0
0.25012255 0.00183824 0
0.27810968 0.00183824 0
0.30845588 0 0
0.34007353 0 0
0.37855392 0 0
0.41360294 0 0
0.44865196 0 0
0.48186275 0 0
0.51316253 0 0
0.54803922 0 0
0.57254902 0 0
0.61172641 0 0
0.64534314 0 0
0.67647059 0 0
0.70759804 0 0
0.7404182 0 0
0.77256817 0 0
0.80280331 0 0
0.8329542 0 0
0.8631204 0 0
0.89044118 0 0
0.91973039 0 0
0.01936275 0.04264706 0.00392157
0.03309589 0.0388557 0.00392157
0.0504902 0.0352788 0.00367647
0.0682598 0.03480392 0
0.08900123 0.03112745 0
0.10698529 0.02961857 0
0.12774203 0.02720588 0
0.14816176 0.02328431 0
0.17824755 0.02034314 0
0.20539216 0.01936275 0
0.23267463 0.01544118 0
0.26001072 0.01486673 0
0.28863358 0.01151961 0
0.31835938 0.01151961 0
0.3497549 0.00770527 0
0.38823529 0.00392157 0
0.42328431 0.00367647 0
0.45833333 0.00011489 0
0.48970588 0 0
0.5245098 0 0
0.55425858 0 0
0.58014706 0 0
0.61413909 0 0
0.64227941 0 0
0.6754902 0 0
0.70759804 0 0
0.73872549 0 0
0.76985294 0 0
0.80098039 0 0
0.83210784 0 0
0.85931373 0 0
0.88835784 0 0
0.91764706 0 0
0.03688725 0.0682598 0.01176471
0.04974341 0.06593137 0.00943627
0.0603171 0.06433824 0.00784314
0.07769608 0.0620098 0.00551471
0.09522059 0.05808824 0.00392157
0.11507353 0.0564951 0.00392157
0.13608303 0.05416667 0.00392157
0.15784314 0.04979703 0
0.18667279 0.04632353 0
0.21472503 0.04240196 0
0.24118413 0.03848039 0
0.26923637 0.03652344 0
0.29756434 0.03296569 0
0.32781863 0.02882583 0
0.35943627 0.02381281 0
0.39791667 0.01727941 0
0.43216912 0.01335784 0
0.46642157 0.01181449 0
0.49914216 0.00784314 0
0.53259804 0.00407093 0
0.56285233 0.00159314 0
0.58590686 0 0
0.62133119 0 0
0.65085784 0 0
0.67981005 0 0
0.70804611 0 0
0.7379902 0 0
0.76727941 0 0
0.79705882 0 0
0.82818627 0 0
0.85757506 0 0
0.88651961 0 0
0.91372549 0 0
0.05833333 0.09754902 0.01960784
0.06778493 0.09705882 0.01911765
0.07769608 0.09316789 0.01590074
0.08737745 0.09313725 0.01519608
0.10533088 0.08921569 0.01176471
0.12291667 0.08529412 0.01127451
0.14436275 0.08250613 0.00784314
0.16752451 0.08026961 0.00735294
0.19767157 0.07487745 0.00392157
0.2247549 0.0727788 0.00343137
0.25196078 0.06724877 0
0.27916667 0.0622549 0
0.30814951 0.0596201 0
0.33794424 0.05436581 0
0.36911765 0.04828431 0
0.40759804 0.04204963 0
0.44264706 0.03651961 0
0.47426471 0.03088235 0
0.50882353 0.02303922 0
0.53999694 0.01911765 0
0.57107843 0.01158088 0
0.59558824 0.00784314 0
0.62974877 0.00392157 0
0.65785846 0.00343137 0
0.68688725 0 0
0.71544118 0 0
0.74264706 0 0
0.76985294 0 0
0.79705882 0 0
0.82446385 0 0
0.8551777 0 0
0.88282782 0 0
0.91029412 0 0
0.07585784 0.12818627 0.03664216
0.08553922 0.12563189 0.03272059
0.0928079 0.12426471 0.03272059
0.10330882 0.12034314 0.02879902
0.11490502 0.12034314 0.02487745
0.13299249 0.11642157 0.02264476
0.15722273 0.1125 0.0198606
0.17905561 0.10857843 0.01665518
0.20787377 0.10465686 0.01311275
0.23414139 0.10073529 0.00919118
0.26164216 0.09681373 0.00784314
0.28863741 0.09268153 0.00392157
0.317019 0.08812806 0.00134804
0.34951363 0.08112745 0
0.37879902 0.075 0
0.41593137 0.0692402 0
0.45098039 0.06151961 0
0.48345588 0.05375689 0
0.51603094 0.04728094 0
0.54828431 0.03823146 0
0.57683824 0.03125 0
0.60134804 0.02487745 0
0.63694087 0.01703431 0
0.66495098 0.01205959 0
0.69316789 0.00719975 0
0.72143459 0.00207184 0
0.75000766 0 0
0.7760072 0 0
0.80215993 0 0
0.82665824 0 0
0.85147059 0 0
0.88051471 0 0
0.90845588 0 0
0.1004902 0.16323529 0.05416667
0.10664062 0.1625 0.0502451
0.1129902 0.15931373 0.0502451
0.12242647 0.15857843 0.04632353
0.13259804 0.15539216 0.04240196
0.14571078 0.15147059 0.03848039
0.17034314 0.15073529 0.03455882
0.19080882 0.14644608 0.03063725
0.22101716 0.14307598 0.02671569
0.24734222 0.13827359 0.02209712
0.2752451 0.13285846 0.01668199
0.30195312 0.12794118 0.01176471
0.3299326 0.12356005 0.00784314
0.36145067 0.11617647 0.00392157
0.39240196 0.1118413 0.00350797
0.42769608 0.10428922 0
0.4620098 0.09620098 0
0.49397212 0.08872549 0
0.52679228 0.07916667 0
0.55642616 0.07303922 0
0.58697917 0.06127451 0
0.61102941 0.05343137 0
0.64535846 0.04217218 0
0.67349112 0.03398438 0
0.70238971 0.02279412 0
0.73059896 0.01605392 0
0.75759804 0.01102941 0
0.78505668 0.00501685 0
0.81151961 0 0
0.83559283 0 0
0.85837929 0 0
0.88051471 0 0
0.90588235 0 0
0.11593137 0.18872549 0.06495098
0.12377451 0.18872549 0.06495098
0.13137255 0.18762255 0.06120558
0.13946078 0.18480392 0.06058134
0.15073529 0.18383885 0.05710784
0.16433824 0.18088235 0.05318627
0.18186275 0.17696078 0.04926471
0.20159314 0.17585784 0.0442402
0.2323223 0.17009804 0.0375
0.25772059 0.16739813 0.03357843
0.28527114 0.16215533 0.02661612
0.31306296 0.15735294 0.02181373
0.3432598 0.15343137 0.01720282
0.37438725 0.14658778 0.01286765
0.40318627 0.1421492 0.00894608
0.44056373 0.13382353 0.00499004
0.47279412 0.12653186 0.00110294
0.5067402 0.11817172 0
0.53786765 0.11029412 0
0.5689951 0.10245098 0
0.59689032 0.08962929 0
0.62071078 0.08284314 0
0.65453431 0.06985294 0
0.68198146 0.05931373 0
0.70977328 0.04656863 0
0.7372549 0.03578431 0
0.76335784 0.02663143 0
0.79191176 0.01789216 0
0.81727941 0.00859375 0
0.84219899 0.00110294 0
0.86409314 0 0
0.88703661 0 0
0.90698529 0 0
0.1254902 0.22941176 0.08137255
0.12941176 0.2254902 0.07843137
0.1372549 0.2254902 0.07745098
0.14669118 0.2254902 0.07745098
0.16029412 0.22156863 0.07352941
0.17781863 0.2205576 0.06960784
0.19773284 0.21764706 0.06568627
0.21801471 0.21443015 0.0609375
0.24803922 0.21078431 0.05784314
0.27438725 0.20894608 0.05076593
0.2997549 0.20318627 0.04607843
0.3291973 0.19803922 0.0390625
0.35894608 0.19411765 0.03431373
0.39191176 0.19019608 0.02647059
0.42003676 0.18406863 0.02089461
0.45808824 0.17840074 0.01461397
0.48921569 0.17058824 0.00931373
0.52141544 0.16283701 0.00686275
0.55410539 0.15490196 0.00349265
0.58296569 0.14705882 0
0.61372549 0.13713235 0
0.63529412 0.12745098 0
0.66881127 0.1153799 0
0.69620098 0.10456495 0
0.72328431 0.09117647 0
0.75085784 0.07729779 0
0.77696078 0.06397059 0
0.80223652 0.04708946 0
0.82794118 0.03296569 0
0.85232843 0.0198223 0
0.8747549 0.01060049 0
0.89620098 0.00340074 0
0.91764706 0 0
0.12634804 0.26446078 0.09497549
0.13170573 0.26139706 0.09497549
0.14093137 0.26053922 0.09497549
0.15061275 0.26053922 0.09105392
0.16888787 0.25672488 0.08751532
0.19044118 0.25661765 0.08578431
0.21188725 0.25269608 0.08251379
0.23161765 0.25183441 0.07818627
0.26164216 0.24877451 0.07242647
0.28732001 0.24485294 0.06752451
0.31335784 0.24093137 0.06360294
0.3432598 0.2370098 0.0557598
0.37438725 0.23308824 0.04938725
0.40551471 0.22602252 0.04007353
0.43713235 0.22303922 0.03394608
0.47169118 0.21730622 0.02735524
0.50435049 0.20955882 0.02046569
0.53786765 0.20183824 0.01571308
0.56861979 0.19435509 0.01042433
0.59656863 0.18639706 0.00506664
0.62732843 0.17703738 0.00392157
0.65098039 0.17034314 0.00085784
0.68384651 0.15762102 0
0.71219746 0.14700138 0
0.73909314 0.13492647 0
0.76446078 0.12108226 0
0.79056373 0.10686275 0
0.81519608 0.08963312 0
0.84056373 0.07181373 0
0.8620098 0.05428922 0
0.88364737 0.03676471 0
0.90652956 0.0192402 0
0.92634804 0.00870098 0
0.12671569 0.30220588 0.10980392
0.1372549 0.30220588 0.10857843
0.14762561 0.2995098 0.10857843
0.16507353 0.2995098 0.1053845
0.18651961 0.29592525 0.10465686
0.20404412 0.29558824 0.10073529
0.22867647 0.29217218 0.09681373
0.24838388 0.291322 0.09377298
0.27622549 0.2877451 0.08897059
0.30186121 0.28382353 0.08504902
0.32965686 0.28074449 0.0792739
0.35686275 0.27598039 0.07328431
0.3879902 0.27205882 0.06691176
0.42303922 0.26802237 0.06115196
0.45073529 0.2620098 0.05298713
0.48913143 0.25633425 0.04571078
0.52034314 0.24987745 0.03602941
0.55147059 0.24342065 0.03014706
0.58259804 0.23622855 0.02230392
0.61372549 0.22781097 0.01593903
0.64093137 0.21884191 0.01130515
0.66544118 0.2120098 0.00784314
0.69803922 0.20108762 0.00392157
0.72647059 0.19029565 0.00058977
0.75367647 0.17965686 0
0.78088235 0.16605392 0
0.80735294 0.15245098 0
0.83179381 0.13884804 0
0.85431985 0.12098652 0
0.87634038 0.09987745 0
0.89713542 0.07843137 0
0.9185049 0.055553 0
0.9372549 0.03284314 0
0.14571078 0.34240196 0.12610294
0.15776271 0.34240196 0.12218137
0.16903339 0.33909314 0.12218137
0.18259804 0.33848039 0.12218137
0.20012255 0.33848039 0.1182598
0.22156863 0.33517157 0.11691176
0.24301471 0.33455882 0.11433824
0.2627451 0.33125 0.11041667
0.29231005 0.33063725 0.1064951
0.31863894 0.32671569 0.10171569
0.34448529 0.3229856 0.09473039
0.37438725 0.31887255 0.09080882
0.40551471 0.31518076 0.08443627
0.43664216 0.31102941 0.07867647
0.4682598 0.30524663 0.0689951
0.50281863 0.2998583 0.06323529
0.53560049 0.29368873 0.05551471
0.5684015 0.28751915 0.04767157
0.59806219 0.28000153 0.03982843
0.62732843 0.27187117 0.03235294
0.65660233 0.26272978 0.02659314
0.67904412 0.25612745 0.02022059
0.71286765 0.24478401 0.01507353
0.74007353 0.23393459 0.00917969
0.76727941 0.2239277 0.00701593
0.79448529 0.21078431 0.00392157
0.82095588 0.19780178 0
0.84632353 0.18357843 0
0.87169118 0.16936275 0
0.89313725 0.14987362 0
0.91458333 0.1307598 0
0.93210784 0.10563725 0
0.95355392 0.07634804 0
0.17352941 0.38137255 0.13578431
0.1807598 0.37990196 0.13578431
0.19044118 0.37745098 0.13578431
0.20344669 0.37745098 0.13333333
0.21979167 0.37745098 0.13186275
0.23909314 0.37513787 0.12890625
0.26007966 0.37352941 0.12794118
0.27916667 0.37311581 0.12401961
0.3067402 0.36960784 0.12009804
0.33304228 0.36568627 0.11617647
0.36078431 0.36467525 0.11056985
0.3915288 0.36153493 0.10565257
0.42303922 0.35784314 0.1004902
0.45416667 0.3537837 0.09397978
0.48578431 0.34917279 0.08734681
0.52034314 0.34215686 0.08088235
0.55147059 0.3375 0.075
0.58259804 0.33046875 0.06769301
0.61372549 0.325 0.06063113
0.64263174 0.31729473 0.05343137
0.67205882 0.30931373 0.04558824
0.69411765 0.30294118 0.0377451
0.72748162 0.29286152 0.03259804
0.75759804 0.28272059 0.02406556
0.78382353 0.27120098 0.01813725
0.80919118 0.25943627 0.01421569
0.83529412 0.24610907 0.00784314
0.8625 0.23223039 0.00476409
0.88547794 0.21648284 0.00245098
0.90906863 0.20110294 0
0.92981005 0.17965686 0
0.94963235 0.15821078 0
0.97107843 0.13284314 0
0.19252451 0.41642157 0.14901961
0.20036765 0.41642157 0.14901961
0.20855545 0.41642157 0.14546569
0.22178692 0.41642157 0.14546569
0.23909314 0.41286765 0.14509804
0.25661765 0.4125 0.14154412
0.27732843 0.4125 0.14117647
0.29387255 0.40884268 0.13751915
0.32389706 0.40857843 0.13370098
0.3502451 0.40465686 0.12977941
0.37830882 0.40221354 0.12585784
0.40882353 0.40073529 0.12101333
0.44056373 0.39681373 0.11542586
0.47169118 0.39289216 0.1101371
0.49938725 0.38913143 0.10404412
0.53394608 0.38504902 0.09840686
0.56685049 0.37935049 0.09074755
0.59976639 0.37376302 0.0831993
0.62732843 0.36936275 0.07879902
0.65845588 0.36222044 0.07132353
0.68566176 0.35626532 0.06556373
0.71017157 0.35012255 0.05919118
0.7439951 0.34105392 0.05134804
0.77120098 0.33137255 0.04464997
0.79840686 0.32169118 0.03860294
0.82671569 0.3120098 0.0317402
0.85281863 0.29840686 0.02389706
0.87745098 0.28480392 0.01740196
0.90281863 0.27120098 0.01213235
0.92426471 0.25367647 0.00821078
0.94573376 0.23592984 0.00426624
0.96715686 0.21470588 0.00036765
0.98860294 0.18933824 0
0.2122549 0.44803922 0.15906863
0.22113205 0.44803922 0.15906863
0.22794118 0.44803922 0.15746017
0.24060202 0.44803922 0.1564568
0.25490196 0.44803922 0.15514706
0.27242647 0.44632353 0.15343137
0.29313725 0.44411765 0.15122549
0.30968137 0.44411765 0.1488894
0.33970588 0.44074755 0.14558824
0.36605392 0.43982077 0.14166667
0.39411765 0.43627451 0.1377451
0.42463235 0.43455882 0.13161765
0.45637255 0.43235294 0.12662377
0.4875 0.42843137 0.12205882
0.51519608 0.42547488 0.11813725
0.5497549 0.42053462 0.11029412
0.58088235 0.41580882 0.10637255
0.6120098 0.41108303 0.09865196
0.64217218 0.40710784 0.09460784
0.67050398 0.40118719 0.08868719
0.70064338 0.39534314 0.08284314
0.72205882 0.39142157 0.07892157
0.75706189 0.38304228 0.07054228
0.78528646 0.37439491 0.06371783
0.81366422 0.365625 0.05704657
0.84142157 0.35674786 0.0497549
0.86821385 0.34615502 0.04330576
0.8932598 0.33480392 0.03578431
0.91862745 0.32254902 0.02794118
0.94138327 0.30633425 0.02169118
0.96383272 0.28970588 0.01617647
0.98296569 0.26734835 0.01108303
0.99828431 0.24289216 0.00612745
0.23553922 0.49044118 0.17254902
0.24331725 0.49044118 0.17254902
0.25110294 0.49044118 0.16875
0.26291743 0.49044118 0.16875
0.27806373 0.48664216 0.16862745
0.29178922 0.48651961 0.16482843
0.31311275 0.48651961 0.16470588
0.3317402 0.48545113 0.1608724
0.35894608 0.48259804 0.15698529
0.38532093 0.48259804 0.15306373
0.41335784 0.47867647 0.14914216
0.44448529 0.47808287 0.14522059
0.47561275 0.4747549 0.14129902
0.50637255 0.47083333 0.13736596
0.53223039 0.46862745 0.13125
0.56507353 0.46310892 0.12561275
0.59620098 0.46109069 0.12169118
0.62732843 0.45538833 0.11765089
0.65840227 0.45129442 0.11206342
0.68601792 0.44731541 0.1060049
0.71531863 0.44338235 0.10053615
0.73737745 0.43946078 0.0942402
0.77381281 0.43161765 0.09031863
0.80232843 0.42472809 0.08333333
0.82953431 0.41605392 0.07760417
0.85780867 0.40927926 0.07071078
0.88394608 0.40034467 0.06605392
0.91115196 0.38995098 0.05894608
0.93776042 0.38026961 0.05121017
0.95931373 0.36666667 0.0449257
0.98468137 0.35306373 0.03909314
1 0.33553922 0.0314951
1 0.31421569 0.02365196
0.26078431 0.5254902 0.18627451
0.26654412 0.5254902 0.18627451
0.27438725 0.5254902 0.18247549
0.28511029 0.5254902 0.18235294
0.29779412 0.5254902 0.18063725
0.31507353 0.5254902 0.17843137
0.33455882 0.52352941 0.17487745
0.35036765 0.52156863 0.17340686
0.37892157 0.52156863 0.16911765
0.40520833 0.51764706 0.16427696
0.43210784 0.51764706 0.16078431
0.4620098 0.51372549 0.15655637
0.49313725 0.51372549 0.15171569
0.52034314 0.50980392 0.14705882
0.5497549 0.50759804 0.1439951
0.58259804 0.50386029 0.13921569
0.61372549 0.50098039 0.13529412
0.64105392 0.49803922 0.13137255
0.67205882 0.4932598 0.12463235
0.70140931 0.48841912 0.11979167
0.73039216 0.48357843 0.11568627
0.75294118 0.48039216 0.11176471
0.78811275 0.47389706 0.10392157
0.81593137 0.46709559 0.1
0.84460784 0.4622549 0.09509804
0.87144608 0.45490196 0.08823529
0.89914216 0.44669118 0.08394608
0.92610294 0.43792892 0.07647059
0.95147059 0.42916667 0.07230392
0.97604167 0.41844363 0.06550245
0.99632353 0.40563725 0.06053922
1 0.39203431 0.05294118
1 0.3745098 0.04509804
0.28223039 0.56446078 0.19987745
0.29000843 0.56446078 0.19987745
0.29767157 0.56446078 0.19987745
0.30735294 0.56279488 0.19602865
0.32095588 0.56053922 0.19595588
0.33455882 0.56053922 0.19211474
0.35598192 0.56053922 0.19203431
0.37181373 0.56050475 0.18811275
0.40174632 0.55661765 0.18419118
0.42512255 0.55661765 0.17943857
0.45351563 0.55388327 0.17365196
0.48273974 0.55269608 0.1685049
0.51066176 0.55019914 0.16458333
0.53786765 0.54877451 0.16030561
0.56556373 0.54485294 0.15460325
0.6 0.54093137 0.14901961
0.62738971 0.53890931 0.14509804
0.65845588 0.5370098 0.14117647
0.6857307 0.53303462 0.13720129
0.71678922 0.52916667 0.13322227
0.7439951 0.52519914 0.12928922
0.7685049 0.52132353 0.12536765
0.80232843 0.51348039 0.11760876
0.82956112 0.50955882 0.11362975
0.85683211 0.50456495 0.10968137
0.8851371 0.49770604 0.1057598
0.91433824 0.489928 0.09801624
0.93970588 0.48341376 0.09403722
0.96508885 0.47424939 0.08959865
0.99044118 0.46404335 0.08382353
1 0.45429688 0.07830882
1 0.44075138 0.07230392
1 0.42708333 0.06654412
0.30931373 0.5995098 0.21348039
0.31544118 0.5995098 0.21348039
0.32314645 0.5995098 0.21348039
0.33182445 0.5995098 0.21086857
0.34411765 0.5995098 0.20955882
0.35992647 0.59558824 0.20708487
0.37884498 0.59558824 0.20563725
0.39656097 0.59558824 0.20171569
0.42371324 0.59558824 0.19779412
0.44790901 0.59166667 0.19387255
0.47377451 0.59166667 0.18995098
0.50098039 0.5877451 0.18541667
0.52818627 0.5877451 0.17901348
0.55539216 0.58382353 0.17426471
0.58308824 0.58382353 0.16813725
0.61372549 0.57990196 0.16237745
0.64485294 0.57598039 0.1557598
0.67212776 0.57218137 0.15080423
0.70050551 0.57109375 0.14681373
0.73039216 0.56813725 0.14309896
0.75759804 0.56338848 0.13897059
0.78210784 0.56029412 0.1372549
0.81539522 0.55363051 0.13112745
0.84361979 0.54890472 0.1258655
0.87199755 0.54460784 0.12101716
0.89865196 0.5391008 0.11606158
0.92654718 0.53242953 0.11331189
0.95271906 0.52558977 0.10835631
0.97867647 0.51715686 0.10367647
0.99910386 0.50800398 0.0997549
1 0.49915748 0.09558824
1 0.48762255 0.08982843
1 0.47401961 0.08406863
0.33651961 0.63455882 0.22708333
0.34247472 0.63455882 0.22708333
0.34862898 0.63455882 0.22708333
0.35793888 0.63455882 0.22352941
0.37136949 0.63455882 0.22316176
0.38529412 0.63063725 0.2219401
0.40281863 0.63063725 0.2192402
0.42118183 0.63063725 0.21531863
0.44571078 0.63063725 0.21139706
0.47079121 0.62671569 0.20747549
0.49522059 0.62671569 0.20355392
0.52150352 0.62610294 0.19963235
0.54718137 0.62279412 0.19571078
0.57647059 0.62242647 0.18820083
0.60061275 0.61887255 0.18410692
0.63125 0.61495098 0.1764591
0.65863971 0.61495098 0.17218137
0.68614047 0.61102941 0.16446078
0.71523438 0.60710784 0.16041667
0.7439951 0.60351945 0.15294118
0.77120098 0.60148591 0.14888174
0.79571078 0.59926471 0.14509804
0.82953431 0.59386489 0.14106158
0.85682062 0.5875 0.13696768
0.88422181 0.58357843 0.13296569
0.9122549 0.57939262 0.12904412
0.93865656 0.57181373 0.12512255
0.9656901 0.56765089 0.12120098
0.98872549 0.56000306 0.11727941
1 0.55198759 0.11335784
1 0.54377298 0.10943627
1 0.53240273 0.10551471
1 0.52046569 0.10159314
0.36617647 0.66960784 0.24068627
0.37156863 0.66813725 0.24068627
0.37778799 0.66813725 0.2393076
0.3872549 0.66568627 0.23676471
0.39852941 0.66568627 0.23676471
0.41213235 0.66568627 0.23445159
0.42965686 0.66568627 0.23284314
0.44505208 0.66568627 0.22892157
0.46862745 0.66237745 0.225
0.49252451 0.66176471 0.22107843
0.51498162 0.66176471 0.21792279
0.53995098 0.65784314 0.21323529
0.56715686 0.65784314 0.20931373
0.5939951 0.65614277 0.20502451
0.61593137 0.65392157 0.19926471
0.64865196 0.65 0.19362745
0.6752451 0.65 0.18970588
0.70318627 0.64607843 0.18198529
0.73039216 0.64298407 0.17794118
0.75759804 0.64215686 0.17046569
0.78633578 0.63823529 0.16470588
0.80931373 0.63431373 0.15833333
0.8426777 0.63039216 0.15150123
0.87034314 0.62647059 0.14656863
0.89754902 0.62254902 0.14227941
0.92544424 0.61862745 0.1376685
0.95196078 0.61197917 0.13452819
0.97820159 0.60686275 0.13088235
1 0.59901961 0.12696078
1 0.59276961 0.12403493
1 0.58471201 0.12141544
1 0.57418811 0.1183364
1 0.56372549 0.11519608
0.39215686 0.69411765 0.25098039
0.39607843 0.69411765 0.25098039
0.4 0.69411765 0.25098039
0.40943627 0.69411765 0.24705882
0.41960784 0.69411765 0.24705882
0.43664216 0.69411765 0.24571078
0.4502451 0.69093137 0.24313725
0.46495098 0.69019608 0.23921569
0.48921569 0.69019608 0.23627451
0.51066176 0.69019608 0.23443627
0.53210784 0.68627451 0.23137255
0.55747549 0.68627451 0.22683824
0.58137255 0.68627451 0.22107843
0.60821078 0.68235294 0.21568627
0.63014706 0.68235294 0.21176471
0.65906863 0.67843137 0.20772059
0.68823529 0.67843137 0.20196078
0.71360294 0.6745098 0.19607843
0.74289216 0.67058824 0.19044118
0.7682598 0.67058824 0.18431373
0.79754902 0.66666667 0.17892157
0.81960784 0.6627451 0.17254902
0.85343137 0.65882353 0.16740196
0.88063725 0.6557598 0.16078431
0.90784314 0.65098039 0.15294118
0.93615196 0.64705882 0.14620098
0.9622549 0.64313725 0.14117647
0.98688725 0.63921569 0.1372549
1 0.63137255 0.13333333
1 0.62512255 0.13333333
1 0.61936275 0.12941176
1 0.60968137 0.1254902
1 0.6 0.1254902
0.42598039 0.73186275 0.26397059
0.43317249 0.73186275 0.26397059
0.4376685 0.73186275 0.26397059
0.4448606 0.73136489 0.2627451
0.45579044 0.73063725 0.26004902
0.46654412 0.73063725 0.25962776
0.48284314 0.72794118 0.25612745
0.49485294 0.72794118 0.25578278
0.51789216 0.72794118 0.25220588
0.53664216 0.7276731 0.24828431
0.55770527 0.72486213 0.24436275
0.58223039 0.72401961 0.24044118
0.60612745 0.72401961 0.23651961
0.62941176 0.72009804 0.23259804
0.65269608 0.72009804 0.22867647
0.67990196 0.7187883 0.22463235
0.70710784 0.71617647 0.2182598
0.73431373 0.71495098 0.2129902
0.75980392 0.7122549 0.20906863
0.78761489 0.70833333 0.20159314
0.81446078 0.70787377 0.19730392
0.83651961 0.70441176 0.19338235
0.86996017 0.7004902 0.18553922
0.89754902 0.69715839 0.17855392
0.92444853 0.69466912 0.17377451
0.95107996 0.68982843 0.16703431
0.97743566 0.68480392 0.1620098
0.99865196 0.68088235 0.15551471
1 0.67696078 0.1502451
1 0.67071078 0.14632353
1 0.66502757 0.13848039
1 0.65735294 0.13455882
1 0.64681373 0.13333333
0.45710784 0.75992647 0.2745098
0.46143153 0.75992647 0.2745098
0.46868107 0.75992647 0.2745098
0.4748966 0.75992647 0.27365196
0.48417586 0.75917586 0.27365196
0.49431296 0.75906863 0.27029335
0.50821078 0.75906863 0.26973039
0.52205882 0.75906863 0.2664254
0.54163603 0.75906863 0.26351103
0.56078431 0.7560049 0.26188725
0.58041513 0.75514706 0.25796569
0.60295267 0.75514706 0.25404412
0.62512255 0.75208333 0.25012255
0.6504902 0.75122549 0.24620098
0.67194393 0.75122549 0.24265472
0.69742647 0.74813496 0.23835784
0.72310049 0.74730392 0.23290441
0.74803922 0.74433594 0.22671569
0.77512255 0.74338235 0.22267157
0.80232843 0.74060585 0.21875
0.82838542 0.73946078 0.21335784
0.85012255 0.73639706 0.20698529
0.88298866 0.7345818 0.20210631
0.91115196 0.73161765 0.19607843
0.93737745 0.72769608 0.19129902
0.9627451 0.72377451 0.18455882
0.98827359 0.71985294 0.17953431
1 0.71593137 0.17561275
1 0.7120098 0.16776961
1 0.70808824 0.16384804
1 0.7002451 0.15968137
1 0.6942402 0.15208333
1 0.68455882 0.14816176
0.4872549 0.78921569 0.2872549
0.49163603 0.78921569 0.2872549
0.49601716 0.78921569 0.28627451
0.50333946 0.78921569 0.28507966
0.51041667 0.78921569 0.28333333
0.52095588 0.78921569 0.28299632
0.53376225 0.78627451 0.27941176
0.54745711 0.78627451 0.27913603
0.56470588 0.78627451 0.2754902
0.58321078 0.78529412 0.27386642
0.60367647 0.78529412 0.27089461
0.62512255 0.78235294 0.26749387
0.64546569 0.78235294 0.26372549
0.66801471 0.78137255 0.25980392
0.68995098 0.77971814 0.25588235
0.71495098 0.77843137 0.25193015
0.74019608 0.77745098 0.24754902
0.76544118 0.7745098 0.24316789
0.79093137 0.77352941 0.23792892
0.81629902 0.77058824 0.23235294
0.84313725 0.77022059 0.22806373
0.86372549 0.76666667 0.2245098
0.89632353 0.76476716 0.21666667
0.92398897 0.7627451 0.2127451
0.9502451 0.75882353 0.20710784
0.9752451 0.75572917 0.20098039
0.99761029 0.7533701 0.19705882
1 0.75033701 0.19313725
1 0.74656863 0.18529412
1 0.74080882 0.18137255
1 0.73529412 0.17745098
1 0.72928922 0.17352941
1 0.72352941 0.16568627
0.51544118 0.81740196 0.29803922
0.51936275 0.81740196 0.29803922
0.52431832 0.81740196 0.29693627
0.53112745 0.81740196 0.29693627
0.53861826 0.81458333 0.29693627
0.54816176 0.81458333 0.29411765
0.55947457 0.81458333 0.29301471
0.57175628 0.81458333 0.29019608
0.59007353 0.81348039 0.28909314
0.60673637 0.81348039 0.28517157
0.62512255 0.81348039 0.28159467
0.64546569 0.81066176 0.28080959
0.66409314 0.80997243 0.27732843
0.68590686 0.80955882 0.27340686
0.70747549 0.80955882 0.26948529
0.73235294 0.8067402 0.26556373
