Kodak Converted/Kodak Portra 400 ++.cube
# Exported with LUT Lab 1.2.1
# LUTLab.com
TITLE Kodak Portra 400 4 ++
LUT_3D_SIZE 9
0.0745098 0.07843137 0.05882353
0.11323529 0.08235294 0.0622549
0.22647059 0.07843137 0.05588235
0.40735294 0.03676471 0.04313725
0.62941176 0 0.01372549
0.80931373 0 0
0.92352941 0.03627451 0
1 0.17696078 0
1 0.2627451 0
0.06323529 0.11323529 0.06617647
0.09846814 0.12199755 0.05931373
0.22585784 0.13370098 0.04705882
0.40863971 0.13020833 0.02922794
0.62352941 0.10661765 0
0.80294118 0.11519608 0
0.91862745 0.17647059 0
1 0.25006127 0
1 0.3127451 0
0 0.20588235 0.07843137
0.06360294 0.19803922 0.08529412
0.17230392 0.22647059 0.05490196
0.39411765 0.2682598 0
0.61911765 0.2754902 0
0.78541667 0.2932598 0
0.90294118 0.32426471 0
0.99276961 0.36286765 0
1 0.40196078 0
0 0.33578431 0.09558824
0 0.32892157 0.1096201
0.10833333 0.33762255 0.09803922
0.31954657 0.38621324 0.01807598
0.57720588 0.43946078 0
0.75196078 0.45196078 0
0.87585784 0.46593137 0
0.97322304 0.48480392 0
1 0.50441176 0
0 0.48235294 0.12352941
0 0.47303922 0.13357843
0 0.45196078 0.15147059
0.24534314 0.48823529 0.10612745
0.47941176 0.53431373 0
0.70612745 0.58235294 0
0.8372549 0.59215686 0
0.94607843 0.59215686 0
1 0.6 0
0 0.60294118 0.17401961
0 0.60147059 0.18578431
0 0.58002451 0.2
0.21966912 0.58394608 0.19417892
0.42352941 0.61593137 0.14730392
0.62647059 0.65091912 0.02401961
0.80257353 0.68872549 0
0.91813725 0.69705882 0
1 0.69705882 0
0 0.71568627 0.26960784
0 0.71176471 0.27389706
0.11911765 0.7 0.28357843
0.28382353 0.67892157 0.29889706
0.43676471 0.70147059 0.27696078
0.59117647 0.72647059 0.24068627
0.73627451 0.74779412 0.17328431
0.89117647 0.78541667 0.01348039
1 0.79019608 0
0.26862745 0.81617647 0.42058824
0.2995098 0.8127451 0.425
0.35735294 0.80588235 0.43014706
0.43431373 0.79656863 0.44411765
0.5125 0.79485294 0.44656863
0.61109069 0.81617647 0.43265931
0.7182598 0.83578431 0.40539216
0.83578431 0.85588235 0.35833333
0.97990196 0.88676471 0.29215686
0.54509804 0.9372549 0.64313725
0.55294118 0.93333333 0.64313725
0.58039216 0.93039216 0.65196078
0.61960784 0.92941176 0.66666667
0.66862745 0.92156863 0.68627451
0.71127451 0.93480392 0.67990196
0.77254902 0.94901961 0.67352941
0.84803922 0.96127451 0.65882353
0.94117647 0.97647059 0.63529412
0.0745098 0.08235294 0.10931373
0.12843137 0.07843137 0.11709559
0.23713235 0.0627451 0.11703431
0.42040441 0 0.10667892
0.63553922 0 0.10147059
0.81078431 0 0.07745098
0.92610294 0 0.03933824
1 0.15 0
1 0.24754902 0
0.04754902 0.13284314 0.11366422
0.1129136 0.13327206 0.11629136
0.23648897 0.13563113 0.11289828
0.42119332 0.12311581 0.10536918
0.63547794 0.0833027 0.08943015
0.80686275 0.08591452 0.0598652
0.91920956 0.15358456 0.00654105
1 0.23137255 0
1 0.29803922 0
0.00281863 0.24362745 0.13884804
0.08616728 0.22892157 0.13262868
0.19433211 0.24139093 0.1203125
0.41605392 0.26862745 0.08187806
0.62959559 0.27156863 0.03719363
0.79117647 0.28488051 0
0.90370711 0.31632966 0
0.99656863 0.35505515 0
1 0.3932598 0
0 0.37089461 0.14197304
0 0.36161918 0.15245098
0.14283088 0.35384498 0.15588235
0.33945312 0.39834559 0.11040901
0.59068627 0.44280025 0
0.75899969 0.44748775 0
0.87950368 0.46314338 0
0.97504596 0.48125766 0
1 0.49901961 0
0 0.50759804 0.17009804
0 0.49978554 0.17818627
0.06354167 0.47040441 0.19583333
0.26697304 0.49745711 0.16966912
0.4939951 0.54203431 0.0997549
0.70965074 0.58431373 0
0.83946078 0.59025735 0
0.9497549 0.58844975 0
1 0.59632353 0
0 0.62077206 0.21881127
0 0.61497396 0.22780331
0 0.59607843 0.23685662
0.24685968 0.59031863 0.24048713
0.4341299 0.62000613 0.20367647
0.63192402 0.65533854 0.13946078
0.80556066 0.69166667 0
0.920481 0.69762561 0
1 0.6939951 0
0 0.72058824 0.30098039
0 0.71960784 0.30752145
0.1671875 0.70762868 0.31534926
0.30580576 0.68481924 0.32648591
0.44613971 0.70367647 0.3122549
0.5935815 0.72503064 0.28109681
0.7385723 0.75098039 0.23054534
0.89117647 0.78509498 0.14715074
1 0.79289216 0
0.28039216 0.82015931 0.43976716
0.3120864 0.81704197 0.44417126
0.36890319 0.81167279 0.45121017
0.44244792 0.80035233 0.46356464
0.51988358 0.79659926 0.4674326
0.6115579 0.81387102 0.45226716
0.7185815 0.83578431 0.42864583
0.83578431 0.85625766 0.38884038
0.97689951 0.88676471 0.33088235
0.54509804 0.9372549 0.64705882
0.55637255 0.93682598 0.65055147
0.57953431 0.93333333 0.65796569
0.61991422 0.92726716 0.67089461
0.66862745 0.9252451 0.69019608
0.71390931 0.93382353 0.68658088
0.77316176 0.94865196 0.6810049
0.84803922 0.96127451 0.66366422
0.94117647 0.97303922 0.64313725
0.04803922 0.08627451 0.22941176
0.12585784 0.07843137 0.24117647
0.28333333 0.04730392 0.26764706
0.44938725 0 0.275
0.66862745 0 0.27156863
0.8310049 0 0.24166667
0.93357843 0 0.2372549
1 0.12647059 0.22438725
1 0.23823529 0.20392157
0.02892157 0.14448529 0.2189951
0.11061581 0.14186581 0.23800551
0.27671569 0.13685662 0.26403186
0.45409007 0.09906556 0.27000613
0.66838235 0 0.25612745
0.82553615 0 0.23419118
0.92671569 0.12662377 0.23235294
1 0.2157935 0.21542586
1 0.2935049 0.2
0 0.26397059 0.24803922
0.02772672 0.26764706 0.24837623
0.24411765 0.27230392 0.25343137
0.4504902 0.27199755 0.2481924
0.65441176 0.26764706 0.23823529
0.80321691 0.27696078 0.22405025
0.91158088 0.30710784 0.20863971
0.99996936 0.34669118 0.18854167
1 0.38602941 0.17230392
0 0.44129902 0.27610294
0 0.43751532 0.28115809
0.21323529 0.40591299 0.27218137
0.38638174 0.42726716 0.25569853
0.61746324 0.44693627 0.20876225
0.77225797 0.44480699 0.17323836
0.88385417 0.45759804 0.15667892
0.97818627 0.47666973 0.13964461
1 0.49546569 0.12205882
0 0.56568627 0.30490196
0 0.55741422 0.29142157
0.16176471 0.52781863 0.29215686
0.32193627 0.51752451 0.290625
0.525 0.55857843 0.25661765
0.721875 0.58982843 0.20061275
0.84791667 0.58958333 0.12279412
0.95410539 0.58756127 0.01599265
1 0.59264706 0
0 0.65539216 0.31323529
0 0.65186887 0.32169118
0.15965074 0.63238358 0.32781863
0.31104473 0.60101103 0.33543199
0.46476716 0.63057598 0.31427696
0.64318321 0.66145833 0.27965686
0.80925245 0.69512868 0.22708333
0.92213542 0.69535846 0.13921569
1 0.69105392 0
0 0.73921569 0.37843137
0.10836397 0.73566176 0.38137255
0.24607843 0.72573529 0.38468137
0.35609681 0.70459559 0.39261642
0.46568627 0.70416667 0.38676471
0.60266544 0.72901348 0.36786152
0.74307598 0.75465686 0.33560049
0.89203431 0.78624387 0.29163603
1 0.79019608 0.22107843
0.30870098 0.82928922 0.48333333
0.33866422 0.82794118 0.48981311
0.39215686 0.82040441 0.49371936
0.45833333 0.80833333 0.49924939
0.52996324 0.79534314 0.50980392
0.61839767 0.81622243 0.50078125
0.71853554 0.83615196 0.4814951
0.83546262 0.8567402 0.44829963
0.97904412 0.88676471 0.41176471
0.54509804 0.94117647 0.65882353
0.55392157 0.93823529 0.6627451
0.58039216 0.93504902 0.66985294
0.62144608 0.93272059 0.68235294
0.67254902 0.92696078 0.70147059
0.71911765 0.93333333 0.70196078
0.77377451 0.94534314 0.69436275
0.84803922 0.96115196 0.68272059
0.94117647 0.97647059 0.66568627
0 0.09019608 0.40343137
0.10281863 0.08265931 0.42126225
0.31973039 0.03088235 0.4627451
0.54705882 0 0.49754902
0.68897059 0 0.48529412
0.84515931 0 0.49270833
0.94387255 0 0.45735294
1 0 0.42273284
1 0.17892157 0.39852941
0 0.15098039 0.39558824
0.08106618 0.15112592 0.41488971
0.30445772 0.14091605 0.45200674
0.53940717 0.0805913 0.49270833
0.69215686 0 0.48651961
0.83842678 0 0.48291207
0.93828125 0.00418199 0.44866728
1 0.15479473 0.4189568
1 0.31599265 0.42941176
0 0.26433824 0.36973039
0 0.26946998 0.3846201
0.25266544 0.2799326 0.43299632
0.52063419 0.29048713 0.48495711
0.68265931 0.26991422 0.48186275
0.82083333 0.2707261 0.45948223
0.92034314 0.2955576 0.43106618
0.99656863 0.37994792 0.4364277
1 0.41752451 0.42683824
0 0.45496324 0.43927696
0 0.46285233 0.44571078
0.20585172 0.46700368 0.45039828
0.45819547 0.46996017 0.45519301
0.64313725 0.46418505 0.44261642
0.77883732 0.46686581 0.43065257
0.88480392 0.47838542 0.41911765
0.9756204 0.49069393 0.40716912
1 0.50686275 0.39803922
0 0.63382353 0.47598039
0 0.63091299 0.4776348
0.28535539 0.61078431 0.47242647
0.42772672 0.5703125 0.45410539
0.56985294 0.58553922 0.44203431
0.7375 0.59972426 0.40811887
0.85606618 0.58823529 0.36942402
0.95431985 0.59126838 0.35931373
1 0.59656863 0.35294118
0.20735294 0.70012255 0.49810049
0.28860294 0.69815411 0.50372243
0.33293505 0.68520221 0.48131127
0.41393229 0.65545343 0.46487439
0.5129902 0.64537377 0.45857843
0.66329657 0.67598039 0.4435432
0.81426164 0.70056679 0.41323529
0.925 0.69295343 0.35654871
1 0.68382353 0.28731618
0.28762255 0.76629902 0.5127451
0.30284926 0.76453738 0.50802696
0.33403799 0.7544424 0.49105392
0.42503064 0.73506434 0.49183517
0.50238971 0.7098652 0.48933824
0.61660539 0.73468137 0.47942708
0.74705882 0.76053922 0.4635723
0.89214154 0.78760723 0.43854167
1 0.79019608 0.38823529
0.35226716 0.84393382 0.55177696
0.37603401 0.84382659 0.55422028
0.42297794 0.83668811 0.55625
0.48529412 0.82328431 0.55853248
0.55162377 0.80545343 0.56550245
0.62677696 0.81483609 0.56276042
0.7212163 0.8361826 0.5515625
0.83627451 0.85935202 0.53239124
0.97775735 0.88676471 0.5127451
0.54117647 0.94509804 0.68088235
0.55441176 0.94656863 0.68596814
0.57977941 0.9439951 0.69019608
0.62205882 0.94117647 0.7004902
0.67254902 0.93333333 0.71495098
0.7245098 0.93180147 0.72941176
0.78137255 0.94901961 0.72340686
0.85539216 0.96452206 0.71354167
0.94362745 0.975 0.69656863
0 0.09607843 0.58039216
0.10171569 0.08627451 0.59387255
0.34117647 0.03480392 0.62107843
0.59411765 0 0.66323529
0.77156863 0 0.69019608
0.84534314 0 0.65882353
0.94411765 0 0.65686275
1 0.0875 0.63308824
1 0.2372549 0.60784314
0 0.16421569 0.57303922
0.07061887 0.16032475 0.58627451
0.32604167 0.14901961 0.61482843
0.58308824 0.10064338 0.65931373
0.76286765 0.04497549 0.68602941
0.83946078 0.05490196 0.65686275
0.93872549 0.1276348 0.65533088
1 0.21893382 0.6291973
1 0.30539216 0.60612745
0 0.28382353 0.55245098
0 0.28008578 0.57040441
0.27781863 0.28970588 0.59938725
0.54436275 0.30435049 0.64270833
0.7372549 0.32058824 0.67426471
0.82144608 0.31813725 0.65042892
0.91764706 0.34117647 0.64583333
1 0.37481618 0.62015931
1 0.41715686 0.60245098
0 0.42058824 0.53848039
0 0.42769608 0.54387255
0.19675245 0.43455882 0.54699755
0.46617647 0.46663603 0.60591299
0.68615196 0.50232843 0.6497549
0.7879902 0.49825368 0.64041054
0.88633578 0.503125 0.62573529
0.9739277 0.51151961 0.60530025
1 0.53872549 0.60245098
0 0.62058824 0.60588235
0 0.62181373 0.60784314
0.23137255 0.62058824 0.60857843
0.45870098 0.62156863 0.61176471
0.62401961 0.62303922 0.61617647
0.74767157 0.61862745 0.60882353
0.85122549 0.61568627 0.59828431
0.94669118 0.61654412 0.58713235
1 0.61764706 0.57647059
0.02573529 0.75171569 0.63529412
0.21553309 0.75 0.63783701
0.37156863 0.7401348 0.63137255
0.51470588 0.72153799 0.62717525
0.59105392 0.68541667 0.60392157
0.68998162 0.69632353 0.59681373
0.82034314 0.70612745 0.57279412
0.93014706 0.68927696 0.53143382
1 0.69044118 0.52867647
0.375 0.80490196 0.63823529
0.41066176 0.80294118 0.64019608
0.47659314 0.79289216 0.64129902
0.52886029 0.77708333 0.62634804
0.56936275 0.74926471 0.60196078
0.63976716 0.74093137 0.59479167
0.75992647 0.77022059 0.59203431
0.89436275 0.79295343 0.57181373
1 0.78578431 0.53039216
0.49068627 0.86544118 0.67083333
0.49803922 0.86541054 0.66758578
0.50606618 0.86121324 0.65747549
0.52107843 0.8495098 0.63563113
0.58259804 0.8310049 0.63468137
0.6408701 0.81243873 0.63318015
0.7283701 0.83780637 0.63137255
0.84191176 0.8620098 0.62034314
0.97990196 0.89068627 0.6120098
0.56470588 0.95686275 0.7254902
0.57058824 0.95686275 0.72745098
0.58088235 0.95343137 0.72058824
0.61813725 0.9502451 0.72671569
0.67156863 0.94313725 0.7372549
0.73088235 0.93578431 0.75612745
0.78529412 0.94607843 0.75686275
0.85906863 0.96446078 0.75073529
0.94509804 0.97647059 0.73529412
0.05686275 0.10980392 0.7127451
0.20588235 0.09981618 0.72058824
0.39068627 0.06188725 0.73590686
0.59613971 0 0.76133578
0.77892157 0 0.78970588
0.88921569 0.02107843 0.80147059
0.93713235 0.11433824 0.77009804
1 0.21176471 0.76011029
1 0.30490196 0.75196078
0.00459559 0.17941176 0.70735294
0.19352788 0.17614124 0.71838235
0.38155637 0.16668199 0.73293505
0.58626685 0.1491345 0.75678615
0.76905637 0.17230392 0.78685662
0.88101256 0.21452972 0.79766391
0.93230699 0.24068627 0.76937806
1 0.29529718 0.76008732
1 0.36176471 0.74803922
0 0.29117647 0.69644608
0.09829963 0.29607843 0.70356924
0.33967525 0.30291054 0.71893382
0.55507047 0.31793811 0.74379596
0.73805147 0.36029412 0.77432598
0.85453431 0.39613971 0.78786765
0.91344975 0.40245098 0.76547181
0.99656863 0.42682292 0.75833333
1 0.46090686 0.74558824
0 0.42751225 0.65055147
0 0.43608303 0.66457567
0.26933211 0.45070466 0.6879136
0.49172794 0.46787684 0.716322
0.68802083 0.51421569 0.75196078
0.818053 0.55 0.77610294
0.88370098 0.54385723 0.75611213
0.97231158 0.55238971 0.7564951
1 0.56623775 0.74227941
0 0.575 0.66740196
0 0.57466299 0.66712623
0.2161152 0.57518382 0.66770833
0.41099877 0.57423407 0.66663603
0.62058824 0.61372549 0.71691176
0.77895221 0.6551777 0.7575674
0.85998775 0.6497549 0.75067402
0.94859069 0.64583333 0.74010417
1 0.64656863 0.72647059
0.0254902 0.72359069 0.71666667
0.19946385 0.72683824 0.71907169
0.34525123 0.72552083 0.71976103
0.4872549 0.7254902 0.72234988
0.61691176 0.72377451 0.72349877
0.73235294 0.72785692 0.72973346
0.83125 0.72437194 0.72303922
0.92598039 0.7205193 0.71519608
1 0.72003676 0.70974265
0.33602941 0.84840686 0.75257353
0.37935049 0.84643076 0.75257353
0.45395221 0.84129902 0.75030637
0.54770221 0.82815564 0.7426011
0.64197304 0.80686275 0.73345588
0.69774816 0.77314645 0.71150429
0.77999387 0.78694853 0.70882353
0.90052083 0.7946538 0.69054841
1 0.78137255 0.65955882
0.47107843 0.89981618 0.74834559
0.49095435 0.89851409 0.74836857
0.53477328 0.89431679 0.7498315
0.59412531 0.8841299 0.74737286
0.6466299 0.86844363 0.73771446
0.67971048 0.84282322 0.71519608
0.74252451 0.84007353 0.71132047
0.85149357 0.86717984 0.71102941
0.98167892 0.88854167 0.70177696
0.58823529 0.97254902 0.78970588
0.59852941 0.96862745 0.78970588
0.62745098 0.96678922 0.79362745
0.65300245 0.9622549 0.7872549
0.67598039 0.95833333 0.77794118
0.73425245 0.94993873 0.78670343
0.79644608 0.94546569 0.80147059
0.86323529 0.96311275 0.79577206
0.95294118 0.97647059 0.78578431
0.27647059 0.14607843 0.81764706
0.34142157 0.14129902 0.82071078
0.46470588 0.12647059 0.83063725
0.6127451 0.11470588 0.84203431
0.75637255 0.14705882 0.86029412
0.88210784 0.24485294 0.88051471
0.96887255 0.30098039 0.88651961
1 0.32389706 0.8567402
1 0.38627451 0.84509804
0.25821078 0.21090686 0.8127451
0.33270527 0.21138174 0.81977635
0.45496324 0.20698529 0.8252451
0.60759804 0.21144301 0.83950674
0.74852941 0.24834559 0.85845588
0.8745098 0.33002451 0.87887561
0.95842525 0.37068015 0.88296569
1 0.3810049 0.85294118
1 0.4310049 0.84681373
0.20367647 0.32034314 0.80171569
0.28609069 0.32506127 0.80670956
0.425 0.33137255 0.81427696
0.58164828 0.34917279 0.83054534
0.72598039 0.39215686 0.84987745
0.85128676 0.4596201 0.87224265
0.94099265 0.48915441 0.87824755
0.98596814 0.48556985 0.85186887
1 0.51397059 0.84705882
0.07058824 0.45563725 0.77536765
0.19961703 0.45779718 0.78377757
0.35015319 0.45652574 0.79378064
0.53316483 0.48094363 0.81035539
0.68523284 0.521875 0.83253676
0.81835172 0.57823223 0.8578125
0.91470588 0.60208333 0.87022059
0.96643689 0.59189645 0.84643076
1 0.60245098 0.84522059
0 0.55490196 0.72941176
0 0.55882353 0.73627451
0.23345588 0.56629902 0.75196078
0.45343137 0.58247549 0.77598039
0.63088235 0.6127451 0.80637255
0.78198529 0.66348039 0.8403799
0.89044118 0.68835784 0.85992647
0.94908088 0.67892157 0.84460784
1 0.68186275 0.84558824
0 0.68492647 0.76678922
0.12598039 0.68439032 0.76678922
0.28091299 0.68403799 0.76632966
0.41862745 0.67928922 0.76438419
0.54754902 0.67444853 0.75876225
0.72643995 0.71919424 0.80974265
0.86571691 0.76194853 0.85003064
0.93386949 0.75441176 0.84064032
0.99963235 0.75110294 0.83627451
0.30294118 0.81053922 0.80980392
0.34595588 0.81204044 0.81213235
0.42058824 0.8127451 0.81329657
0.51568627 0.80989583 0.81179534
0.61776961 0.81017157 0.81409314
0.72147672 0.81363358 0.81709559
0.8245098 0.82058824 0.8245098
0.91228554 0.81400123 0.81752451
1 0.81372549 0.81372549
0.45147059 0.93382353 0.84803922
0.47257966 0.93103554 0.8462163
0.51697304 0.93011642 0.84598652
0.582981 0.92562806 0.84388787
0.6629902 0.91464461 0.83897059
0.74168199 0.89719669 0.82954963
0.78541667 0.86259191 0.80435049
0.87113971 0.87892157 0.80502451
0.98811275 0.88811275 0.7935049
0.54411765 0.98823529 0.84705882
0.55943627 0.98835784 0.84767157
0.59191176 0.98602941 0.84583333
0.6435049 0.98321078 0.84987745
0.70539216 0.97696078 0.85
0.76568627 0.96960784 0.85196078
0.80588235 0.95784314 0.84338235
0.87120098 0.96384804 0.84803922
0.96470588 0.98039216 0.84411765
0.43235294 0.23578431 0.91029412
0.46758578 0.23578431 0.91029412
0.54718137 0.24007353 0.91421569
0.64803922 0.25196078 0.921875
0.74901961 0.28529412 0.92965686
0.85030637 0.34754902 0.93823529
0.95343137 0.42892157 0.9495098
1 0.45980392 0.94957108
1 0.47107843 0.93431373
0.42150735 0.28676471 0.9033701
0.46318168 0.29331342 0.90981158
0.53982843 0.29722733 0.91292892
0.63805147 0.31056219 0.91813725
0.74292279 0.34666054 0.92601103
0.84401042 0.40147059 0.93639706
0.94603248 0.47469363 0.94946385
1 0.4984758 0.9498315
1 0.50545343 0.9338848
0.40036765 0.38713235 0.89889706
0.43975184 0.39074755 0.90009191
0.51887255 0.39852941 0.90637255
0.62181373 0.41763174 0.91187194
0.72573529 0.44908088 0.91985294
0.82807904 0.49600184 0.93169424
0.93072917 0.55545343 0.94209559
1 0.57120098 0.94558824
1 0.56703431 0.92647059
0.3223652 0.48921569 0.8846201
0.37947304 0.4966299 0.88827359
0.47144608 0.50393689 0.89142157
0.58626685 0.52340686 0.90134804
0.69705882 0.55122549 0.90965074
0.80619638 0.5919807 0.92286305
0.91288297 0.63895527 0.93667279
0.99246324 0.64981618 0.94166667
1 0.64166667 0.92224265
0.22205882 0.59607843 0.85931373
0.28768382 0.59825368 0.86344975
0.39626225 0.59852941 0.86917892
0.51666667 0.60098039 0.88146446
0.65698529 0.63039216 0.89375
0.77686887 0.66559436 0.9104473
0.89215686 0.70637255 0.9286152
0.9752451 0.72202819 0.93949142
1 0.71029412 0.92034314
0 0.67775735 0.83970588
0.09479167 0.67771906 0.84005055
0.23818934 0.67238051 0.83789828
0.39706648 0.66943168 0.84264706
0.58063725 0.68602941 0.86495098
0.73099724 0.72003676 0.89191176
0.86590074 0.76488971 0.91845895
0.95969669 0.79319853 0.93382353
1 0.78235294 0.92205882
0.24509804 0.78235294 0.86813725
0.286106 0.78203125 0.86738664
0.36139706 0.7810049 0.8671875
0.45317096 0.77643995 0.86421569
0.55006127 0.77015931 0.86023284
0.64664522 0.76098346 0.85266544
0.81436887 0.80597426 0.89460784
0.94200368 0.85712316 0.92979473
1 0.8495098 0.92340686
0.4 0.89852941 0.90153186
0.4234758 0.89890472 0.90163909
0.471875 0.89810049 0.90165441
0.53988971 0.89665288 0.90010723
0.6254902 0.89705882 0.90052083
0.71881127 0.89855239 0.90247396
0.8143076 0.90234375 0.90401348
0.9102405 0.90638021 0.91029412
0.99215686 0.9033701 0.90680147
0.52058824 1 0.92205882
0.53633578 1 0.92506127
0.575 1 0.92205882
0.63020833 0.99981618 0.92365196
0.69068627 0.99607843 0.92230392
0.76458333 0.99056373 0.92077206
0.84019608 0.98431373 0.92205882
0.89068627 0.96954657 0.90729167
0.97254902 0.98431373 0.91372549
0.57254902 0.43529412 0.99215686
0.58823529 0.43921569 0.99215686
0.62745098 0.44019608 0.99215686
0.68872549 0.45098039 0.99215686
0.75882353 0.46862745 0.99607843
0.83676471 0.49558824 1
0.91862745 0.52647059 1
1 0.56911765 1
1 0.58039216 1
0.56470588 0.46617647 0.98823529
0.5838848 0.47015931 0.98829657
0.62389706 0.4745098 0.98958333
0.68351716 0.48449755 0.99215686
0.75147059 0.49803922 0.99240196
0.83253676 0.52469363 0.99607843
0.91568627 0.55355392 0.99963235
1 0.59215686 1
1 0.6 1
0.55980392 0.53431373 0.98431373
0.57647059 0.53541667 0.98443627
0.61544118 0.53921569 0.98602941
0.67414216 0.54767157 0.98823529
0.74313725 0.55980392 0.98970588
0.82328431 0.57941176 0.99215686
0.91004902 0.60686275 0.99607843
0.99656863 0.64093137 0.99963235
1 0.64117647 1
0.5372549 0.60245098 0.98039216
0.56078431 0.60637255 0.98039216
0.6004902 0.61029412 0.98186275
0.66127451 0.61813725 0.98431373
0.73210784 0.62867647 0.98504902
0.81378676 0.64613971 0.98878676
0.89901961 0.66556373 0.99215686
0.98658088 0.69442402 0.99607843
1 0.69656863 1
0.52156863 0.67843137 0.97647059
0.53897059 0.67843137 0.97647059
0.56372549 0.67009804 0.97647059
0.63186275 0.67647059 0.97965686
0.71078431 0.6872549 0.98137255
0.79632353 0.70269608 0.98553922
0.8877451 0.72352941 0.98823529
0.975 0.75122549 0.99240196
1 0.75686275 0.99607843
0.4495098 0.73872549 0.96078431
0.47518382 0.73872549 0.96470588
0.51911765 0.73872549 0.96862745
0.58829657 0.73780637 0.9716299
0.66519608 0.7372549 0.97573529
0.76917892 0.75441176 0.98039216
0.87156863 0.77855392 0.98786765
0.96127451 0.80716912 0.98952206
1 0.81862745 0.99215686
0.43235294 0.80980392 0.96568627
0.44803922 0.8127451 0.96862745
0.47916667 0.80955882 0.96617647
0.52892157 0.80526961 0.96507353
0.5995098 0.80490196 0.96862745
0.71421569 0.80490196 0.97254902
0.8372549 0.82622549 0.98137255
0.94558824 0.86372549 0.98823529
1 0.88039216 0.98921569
0.45882353 0.89901961 0.98039216
0.47359069 0.89852941 0.97996324
0.50232843 0.89852941 0.98039216
0.55294118 0.89607843 0.98008578
0.61813725 0.89509804 0.97696078
0.69215686 0.89332108 0.97910539
0.76997549 0.88590686 0.97561275
0.91029412 0.90637255 0.98431373
1 0.94117647 0.99166667
0.47843137 0.98823529 0.98823529
0.49411765 0.98823529 0.98431373
0.52843137 0.98823529 0.98823529
0.58284314 0.98823529 0.98823529
0.65294118 0.98823529 0.98823529
0.73088235 0.98823529 0.98823529
0.81666667 0.98823529 0.98823529
0.90294118 0.98823529 0.98823529
0.99215686 0.99215686 0.99215686
