Kodak Converted/Kodak Portra 400 ++.cube
# Exported with LUT Lab 1.2.1
# LUTLab.com
TITLE Kodak Portra 400 4 ++
LUT_3D_SIZE 33
0.0745098 0.07843137 0.05882353
0.08235294 0.08235294 0.0627451
0.08602941 0.07843137 0.05882353
0.09803922 0.08235294 0.0627451
0.11323529 0.08235294 0.0622549
0.13602941 0.08235294 0.05882353
0.16323529 0.08235294 0.05882353
0.18762255 0.07843137 0.05772059
0.22647059 0.07843137 0.05588235
0.26752451 0.07365196 0.05796569
0.31127451 0.06789216 0.05490196
0.35870098 0.05490196 0.05098039
0.40735294 0.03676471 0.04313725
0.46384804 0.01495098 0.04276961
0.51127451 0 0.03308824
0.57291667 0 0.02352941
0.62941176 0 0.01372549
0.67818627 0 0.00404412
0.72671569 0 0
0.77144608 0 0
0.80931373 0 0
0.83921569 0 0
0.87573529 0 0
0.9002451 0 0
0.92352941 0.03627451 0
0.95073529 0.08406863 0
0.97009804 0.11911765 0
0.99473039 0.1502451 0
1 0.17696078 0
1 0.20073529 0
1 0.22352941 0
1 0.24129902 0
1 0.2627451 0
0.07634804 0.08419118 0.0627451
0.08026961 0.08516774 0.0627451
0.08602941 0.08627451 0.06263021
0.09680224 0.08811275 0.05991498
0.11692708 0.09019608 0.06251532
0.1373966 0.09019608 0.05882353
0.16174173 0.09019608 0.05732996
0.18813955 0.08961014 0.05691636
0.22647059 0.08863358 0.05536152
0.26531863 0.08464691 0.05327436
0.31004902 0.08092065 0.05163143
0.35682445 0.07210095 0.04705882
0.41049326 0.0613511 0.04382659
0.46384804 0.04049096 0.03696002
0.51325061 0.01563266 0.02997089
0.57298177 0 0.01960784
0.6254902 0 0.00980392
0.6760455 0 0.00012255
0.72279412 0 0
0.76789216 0 0
0.80686275 0 0
0.83529412 0 0
0.87246477 0 0
0.89880898 0.03039216 0
0.92509191 0.07876838 0
0.94681373 0.10943627 0
0.96970741 0.1401731 0
0.99338235 0.16776961 0
1 0.19082414 0
1 0.2120098 0
1 0.23334099 0
1 0.25306373 0
1 0.27058824 0
0.0745098 0.08995098 0.0627451
0.07843137 0.09019608 0.0627451
0.08212316 0.09019608 0.06251532
0.09421722 0.09411765 0.06125153
0.11323529 0.10122549 0.05882353
0.13602941 0.09803922 0.05641085
0.16323529 0.10102635 0.05813419
0.18762255 0.10068168 0.05490196
0.2254902 0.09803922 0.05490196
0.26551011 0.0979856 0.05117188
0.31012561 0.09411765 0.04845282
0.35812653 0.08933824 0.04644608
0.40873162 0.07956495 0.04059436
0.46384804 0.06639859 0.03529412
0.51127451 0.04779412 0.0252451
0.57291667 0.02267157 0.01568627
0.6254902 0 0.00612745
0.67426471 0 0
0.72293199 0 0
0.76754749 0 0
0.80686275 0 0
0.83161765 0 0
0.86928615 0.04208027 0
0.89718137 0.07990196 0
0.92261029 0.10735294 0
0.94417126 0.13462776 0
0.97005208 0.16107537 0
0.99080882 0.18288143 0
1 0.20784314 0
1 0.22561275 0
1 0.24336703 0
1 0.26077665 0
1 0.28210784 0
0.07291667 0.10196078 0.06507353
0.07768459 0.09888557 0.06591988
0.0807598 0.10196078 0.06289062
0.0897595 0.10609298 0.0627451
0.10568321 0.11119792 0.05882353
0.1315602 0.11477099 0.05570236
0.16323529 0.11721048 0.05490196
0.18872549 0.11531863 0.05265395
0.22941176 0.11531863 0.05098039
0.26656327 0.11349954 0.04740732
0.31004902 0.11139706 0.04473805
0.35870098 0.11103324 0.04252451
0.40968137 0.10355392 0.03575368
0.46384804 0.09549249 0.02956112
0.51258425 0.08635876 0.02263327
0.57286688 0.06978018 0.01164216
0.62352941 0.05379902 0.00116422
0.67421492 0.04178922 0
0.72349112 0.03541667 0
0.76608073 0.03897059 0
0.80540748 0.05677083 0
0.83137255 0.07303922 0
0.86911765 0.09779412 0
0.89632353 0.12071078 0
0.92254902 0.14476103 0
0.9474686 0.16634115 0
0.96747089 0.18475031 0
0.99080882 0.2057598 0
1 0.22561275 0
1 0.24313725 0
1 0.26066176 0
1 0.27709482 0
1 0.29571078 0
0.06323529 0.11323529 0.06617647
0.06876532 0.11323529 0.06484375
0.07496936 0.11369485 0.06341912
0.08423713 0.11884191 0.06443015
0.09846814 0.12199755 0.05931373
0.1245864 0.12892157 0.05490196
0.15548407 0.13284314 0.05490196
0.18480392 0.13662684 0.05119485
0.22585784 0.13370098 0.04705882
0.26838235 0.13676471 0.04352022
0.31112132 0.13627451 0.03921569
0.35775123 0.13242953 0.03483456
0.40863971 0.13020833 0.02922794
0.46073836 0.125 0.02041973
0.51127451 0.11887255 0.01397059
0.56959252 0.1127451 0.00439645
0.62352941 0.10661765 0
0.67426471 0.10061275 0
0.72279412 0.1004902 0
0.76708027 0.10752145 0
0.80294118 0.11519608 0
0.83137255 0.12794118 0
0.86519608 0.14485294 0
0.8932598 0.16237745 0
0.91862745 0.17647059 0
0.94139093 0.1953125 0
0.96544118 0.2120098 0
0.98602941 0.23178615 0
1 0.25006127 0
1 0.26458333 0
1 0.27818627 0
1 0.29571078 0
1 0.3127451 0
0.05355392 0.1307598 0.06666667
0.06202895 0.1313917 0.06866575
0.06907935 0.12683824 0.06666667
0.07763097 0.13413373 0.06666667
0.08970588 0.13828125 0.0629136
0.11115196 0.1429879 0.05882353
0.14594822 0.15294118 0.05380668
0.17376302 0.15539216 0.04987745
0.22022059 0.15821078 0.04378064
0.26397059 0.1610792 0.03816253
0.31004902 0.15955882 0.03217678
0.35870098 0.16213235 0.02941176
0.40735294 0.15955882 0.01973039
0.4613894 0.15943244 0.01397059
0.50992647 0.15563725 0.00428922
0.5689951 0.15163526 0
0.62224265 0.14914216 0
0.67414216 0.14783624 0
0.72075674 0.15026808 0
0.76004902 0.15330499 0
0.79901961 0.16398591 0
0.82745098 0.17267157 0
0.86304381 0.18650429 0
0.89105392 0.19992724 0
0.91534926 0.21510417 0
0.93872549 0.22769608 0
0.96200214 0.24473805 0
0.98553922 0.25882353 0
1 0.27377451 0
1 0.28707491 0
1 0.30089614 0
1 0.31644072 0
1 0.32941176 0
0.03995098 0.15294118 0.06740196
0.04963235 0.15220588 0.07058824
0.05955882 0.14852941 0.07078738
0.0689951 0.15031403 0.07058824
0.08186275 0.15612745 0.06706495
0.09986979 0.16162684 0.06297488
0.12867647 0.16789216 0.05882353
0.16008732 0.17401961 0.05077359
0.21053922 0.18357843 0.04074755
0.25412837 0.18803615 0.032644
0.30294118 0.19119179 0.02526042
0.3548943 0.19068627 0.01910999
0.40762868 0.19096201 0.00885417
0.45992647 0.19068627 0
0.50914522 0.19247855 0
0.56911765 0.19078585 0
0.62193627 0.19068627 0
0.67414216 0.19448529 0
0.72107843 0.19820772 0
0.75716146 0.20245098 0
0.79782475 0.21029412 0
0.82352941 0.21740196 0
0.85977328 0.22939645 0
0.88471967 0.24023438 0
0.91078431 0.2528799 0
0.93615196 0.26409314 0
0.95833333 0.27769608 0
0.9818704 0.28920803 0
1 0.30202206 0
1 0.31501991 0
1 0.32798713 0
1 0.33821232 0
1 0.35539216 0
0.0252451 0.17303922 0.07169118
0.0370098 0.17141927 0.07509574
0.05245098 0.17193627 0.07825521
0.06389017 0.16756664 0.07626762
0.07648591 0.17426471 0.07561275
0.09082031 0.17867647 0.06961933
0.11580882 0.18370098 0.06437653
0.14448529 0.18982843 0.0560049
0.2004902 0.20502451 0.04522059
0.2468099 0.21421186 0.03443627
0.29519761 0.21811428 0.02277114
0.34865196 0.22053845 0.01066176
0.40191483 0.22184436 0.00105699
0.45892693 0.22146523 0
0.51079197 0.22464001 0
0.57015165 0.22521063 0
0.62156863 0.22794118 0
0.67022059 0.22904412 0
0.71446844 0.23296569 0
0.75602405 0.2378868 0
0.79076287 0.24578738 0
0.8185049 0.25257353 0
0.85396752 0.26129749 0
0.88125383 0.27046186 0
0.9067402 0.28311887 0
0.93425628 0.2938151 0
0.95420496 0.30461091 0
0.97769608 0.31641008 0
0.99903493 0.32915135 0
1 0.33941866 0
1 0.35129442 0
1 0.36017157 0
1 0.3747549 0
0 0.20588235 0.07843137
0.00726103 0.20352328 0.07999387
0.02432598 0.20104167 0.08143382
0.04690564 0.19764093 0.08529412
0.06360294 0.19803922 0.08529412
0.07977941 0.20330882 0.08036152
0.10220588 0.21078431 0.07371324
0.12806373 0.21663603 0.0685049
0.17230392 0.22647059 0.05490196
0.22359069 0.2393076 0.04065564
0.28290441 0.25294118 0.02083333
0.33615196 0.2583027 0.00428922
0.39411765 0.2682598 0
0.45208333 0.26862745 0
0.50398284 0.2721201 0
0.56795343 0.27159926 0
0.61911765 0.2754902 0
0.66629902 0.27928922 0
0.70808824 0.28167892 0
0.75104167 0.28734681 0
0.78541667 0.2932598 0
0.8127451 0.3 0
0.84626225 0.30784314 0
0.87441789 0.31547181 0
0.90294118 0.32426471 0
0.92509191 0.33501838 0
0.94754902 0.34332108 0
0.97120098 0.35456495 0
0.99276961 0.36286765 0
1 0.37291667 0
1 0.37959559 0
1 0.39019608 0
1 0.40196078 0
0 0.23223039 0.07928922
0 0.23308824 0.08464691
0 0.22916667 0.08627451
0.01897595 0.22706419 0.09019608
0.04571078 0.22057292 0.09105392
0.06686198 0.22830882 0.08884804
0.09109222 0.23615196 0.08308824
0.11397442 0.24179305 0.07574295
0.15698529 0.25171569 0.06436887
0.20238588 0.26446078 0.05079274
0.26127451 0.27806373 0.03259804
0.32732843 0.29583333 0.00330882
0.38382353 0.30252757 0
0.44375 0.31151961 0
0.49693627 0.3141008 0
0.56029412 0.31639476 0
0.61133578 0.31783088 0
0.66235064 0.319267 0
0.70490962 0.325 0
0.74428232 0.3279833 0
0.77941176 0.33504902 0
0.80392157 0.33897059 0
0.84080882 0.34777114 0
0.87126608 0.35465686 0
0.89586397 0.36020221 0
0.91960784 0.37034314 0
0.94513634 0.37876072 0
0.96593137 0.38497626 0
0.98910846 0.39436275 0
1 0.40171569 0
1 0.40975031 0
1 0.41902956 0
1 0.42830882 0
0 0.26421569 0.08897059
0 0.26629902 0.09019608
0 0.26404718 0.09272365
0 0.25759804 0.09411765
0.01479779 0.25401348 0.09803922
0.04705882 0.25460325 0.09896599
0.07207414 0.26128983 0.09070159
0.0997549 0.26958487 0.08517157
0.14436275 0.28223039 0.07659314
0.18811275 0.29193474 0.06188725
0.24068627 0.30343137 0.04352022
0.30129442 0.31827512 0.01696538
0.37619485 0.33872549 0
0.43395374 0.34682138 0
0.48602941 0.35539216 0
0.54677543 0.35841759 0
0.59987745 0.36164216 0
0.65183824 0.36233915 0
0.69534314 0.36343444 0
0.73737745 0.36861979 0
0.77202819 0.37156863 0
0.8 0.37671569 0
0.832981 0.38186275 0
0.86129749 0.38970588 0
0.88958333 0.39785539 0
0.91350337 0.40345435 0
0.9379902 0.41223958 0
0.96162684 0.41934743 0
0.98480392 0.42533701 0
1 0.43357077 0
1 0.4370098 0
1 0.4439951 0
1 0.45245098 0
0 0.29926471 0.09019608
0 0.30289905 0.09599418
0 0.30008425 0.09493719
0 0.29767157 0.10196078
0 0.29142157 0.10249694
0.01715686 0.28728937 0.10980392
0.05158548 0.2939951 0.10257353
0.08223039 0.29992724 0.09710861
0.12683824 0.30958946 0.0864277
0.17389706 0.32218137 0.07709482
0.22316176 0.33291207 0.0577742
0.2767693 0.34301471 0.0307598
0.34252451 0.36015625 0.00170037
0.42040824 0.38192785 0
0.47392004 0.38995098 0
0.5369064 0.39730392 0
0.58958333 0.40153186 0
0.63825444 0.40504366 0
0.68331036 0.4057598 0
0.72769608 0.40931373 0
0.76334252 0.40968137 0
0.78823529 0.4129902 0
0.82806373 0.42083333 0
0.85662914 0.42747396 0
0.88287377 0.43259804 0
0.90715763 0.43889782 0
0.93088235 0.44436275 0
0.95551471 0.44828431 0
0.97745098 0.45654105 0
0.99975107 0.46201363 0
1 0.46421569 0
1 0.46997549 0
1 0.47634804 0
0 0.33578431 0.09558824
0 0.34007353 0.09987745
0 0.33455882 0.10196078
0 0.33272059 0.10442708
0 0.32892157 0.1096201
0 0.3220435 0.11456801
0.01688113 0.32181373 0.11390931
0.05837929 0.32798713 0.107644
0.10833333 0.33762255 0.09803922
0.15612745 0.35032169 0.08595282
0.20349265 0.36053922 0.07135417
0.25882353 0.37414216 0.04889706
0.31954657 0.38621324 0.01807598
0.3834712 0.39889706 0
0.45481005 0.41862745 0
0.52348346 0.43247549 0
0.57720588 0.43946078 0
0.62712929 0.44269301 0
0.67074142 0.44721201 0
0.71312806 0.45039828 0
0.75196078 0.45196078 0
0.77941176 0.45196078 0
0.81914828 0.45542279 0
0.84811581 0.45980392 0
0.87585784 0.46593137 0
0.9001685 0.47087929 0
0.92423407 0.47349877 0
0.94767157 0.47941176 0
0.97322304 0.48480392 0
0.99448529 0.48785233 0
1 0.49509804 0
0.9988511 0.49787071 0
1 0.50441176 0
0 0.36973039 0.09840686
0 0.37553998 0.10421645
0 0.37720588 0.1095818
0 0.37147289 0.10980392
0 0.36544118 0.11683517
0 0.36029795 0.11801471
0 0.35367647 0.12512255
0.02256817 0.35870098 0.12083333
0.08777574 0.3689951 0.11078431
0.13582644 0.3779833 0.09869409
0.18811275 0.38897059 0.08786765
0.24068627 0.40042509 0.06642157
0.29963235 0.4147212 0.04252451
0.36118643 0.42785309 0.00355392
0.42083333 0.43986673 0
0.50517004 0.46276808 0
0.56452206 0.47310049 0
0.61495098 0.47881051 0
0.66168045 0.48308824 0
0.70085784 0.48697534 0
0.73982843 0.49056373 0
0.7682598 0.49093137 0
0.80881587 0.49374234 0
0.83790977 0.49477252 0
0.86727941 0.49485294 0
0.89264706 0.49840686 0
0.91897978 0.50625 0
0.94362362 0.50808058 0
0.96564032 0.51409314 0
0.99041437 0.51801471 0
1 0.52193627 0
1 0.52401961 0
1 0.52941176 0
0 0.40490196 0.10808824
0 0.40791207 0.10992647
0 0.4087163 0.11361826
0 0.40330882 0.11593137
0 0.39754902 0.11792279
0 0.39313725 0.12512255
0 0.38570772 0.12950368
0.00193015 0.38419118 0.13051471
0.06176471 0.39258578 0.12248775
0.11924786 0.40307138 0.11325061
0.17230392 0.41323529 0.10093444
0.22460938 0.42622549 0.08553922
0.27935049 0.43734681 0.06161152
0.33979013 0.4499617 0.02532935
0.39630821 0.4620098 0.00193015
0.46838235 0.47506893 0
0.54522059 0.49656863 0
0.60134804 0.50679381 0
0.6470435 0.51346507 0
0.68880974 0.51626072 0
0.73014706 0.52000613 0
0.75857843 0.52254902 0
0.79901961 0.52578125 0
0.8292739 0.52647059 0
0.85802696 0.52647059 0
0.88626685 0.52695312 0
0.91086091 0.53039216 0
0.93703278 0.53543964 0
0.96127451 0.53630515 0
0.98373928 0.54096967 0
1 0.54387255 0
1 0.54698989 0
1 0.55171569 0
0 0.44718137 0.11372549
0 0.44908471 0.11764706
0 0.44730392 0.11800705
0 0.44338235 0.12169118
0 0.43946078 0.12892157
0 0.43169807 0.13084023
0 0.4276731 0.1372549
0 0.41875 0.14121094
0.01945466 0.42279412 0.13452819
0.09443168 0.43247549 0.12656633
0.15187653 0.44476869 0.11776961
0.20563725 0.45502451 0.10539216
0.26213235 0.46544118 0.08549326
0.3189951 0.47547871 0.05881204
0.37218137 0.48860294 0.02463235
0.43958333 0.50208716 0
0.5057598 0.51390931 0
0.57561275 0.53296952 0
0.63639706 0.5452742 0
0.67721737 0.54914216 0
0.71654412 0.55453431 0
0.74497549 0.55710784 0
0.78664216 0.56090686 0
0.81480162 0.5610026 0
0.84509804 0.56102941 0
0.87613741 0.56388251 0
0.90330882 0.56485141 0
0.92806373 0.56356464 0
0.95379902 0.56530331 0
0.97951134 0.5673292 0
1 0.5689951 0
1 0.57095588 0
1 0.57659314 0
0 0.48235294 0.12352941
0 0.48431373 0.12745098
0 0.48235294 0.12928922
0 0.47959559 0.13137255
0 0.47303922 0.13357843
0 0.46862745 0.13860294
0 0.46029412 0.1435049
0 0.45520833 0.14816176
0 0.45196078 0.15147059
0.07052696 0.46121324 0.14270833
0.13553922 0.46936275 0.13590686
0.19203431 0.48039216 0.12291667
0.24534314 0.48823529 0.10612745
0.30110294 0.50036765 0.08964461
0.35355392 0.51090686 0.06568627
0.41807598 0.52352941 0.01727941
0.47941176 0.53431373 0
0.54074755 0.54313725 0
0.60661765 0.56029412 0
0.66556373 0.57628676 0
0.70612745 0.58235294 0
0.73529412 0.58431373 0
0.77634804 0.58823529 0
0.80655637 0.59019608 0
0.8372549 0.59215686 0
0.86642157 0.59356618 0
0.8932598 0.59375 0
0.92083333 0.59411765 0
0.94607843 0.59215686 0
0.97095588 0.59215686 0
0.99816176 0.59411765 0
1 0.5971201 0
1 0.6 0
0 0.51348039 0.13321078
0 0.51348039 0.13511412
0 0.51348805 0.1372549
0 0.50968137 0.14117647
0 0.50955882 0.14508272
0 0.50179611 0.14893919
0 0.49769455 0.15284161
0 0.48884804 0.15677466
0 0.47925858 0.16372549
0.04754902 0.48605622 0.15980392
0.12071078 0.4939568 0.15012255
0.17841222 0.50243183 0.14113817
0.2310049 0.51217831 0.12688419
0.28738894 0.52525659 0.11323529
0.33713235 0.5314951 0.09509804
0.40060892 0.54141391 0.06617264
0.45900735 0.55477941 0.02113971
0.51752068 0.56446078 0
0.57781863 0.57627911 0
0.63454733 0.58797871 0
0.69468444 0.60526961 0
0.7254902 0.61151961 0
0.76596967 0.61544118 0
0.79840686 0.61556373 0
0.8294424 0.6231924 0
0.8567402 0.62218137 0
0.8839231 0.61948529 0
0.91245787 0.62328431 0
0.94166667 0.62328431 0
0.96549096 0.62174096 0
0.99240962 0.61936275 0
1 0.61948529 0
1 0.62328431 0
0 0.54460784 0.14460784
0 0.54852941 0.14982384
0 0.54485294 0.15073529
0 0.5432981 0.15334712
0 0.53875613 0.1549326
0 0.53360141 0.1593367
0 0.52965686 0.1643076
0 0.52389706 0.16910999
0 0.51421569 0.17591912
0.02389706 0.51017157 0.17608762
0.10951287 0.52054228 0.17103248
0.16901808 0.52747396 0.16215533
0.22303922 0.53612132 0.14935662
0.27761183 0.54681373 0.13860294
0.32621017 0.55562194 0.12375919
0.38681832 0.56481311 0.10341605
0.44338235 0.57426471 0.07487745
0.4977405 0.58216146 0.03088235
0.55540748 0.59558824 0
0.61094516 0.60526961 0
0.66317402 0.6151348 0
0.7120098 0.63308824 0
0.75657169 0.63872549 0
0.79006587 0.64227175 0
0.81985294 0.64528186 0
0.84754136 0.64643842 0
0.87598039 0.64656863 0
0.90318627 0.64656863 0
0.93039216 0.64877451 0
0.95919118 0.64656863 0
0.98480392 0.64656863 0
1 0.64565717 0
1 0.64485294 0
0 0.57610294 0.16041667
0 0.57965686 0.16414292
0 0.57598039 0.16433824
0 0.57558594 0.1682598
0 0.56870404 0.16830576
0 0.56519225 0.17340303
0 0.56397059 0.17928922
0 0.55528876 0.18028876
0 0.54837623 0.18697917
0.00714997 0.54044118 0.19256664
0.10245864 0.54473039 0.18909314
0.16617647 0.55281863 0.18296569
0.21897978 0.5602788 0.17129289
0.271358 0.5682598 0.16004902
0.31756281 0.57638634 0.15016085
0.37683824 0.58751149 0.13247549
0.42977941 0.59393382 0.11495098
0.48282016 0.60354243 0.08589537
0.53884804 0.61311275 0.05183824
0.59142157 0.6231273 0.00066636
0.6439951 0.63247549 0
0.68272059 0.63921569 0
0.74780178 0.66237745 0
0.77982154 0.6660118 0
0.81283701 0.6692402 0
0.84129902 0.67022059 0
0.86843597 0.67088695 0
0.89926471 0.67377451 0
0.92602635 0.67382047 0
0.95171569 0.67392387 0
0.97732843 0.67024357 0
1 0.67002528 0
1 0.67022059 0
0 0.60294118 0.17401961
0 0.60686275 0.18056066
0 0.60548407 0.18186275
0 0.60294118 0.18345588
0 0.60147059 0.18578431
0 0.5967065 0.18835784
0 0.59390319 0.19362745
0 0.58860294 0.19607843
0 0.58002451 0.2
0.00546875 0.57271752 0.20539216
0.10637255 0.56933211 0.20686275
0.16654412 0.57794118 0.20124081
0.21966912 0.58394608 0.19417892
0.2714614 0.59339767 0.18555453
0.31519608 0.5997549 0.17637868
0.37049632 0.60693934 0.1611826
0.42352941 0.61593137 0.14730392
0.47659314 0.625 0.13247549
0.52671569 0.63253676 0.10465686
0.57417279 0.64068627 0.07328431
0.62647059 0.65091912 0.02401961
0.66372549 0.65882353 0
0.71648284 0.66813725 0
0.76904105 0.68465074 0
0.80257353 0.68872549 0
0.83203125 0.69166667 0
0.8627451 0.69558824 0
0.88884804 0.69655331 0
0.91813725 0.69705882 0
0.94583333 0.69705882 0
0.97279412 0.69926471 0
0.99931066 0.69705882 0
1 0.69705882 0
0 0.62745098 0.19215686
0 0.63137255 0.19607843
0 0.62769608 0.19607843
0 0.62745098 0.2
0 0.62352941 0.2
0 0.61960784 0.20134804
0 0.61960784 0.20784314
0 0.61176471 0.20784314
0 0.60784314 0.21470588
0.01556373 0.6 0.21960784
0.11666667 0.59338235 0.22352941
0.17438725 0.59669118 0.21960784
0.2245098 0.60392157 0.21323529
0.27169118 0.60821078 0.20355392
0.31519608 0.61789216 0.19779412
0.37279412 0.62745098 0.1879902
0.41960784 0.63333333 0.17254902
0.47022059 0.63921569 0.15710784
0.51887255 0.64877451 0.13946078
0.56752451 0.65845588 0.11838235
0.6122549 0.66421569 0.08872549
0.65098039 0.67058824 0.05490196
0.70441176 0.68235294 0
0.74338235 0.68627451 0
0.79411765 0.70588235 0
0.82634804 0.70980392 0
0.85637255 0.71053922 0
0.88492647 0.71372549 0
0.91078431 0.71372549 0
0.93958333 0.71531863 0
0.96519608 0.71372549 0
0.9942402 0.71764706 0
1 0.71764706 0
0 0.66127451 0.21691176
0 0.66397059 0.22083333
0 0.66380208 0.22083333
0 0.66077665 0.2247549
0 0.65971201 0.2247549
0 0.65520067 0.22555913
0 0.65001532 0.22967218
0 0.64752604 0.23259804
0 0.64166667 0.23621324
0.0683364 0.63747702 0.24044118
0.14264706 0.62905944 0.24436275
0.19233303 0.62640165 0.2460095
0.23995098 0.63158701 0.24436275
0.28456648 0.63799786 0.23407629
0.32411152 0.64318321 0.22921262
0.37679994 0.65229013 0.22202053
0.42352941 0.66004902 0.2122549
0.46638327 0.66397059 0.19861366
0.51323529 0.67234988 0.18627451
0.55857077 0.68184743 0.17400429
0.60395221 0.68851103 0.1546875
0.6379902 0.69411765 0.1370098
0.68564645 0.70318627 0.1040288
0.72647059 0.70980392 0.05968137
0.76544118 0.715625 0.00275735
0.80992647 0.72918964 0
0.84730392 0.73628983 0
0.87843137 0.74105392 0
0.90435049 0.74255515 0
0.93406863 0.7431296 0
0.96119792 0.74371936 0
0.98909314 0.74567249 0
1 0.74632353 0
0 0.68933824 0.24227941
0 0.69077436 0.24417126
0 0.68933824 0.24620098
0 0.68723575 0.24585248
0 0.68455882 0.24926471
0 0.68455882 0.25061275
0 0.67745098 0.25318627
0 0.67585401 0.2556296
0.02337623 0.66973039 0.25796569
0.11869256 0.66513863 0.26188725
0.17289369 0.6589231 0.26580882
0.21653263 0.65391008 0.27034314
0.25693934 0.65404412 0.26887255
0.30106081 0.66110983 0.26458333
0.33700214 0.66715686 0.25844822
0.3807598 0.66985294 0.24926471
0.42506127 0.67757353 0.24185049
0.47022059 0.68828891 0.23360524
0.51102941 0.69153646 0.22229626
0.55498238 0.69995787 0.21319317
0.59541973 0.7053462 0.1981924
0.62830882 0.71286765 0.18566176
0.67330729 0.7191636 0.16301317
0.7120098 0.72463235 0.13927313
0.75183824 0.73345588 0.10726103
0.78688725 0.74031863 0.0548943
0.8312117 0.75281863 0
0.8692402 0.75992647 0
0.89863664 0.76309743 0
0.92657399 0.76419654 0
0.95428922 0.76489737 0
0.98247549 0.76776961 0
1 0.76776961 0
0 0.71568627 0.26960784
0 0.71568627 0.27254902
0 0.7127451 0.27352941
0 0.71351103 0.27527574
0 0.71176471 0.27389706
0 0.70818015 0.2768076
0 0.70704657 0.27984069
0.02291667 0.70392157 0.28066789
0.11911765 0.7 0.28357843
0.17132353 0.69522059 0.28823529
0.2122549 0.68915441 0.28982843
0.24978554 0.68348652 0.29525123
0.28382353 0.67892157 0.29889706
0.32034314 0.68342525 0.29215686
0.35379902 0.68835784 0.28884804
0.39730392 0.69604779 0.28419118
0.43676471 0.70147059 0.27696078
0.47515319 0.70677083 0.26865809
0.51421569 0.71305147 0.26133578
0.55318627 0.71951593 0.25125613
0.59117647 0.72647059 0.24068627
0.62058824 0.73039216 0.23137255
0.66519608 0.73731618 0.21354167
0.70045956 0.74249387 0.1939951
0.73627451 0.74779412 0.17328431
0.77132353 0.75490196 0.14604779
0.80931373 0.7627451 0.11207108
0.84987745 0.77411152 0.06155025
0.89117647 0.78541667 0.01348039
0.91838235 0.78587623 0.00039828
0.94932598 0.79001225 0
0.97515319 0.79019608 0
1 0.79019608 0
0 0.74007353 0.2997549
0 0.74007353 0.30367647
0 0.74007353 0.30735294
0 0.73941866 0.30592448
0 0.73628983 0.30513174
0.03000153 0.73615196 0.30797718
0.09967065 0.73431373 0.31078431
0.14117647 0.73112745 0.31182981
0.18688725 0.72509191 0.31544118
0.22585784 0.72328431 0.31716069
0.25774357 0.71936275 0.32205882
0.28811275 0.71213235 0.32389706
0.31642157 0.70759804 0.32965686
0.34728477 0.70870098 0.32694164
0.37758119 0.71262255 0.325
0.41482843 0.71939721 0.31927466
0.44987745 0.72328431 0.31488971
0.48599494 0.72827436 0.30768612
0.52059589 0.73504902 0.30319393
0.55612745 0.73970588 0.29483379
0.59117647 0.74505208 0.28475797
0.61960784 0.75073529 0.27904412
0.66127451 0.75857843 0.26605392
0.69570695 0.7627451 0.25159314
0.73039216 0.76963848 0.23492647
0.76360294 0.77536765 0.21537607
0.79865196 0.78002451 0.19432445
0.83273208 0.78616345 0.16594286
0.87069547 0.79692096 0.13468137
0.91446078 0.81021369 0.10980392
0.94270067 0.8145144 0.08074449
0.96938955 0.8127451 0.02369409
0.99718137 0.81568627 0
0.00955882 0.76544118 0.33480392
0.04987745 0.76544118 0.33872549
0.0760723 0.76544118 0.33872549
0.10288756 0.7622549 0.33872549
0.13284314 0.76216299 0.34215686
0.15931373 0.75942862 0.34007353
0.18711703 0.75819547 0.34324449
0.21388634 0.75739124 0.34656863
0.24730392 0.75367647 0.34656863
0.27377451 0.7497549 0.3504902
0.30121017 0.74364277 0.35441176
0.32488511 0.73984375 0.35564491
0.35147059 0.73480392 0.36078431
0.3747549 0.73021599 0.3622549
0.40203738 0.73586091 0.3618413
0.43617494 0.74191176 0.35823376
0.46580882 0.74583333 0.35281863
0.4978171 0.7497549 0.34659161
0.52933517 0.75409007 0.34306066
0.56397059 0.76145067 0.33872549
0.59390319 0.76544118 0.3296875
0.61960784 0.76936275 0.32303922
0.65762868 0.77720588 0.31078431
0.68933824 0.78186275 0.29861366
0.72199755 0.78841912 0.28694853
0.75392157 0.79571078 0.27369026
0.78504902 0.80073529 0.25637255
0.81716452 0.80539216 0.23566176
0.85514706 0.8125 0.2138174
0.89208793 0.81875 0.18522518
0.93612132 0.83534007 0.17063419
0.96456036 0.83772212 0.15622702
0.99215686 0.84068627 0.1377451
0.18811275 0.79338235 0.38026961
0.20173483 0.7928079 0.38161765
0.20870098 0.79080882 0.38161765
0.22077589 0.79105392 0.38266314
0.23365502 0.78962929 0.38553922
0.25085784 0.78688725 0.38465456
0.26947763 0.7866345 0.3866345
0.286286 0.78578431 0.38908165
0.3080576 0.7823223 0.39047181
