Kodak Converted/Kodak Elite Chrome 200.cube
# Exported with LUT Lab 1.2.1
# LUTLab.com
TITLE Kodak Elite Chrome 200
LUT_3D_SIZE 5
0 0 0
0.15098039 0 0
0.40784314 0 0
0.68039216 0 0
0.9254902 0 0
0.1254902 0.22941176 0.08137255
0.24803922 0.21078431 0.05784314
0.48921569 0.17058824 0.00931373
0.72328431 0.09117647 0
0.91764706 0 0
0.26078431 0.5254902 0.18627451
0.37892157 0.52156863 0.16911765
0.61372549 0.50098039 0.13529412
0.84460784 0.4622549 0.09509804
1 0.3745098 0.04509804
0.4872549 0.78921569 0.2872549
0.56470588 0.78627451 0.2754902
0.74019608 0.77745098 0.24754902
0.9502451 0.75882353 0.20710784
1 0.72352941 0.16568627
0.7254902 0.99215686 0.34901961
0.77254902 0.99215686 0.34509804
0.89607843 0.98823529 0.32745098
1 0.98431373 0.30588235
1 0.97254902 0.28235294
0 0 0.12352941
0.1120098 0 0.09240196
0.36862745 0 0.04215686
0.63259804 0 0.00392157
0.86764706 0 0
0.08627451 0.21764706 0.22230392
0.19938725 0.19828431 0.19938725
0.44497549 0.15845588 0.14901961
0.67175245 0.0754902 0.0841299
0.86176471 0 0.02083333
0.18676471 0.5254902 0.32941176
0.32843137 0.52156863 0.31433824
0.56715686 0.5 0.27696078
0.79693627 0.46029412 0.23137255
0.99411765 0.36862745 0.18137255
0.42622549 0.79313725 0.42965686
0.50759804 0.78939951 0.41942402
0.6877451 0.77953431 0.39595588
0.89963235 0.7627451 0.36354167
1 0.72352941 0.32843137
0.66764706 0.99901961 0.49313725
0.71666667 0.99607843 0.48823529
0.84215686 0.99215686 0.47254902
1 0.98823529 0.44901961
1 0.97941176 0.42254902
0 0 0.31960784
0.05539216 0 0.29068627
0.3127451 0 0.24901961
0.56862745 0 0.20392157
0.80196078 0 0.16470588
0.03823529 0.19411765 0.42303922
0.13921569 0.175 0.40183824
0.37254902 0.12990196 0.35490196
0.59313725 0.04816176 0.29705882
0.78039216 0 0.23480392
0.02254902 0.52058824 0.53921569
0.24313725 0.51372549 0.5247549
0.49117647 0.49068627 0.49117647
0.72230392 0.44852941 0.44705882
0.91470588 0.34509804 0.39215686
0.32696078 0.79411765 0.63382353
0.42009804 0.79019608 0.6245098
0.61151961 0.78186275 0.60245098
0.8254902 0.7627451 0.56948529
1 0.72352941 0.53235294
0.58431373 1 0.69411765
0.63480392 1 0.68823529
0.76470588 1 0.67352941
0.93431373 0.99607843 0.65098039
1 0.98627451 0.62352941
0 0 0.53039216
0.01470588 0 0.49681373
0.25882353 0 0.45637255
0.50612745 0 0.41348039
0.73333333 0 0.37745098
0.00367647 0.13504902 0.60784314
0.08259804 0.11488971 0.58492647
0.30098039 0.07009804 0.54129902
0.51446078 0.00759804 0.48927696
0.7127451 0 0.43946078
0.02156863 0.49411765 0.72107843
0.18039216 0.48664216 0.70882353
0.42892157 0.46323529 0.67745098
0.65183824 0.41348039 0.63431373
0.83088235 0.28578431 0.57205882
0.24117647 0.78921569 0.81764706
0.34828431 0.78609069 0.80980392
0.54595588 0.7745098 0.7877451
0.75747549 0.75490196 0.75545343
0.96004902 0.71176471 0.71568627
0.51764706 1 0.88333333
0.56838235 1 0.87941176
0.69607843 1 0.86372549
0.85980392 1 0.84411765
1 0.99313725 0.8127451
0 0 0.71372549
0.00686275 0 0.6745098
0.22352941 0 0.63921569
0.45686275 0 0.6
0.6745098 0 0.56078431
0 0.0372549 0.75196078
0.05686275 0.02254902 0.73235294
0.24264706 0 0.69313725
0.45196078 0 0.65098039
0.65882353 0 0.61568627
0.09411765 0.4254902 0.8627451
0.19264706 0.41764706 0.85294118
0.39411765 0.38333333 0.82156863
0.5872549 0.3127451 0.77598039
0.73333333 0.14313725 0.70588235
0.25686275 0.7627451 0.96862745
0.34509804 0.75882353 0.96102941
0.52058824 0.74705882 0.94166667
0.70784314 0.72352941 0.91372549
0.89509804 0.66568627 0.87156863
0.51764706 1 1
0.55980392 1 1
0.66470588 1 1
0.8127451 1 1
1 1 1
