Kodak Converted/Kodak Elite Chrome 400.cube
# Exported with LUT Lab 1.2.1
# LUTLab.com
TITLE Kodak Elite Chrome 400
LUT_3D_SIZE 33
0 0 0
0.00968137 0 0
0.01960784 0 0
0.03688725 0 0
0.05441176 0 0
0.07585784 0 0
0.09264706 0 0
0.10808824 0 0
0.13235294 0 0
0.15379902 0 0
0.17916667 0 0
0.20514706 0.00392157 0
0.23627451 0.00392157 0
0.26740196 0.00428922 0
0.29509804 0.00784314 0
0.33357843 0.01176471 0
0.37254902 0.01176471 0
0.41531863 0.01568627 0
0.45833333 0.01960784 0
0.50085784 0.02352941 0
0.54019608 0.02745098 0
0.56470588 0.03137255 0
0.60245098 0.03651961 0
0.63357843 0.04227941 0
0.66372549 0.04411765 0
0.69191176 0.04987745 0
0.72303922 0.05490196 0
0.75416667 0.05882353 0
0.78529412 0.0627451 0
0.81801471 0.06666667 0
0.85122549 0.07058824 0
0.88259804 0.0745098 0
0.91372549 0.08235294 0
0.0057598 0.01752451 0
0.02144608 0.01360294 0
0.03688725 0.01360294 0
0.05441176 0.01360294 0
0.07401961 0.01360294 0
0.09154412 0.00968137 0
0.10906863 0.00968137 0
0.12619868 0.00968137 0
0.14987745 0.00968137 0
0.17218137 0.00968137 0
0.19669118 0.00784314 0
0.22267157 0.0057598 0
0.25265012 0.0057598 0
0.28289292 0.00784314 0
0.31158854 0.01004902 0
0.34926471 0.01176471 0
0.38719363 0.01176471 0
0.42720588 0.01568627 0
0.47090227 0.02132353 0
0.51090686 0.02352941 0
0.54803922 0.02892157 0
0.57438725 0.03137255 0
0.61029412 0.03778339 0
0.63979396 0.04313725 0
0.66862745 0.04411765 0
0.69693627 0.05098039 0
0.72696078 0.05490196 0
0.75808824 0.05882353 0
0.78921569 0.0627451 0
0.82034314 0.06666667 0
0.85147059 0.07083333 0
0.88259804 0.07659314 0
0.91372549 0.08235294 0
0.01936275 0.03504902 0.00392157
0.02917433 0.03504902 0.00367647
0.04656863 0.03481924 0
0.06409314 0.03112745 0
0.08183211 0.03112745 0
0.09938725 0.03112745 0
0.11691176 0.02789522 0
0.13536305 0.02720588 0
0.15955882 0.02720588 0
0.18205423 0.02615656 0
0.20654105 0.02328431 0
0.23570006 0.02328431 0
0.2635723 0.02328431 0
0.29426317 0.01936275 0
0.32230392 0.01936275 0
0.35710784 0.01568627 0
0.39583333 0.01544118 0
0.43504136 0.01924786 0
0.47780331 0.02339154 0
0.51691176 0.02352941 0
0.55196078 0.02892157 0
0.57647059 0.03137255 0
0.61413909 0.03921569 0
0.6422258 0.04313725 0
0.67156863 0.04705882 0
0.6997549 0.05098039 0
0.73088235 0.05490196 0
0.7620098 0.05882353 0
0.79310662 0.0627451 0
0.82426471 0.06666667 0
0.85537684 0.07083333 0
0.8863894 0.07659314 0
0.91740196 0.08235294 0
0.03296569 0.06041667 0.00784314
0.04264706 0.05808824 0.00784314
0.05475643 0.05808824 0.00551471
0.06985294 0.0564951 0.00392157
0.08970588 0.05445772 0.00392157
0.10723039 0.05416667 0.00392157
0.1247549 0.05257353 0.00392157
0.14170879 0.05191866 0.00159314
0.16706495 0.0502451 0
0.19068627 0.04865196 0
0.21555607 0.04865196 0
0.24399893 0.04632353 0
0.27216605 0.04473039 0
0.30269608 0.04473039 0
0.33198529 0.04342065 0
0.36887255 0.04073606 0
0.40551471 0.03572304 0
0.44448529 0.03296569 0
0.48447457 0.02904412 0
0.52242647 0.02723269 0
0.55588235 0.03137255 0
0.58198529 0.03529412 0
0.61740962 0.03921569 0
0.64534314 0.04313725 0
0.67374387 0.04705882 0
0.70367647 0.05098039 0
0.73406863 0.05490196 0
0.76255744 0.05882353 0
0.79313725 0.0627451 0
0.82426471 0.06666667 0
0.85539216 0.07083333 0
0.88651961 0.07659314 0
0.91764706 0.08235294 0
0.04656863 0.08529412 0.01568627
0.05833333 0.08186275 0.01519608
0.06663603 0.08186275 0.01176471
0.07953431 0.08137255 0.01176471
0.09705882 0.07794118 0.01127451
0.11458333 0.07794118 0.00784314
0.13210784 0.07745098 0.00784314
0.15087316 0.07648591 0.00770527
0.175 0.07401961 0.00735294
0.19768689 0.07352941 0.00392157
0.22466299 0.07117034 0.00392157
0.25212929 0.07009804 0.00343137
0.28069853 0.07009804 0
0.31053922 0.06960784 0
0.34166667 0.06617647 0
0.37682292 0.0622549 0
0.41568627 0.06176471 0
0.45464154 0.05833333 0
0.49362745 0.0541973 0
0.53210784 0.04689032 0
0.56354167 0.03872549 0
0.5877451 0.03529412 0
0.62083333 0.03921569 0
0.64926471 0.04313725 0
0.67647059 0.04705882 0
0.70724571 0.05098039 0
0.73480392 0.05490196 0
0.76593137 0.06139706 0
0.79705882 0.06323529 0
0.82818627 0.06870404 0
0.85928309 0.07405025 0
0.88835784 0.07843137 0
0.91764706 0.08235294 0
0.06409314 0.10723039 0.02745098
0.07314262 0.10465686 0.02487745
0.07977941 0.10465686 0.02487745
0.09154412 0.10330882 0.02248392
0.10281863 0.10330882 0.02095588
0.11945849 0.10073529 0.01872319
0.13995864 0.09938725 0.01703431
0.1572189 0.09866345 0.01568627
0.18268995 0.0958027 0.01311275
0.20669041 0.09546569 0.01176471
0.2332644 0.09289216 0.0099954
0.26004902 0.09268153 0.00898055
0.28956801 0.09154412 0.00526961
0.31973039 0.09154412 0.00392157
0.34855239 0.08821232 0.00392157
0.38590686 0.08500689 0.00130591
0.42420343 0.08370098 0
0.46380591 0.07982154 0
0.50281863 0.07661612 0
0.54044118 0.07206265 0
0.57060355 0.06493566 0
0.5935049 0.05759804 0
0.62517616 0.04718137 0
0.65318627 0.04313725 0
0.68039216 0.04705882 0
0.70966988 0.05098039 0
0.73872549 0.05515472 0
0.76985294 0.06139706 0
0.8006587 0.06323529 0
0.83057981 0.0689951 0
0.85931373 0.0745098 0
0.89044118 0.07843137 0
0.92156863 0.08235294 0
0.08161765 0.13259804 0.03921569
0.08946078 0.13225337 0.03848039
0.09730392 0.13186275 0.03848039
0.1067402 0.13186275 0.03455882
0.11642157 0.12867647 0.03455882
0.13002451 0.12794118 0.03063725
0.14814645 0.12794118 0.02804841
0.16638327 0.1247549 0.02671569
0.19117647 0.12401961 0.02352941
0.21596967 0.12083333 0.02279412
0.24168199 0.12009804 0.01960784
0.27058058 0.11960018 0.01568627
0.30021446 0.11691176 0.01295956
0.33007812 0.11617647 0.01169577
0.35923713 0.1129902 0.00923713
0.39632353 0.10906863 0.00710784
0.43455882 0.10833333 0.00392157
0.47352941 0.10514706 0.00009957
0.5125 0.10122549 0
0.54754902 0.09663756 0
0.57913603 0.09145221 0
0.60318627 0.08480392 0
0.63359375 0.07354473 0
0.66045496 0.06213235 0
0.68431373 0.05098039 0
0.71262255 0.05098039 0
0.74264706 0.05563725 0
0.77329197 0.06249234 0
0.80376838 0.06323529 0
0.83340227 0.0689951 0
0.86323529 0.0745098 0
0.89397212 0.07843137 0
0.92156863 0.08235294 0
0.1002451 0.15625 0.04926471
0.10416667 0.15625 0.04816176
0.11176471 0.15625 0.04816176
0.11919807 0.15343137 0.04534314
0.12769608 0.1524663 0.0442402
0.14080882 0.15232843 0.04142157
0.15723039 0.1495098 0.03802849
0.17585784 0.14840686 0.0371898
0.20012255 0.14629289 0.03357843
0.2254902 0.14448529 0.03185892
0.25161612 0.14254749 0.02855392
0.28031939 0.14056373 0.02463235
0.30837929 0.14056373 0.02071078
0.33909314 0.13664216 0.01678922
0.36727175 0.13443627 0.01458333
0.40526961 0.13259804 0.01176471
0.44283088 0.12879902 0.00894608
0.4831227 0.12487745 0.00502451
0.5182598 0.12095588 0.00268842
0.55330882 0.11703431 0
0.58443627 0.10919118 0
0.60894608 0.10526961 0
0.64078585 0.09544271 0
0.66605392 0.08566176 0
0.69227941 0.07291667 0
0.71764706 0.05852099 0
0.74656863 0.05653339 0
0.77584635 0.0627451 0
0.80586703 0.06666667 0
0.83602941 0.07058824 0
0.8669807 0.0745098 0
0.89487975 0.07843137 0
0.9254902 0.08235294 0
0.12058824 0.19411765 0.0627451
0.12634804 0.19117647 0.06228554
0.13235294 0.19019608 0.06176471
0.13786765 0.19019608 0.06176471
0.14803922 0.19019608 0.05882353
0.16115196 0.18691789 0.05784314
0.1747549 0.18627451 0.05410539
0.18734681 0.1854473 0.05309436
0.21372549 0.18235294 0.05
0.23909314 0.18235294 0.04607843
0.26446078 0.17843137 0.04215686
0.29390319 0.1754902 0.03823529
0.32193627 0.1745098 0.03468137
0.35269608 0.17058824 0.03039216
0.38082108 0.16709559 0.02689951
0.41887255 0.16372549 0.02245711
0.45637255 0.16127451 0.01715686
0.49387255 0.15597426 0.01176471
0.53057598 0.15153186 0.00784314
0.56308211 0.14705882 0.00392157
0.59301471 0.13982843 0.00183824
0.61568627 0.13235294 0
0.64828431 0.12420343 0
0.67594975 0.11590074 0
0.70220588 0.10465686 0
0.72803309 0.0924326 0
0.75422794 0.07671569 0
0.78097426 0.06375613 0
0.80882353 0.06666667 0
0.83995098 0.07058824 0
0.87083333 0.0745098 0
0.89828431 0.07843137 0
0.92941176 0.08235294 0
0.12156863 0.2252451 0.0745098
0.12732843 0.2252451 0.0745098
0.13333333 0.2252451 0.07144608
0.14276961 0.2252451 0.07144608
0.15294118 0.2252451 0.07058824
0.16605392 0.22132353 0.06752451
0.18051471 0.22132353 0.06682751
0.19852558 0.22022059 0.06360294
0.22570466 0.21740196 0.0604473
0.24963235 0.21673177 0.05882353
0.27683824 0.21348039 0.05517004
0.30404412 0.20955882 0.05098039
0.33517157 0.20955882 0.04738051
0.3662186 0.20563725 0.04285003
0.3939951 0.20171569 0.03749234
0.43247549 0.19779412 0.03220358
0.46905637 0.19387255 0.02591912
0.5064951 0.18995098 0.02056143
0.54116881 0.18210784 0.01568627
0.57189415 0.17740885 0.01176471
0.59987745 0.16887255 0.00669424
0.62352941 0.1625 0.00392157
0.65612745 0.15073529 0
0.68216529 0.14356235 0
0.70848652 0.13406863 0
0.73676854 0.12046569 0
0.7629519 0.10686275 0
0.78975567 0.09039139 0
0.8162837 0.07219669 0
0.84387255 0.07058824 0
0.8747549 0.0745098 0
0.90220588 0.07843137 0
0.93333333 0.08235294 0
0.12426471 0.26421569 0.08897059
0.12876072 0.26421569 0.08627451
0.13333333 0.2629902 0.08504902
0.14276961 0.26029412 0.08504902
0.15637255 0.26029412 0.08504902
0.16997549 0.26029412 0.08112745
0.19019608 0.25687806 0.08112745
0.20992647 0.25637255 0.07720588
0.2370098 0.25637255 0.07359069
0.26323529 0.25245098 0.07058824
0.29044118 0.25160846 0.06936275
0.31764706 0.24852941 0.06501991
0.34877451 0.24561887 0.05983456
0.3796492 0.2431296 0.05478707
0.40759804 0.23999694 0.05147059
0.44607843 0.23545496 0.04571078
0.48235294 0.23026961 0.0379902
0.52009804 0.225 0.03018536
0.55122549 0.21867341 0.02352941
0.58235294 0.20968137 0.01849724
0.60955882 0.20147059 0.01176471
0.63137255 0.19362745 0.00784314
0.66312806 0.18270527 0.00392157
0.68907016 0.17428768 0
0.71770833 0.16317402 0
0.7459329 0.15159314 0
0.7722886 0.1379902 0
0.7982307 0.12438725 0
0.82435662 0.10401348 0
0.85098805 0.08381587 0
0.87867647 0.0745098 0
0.90612745 0.07843137 0
0.93602941 0.08235294 0
0.12487745 0.29987745 0.09865196
0.12908624 0.29959023 0.09865196
0.1372549 0.29926471 0.09807751
0.14730392 0.29926471 0.09803922
0.16482843 0.29926471 0.09473039
0.18235294 0.29926471 0.09451976
0.20379902 0.29595588 0.09142923
0.22335708 0.29534314 0.09063649
0.25061275 0.29534314 0.08688725
0.27683824 0.29190028 0.08296569
0.30404412 0.29142157 0.08007812
0.33125 0.288017 0.07512255
0.36199449 0.28543199 0.07244179
0.39344746 0.28357843 0.06727941
0.42120098 0.27992494 0.06301317
0.45968137 0.27573529 0.05872013
0.49803922 0.27181373 0.05159314
0.52977941 0.26468673 0.04375
0.56276808 0.25833333 0.03590686
0.59147901 0.24865196 0.02806373
0.61901042 0.24044118 0.01999081
0.63982843 0.23259804 0.01568627
0.67200521 0.21960784 0.0082644
0.69766008 0.20992647 0.00392157
0.72398897 0.19632353 0
0.75227865 0.18509881 0
0.78124234 0.17303922 0
0.80689721 0.15551471 0
0.83288909 0.1379902 0
0.85980775 0.11813725 0
0.88341759 0.09505974 0
0.91033624 0.08235294 0
0.94117647 0.08235294 0
0.13186275 0.34068627 0.1122549
0.13970588 0.34068627 0.1122549
0.14754902 0.34068627 0.1122549
0.16090686 0.34068627 0.10980392
0.17843137 0.33823529 0.10833333
0.19595588 0.33823529 0.10833333
0.21740196 0.33823529 0.1046875
0.23713235 0.33676471 0.10441176
0.26421569 0.33431373 0.1004902
0.29044118 0.33431373 0.09656863
0.31764706 0.33115809 0.09310662
0.34485294 0.33039216 0.0899663
0.37598039 0.32738971 0.08535539
0.40710784 0.325 0.08088235
0.43872549 0.32172181 0.07558211
0.47720588 0.3185815 0.06911765
0.50980392 0.31397059 0.06323529
0.54338235 0.30693934 0.05497855
0.5734375 0.30039828 0.04779412
0.60185355 0.29140625 0.03944547
0.62800245 0.28278186 0.03082108
0.6495098 0.27401961 0.02598039
0.68042279 0.26148897 0.01568627
0.70693934 0.24889706 0.00837929
0.73321078 0.23590686 0.00392157
0.76144301 0.22169118 0
0.78943015 0.20808824 0
0.81775429 0.19217218 0
0.84393382 0.17303922 0
0.86839767 0.15318627 0
0.89451593 0.13014706 0
0.91904105 0.10399816 0
0.94509804 0.08627451 0
0.15367647 0.38504902 0.12585784
0.1613243 0.38504902 0.1238243
0.16911765 0.38504902 0.12193627
0.18090916 0.3814951 0.12193627
0.19595588 0.3814951 0.12193627
0.20955882 0.3814951 0.11801471
0.2310049 0.3814951 0.11801471
0.25073529 0.38112745 0.11409314
0.27781863 0.37757353 0.1138174
0.30404412 0.37757353 0.11017157
0.3323606 0.37720588 0.10625
0.36176471 0.37365196 0.10232843
0.38958333 0.37328431 0.09840686
0.42459789 0.36969593 0.09378447
0.45232843 0.36736366 0.08835784
0.49080882 0.36188725 0.08224188
0.52371324 0.35796569 0.07469363
0.55317479 0.35368796 0.06714537
0.58403033 0.34604013 0.05919118
0.61106388 0.33835784 0.05168122
0.63690257 0.32904412 0.0435049
0.65882353 0.32230392 0.03566176
0.68897825 0.30942862 0.02634038
0.7160118 0.29607843 0.01683134
0.74341299 0.28247549 0.01087623
0.77044654 0.26876915 0.00402497
0.79784773 0.25134804 0
0.82634421 0.23382353 0
0.85543811 0.21548713 0
0.87931602 0.19237515 0
0.90279565 0.16911765 0
0.92794118 0.14186198 0
0.95294118 0.11090686 0
0.16691176 0.42279412 0.13553922
0.1747549 0.42279412 0.13473499
0.18249081 0.42279412 0.13382353
0.19334406 0.42279412 0.13382353
0.20784314 0.42279412 0.13161765
0.22536765 0.42279412 0.12990196
0.24681373 0.42279412 0.12810968
0.26544118 0.42279412 0.12598039
0.29307598 0.42107843 0.12377451
0.3193704 0.41887255 0.11985294
0.34705882 0.41887255 0.11662071
0.37426471 0.41715686 0.11387102
0.40539216 0.41495098 0.10891544
0.43651961 0.41323529 0.10416667
0.46813725 0.41006434 0.09928002
0.50435815 0.40539216 0.09240196
0.53553922 0.40147059 0.08651961
0.56286765 0.39754902 0.07897518
0.59215686 0.38970588 0.07107843
0.61752451 0.38202359 0.06339614
0.64436275 0.3731924 0.05456495
0.66495098 0.36617647 0.04754902
0.69754902 0.35441176 0.03627451
0.72291667 0.3431296 0.02621783
0.75220588 0.32990196 0.01691176
0.78039216 0.31458333 0.01004902
0.80759804 0.29877451 0.00359988
0.83480392 0.28012408 0
0.86393995 0.25980392 0
0.89011183 0.23443627 0
0.9125 0.20893076 0
0.93762255 0.1814951 0
0.9629902 0.15220588 0
0.18835784 0.47083333 0.14914216
0.19625843 0.47083333 0.14914216
0.20392157 0.47083333 0.14901961
0.21585861 0.47083333 0.14522059
0.2310049 0.47083333 0.14522059
0.24852941 0.47083333 0.14509804
0.26605392 0.47083333 0.14129902
0.28578431 0.47083333 0.14019608
0.31286765 0.47083333 0.13737745
0.33823529 0.47083333 0.13345588
0.36629902 0.47083333 0.12953431
0.3935049 0.46703431 0.12561275
0.42463235 0.46703431 0.12169118
0.4557598 0.46702282 0.11776961
0.48345588 0.46477482 0.11164216
0.51801088 0.46287148 0.10600107
0.5471201 0.45723039 0.10006127
0.57622932 0.45147059 0.09412148
0.6017693 0.44742647 0.08461244
0.62719439 0.43995098 0.07844286
0.65399816 0.43181679 0.0691636
0.67463235 0.42401961 0.0627451
0.70714614 0.41482843 0.04987745
0.73553922 0.40428922 0.03924249
0.76179534 0.39154412 0.02754289
0.78998545 0.37794118 0.01964231
0.81725643 0.36043964 0.01105239
0.84579121 0.34289216 0.00392157
0.87501532 0.32155331 0
0.90274586 0.29774433 0
0.92609528 0.27046569 0
0.95116805 0.23755744 0
0.97267157 0.20428922 0
0.21960784 0.50980392 0.16078431
0.22536765 0.50980392 0.16078431
0.23321078 0.50980392 0.15882353
0.24393382 0.50980392 0.15882353
0.25661765 0.50980392 0.15710784
0.27389706 0.50980392 0.15490196
0.29142157 0.50980392 0.15490196
0.30863971 0.50980392 0.15098039
0.33578431 0.50980392 0.14901961
0.36011029 0.50980392 0.1466299
0.38639706 0.50980392 0.14313725
0.41495098 0.50980392 0.13921569
0.44362745 0.50980392 0.13406863
0.47328431 0.50980392 0.12922794
0.49877451 0.50980392 0.12438725
0.5314951 0.50588235 0.11948529
0.55784314 0.50490196 0.11176471
0.5841299 0.50196078 0.10398284
0.61041667 0.49718137 0.09718137
0.63670343 0.49234069 0.08860294
0.6629902 0.48676471 0.08161765
0.68235294 0.48039216 0.07254902
0.71556373 0.47132353 0.06017157
0.74338235 0.46121324 0.05140931
0.77009804 0.45 0.04019608
0.79834559 0.43639706 0.02800245
0.82659314 0.42083333 0.01727941
0.85484069 0.40398284 0.00851716
0.88308824 0.38382353 0.00171569
0.91133578 0.36237745 0
0.93946078 0.33284314 0
0.96194853 0.29871324 0
0.98627451 0.26078431 0
0.25073529 0.54105392 0.17634804
0.25857843 0.54485294 0.17634804
0.26617647 0.54485294 0.17634804
0.27585784 0.54485294 0.17634804
0.28613664 0.54485294 0.17242647
0.30306373 0.54485294 0.17238434
0.32058824 0.54485294 0.1685049
0.33648514 0.54485294 0.16458333
0.36253064 0.54485294 0.16164216
0.38504902 0.54485294 0.15983073
0.41037837 0.54485294 0.15412837
0.43637791 0.54485294 0.15222503
0.46360294 0.54497549 0.14652267
0.49044118 0.54497549 0.14105392
0.5125 0.54485294 0.13713235
0.54141774 0.54485294 0.12928922
0.56856618 0.54485294 0.12346814
0.59203048 0.54093137 0.11752451
0.61906403 0.54087776 0.10968137
0.64276961 0.5370098 0.10183824
0.66956189 0.53304228 0.09252451
0.69019608 0.52916667 0.08615196
0.72270987 0.52393536 0.07320006
0.75112975 0.51727941 0.06348039
0.77840074 0.50845588 0.05094975
0.80670573 0.49758349 0.04019608
0.83592984 0.48504902 0.027428
0.86389017 0.46752451 0.01699219
0.89116115 0.45 0.00782782
0.9199257 0.42629825 0
0.94914982 0.40294118 0
0.97457491 0.36789216 0
0.99987745 0.32892157 0
0.28970588 0.57598039 0.19779412
0.29362745 0.57598039 0.19779412
0.30122549 0.57598039 0.19779412
0.30931373 0.57598039 0.19558824
0.32058824 0.57598039 0.19387255
0.33419118 0.57598039 0.19166667
0.35171569 0.57598039 0.18995098
0.36642157 0.5766008 0.18602941
0.39025735 0.57947304 0.18210784
0.41079197 0.57990196 0.17818627
0.43509498 0.57990196 0.17426471
0.45749847 0.57990196 0.16786918
0.48259804 0.57990196 0.1625
0.50796569 0.57990196 0.15465686
0.52893689 0.57990196 0.14977022
0.55484835 0.57990196 0.14283854
0.57928922 0.57990196 0.13504902
0.60373009 0.57598039 0.12946538
0.62792586 0.57598039 0.12156863
0.65216759 0.57242647 0.11388634
0.67852328 0.57205882 0.10367647
0.6997549 0.56813725 0.09583333
0.73117341 0.56421569 0.08676471
0.75906863 0.56066942 0.07622549
0.78572304 0.55582108 0.06403186
0.81396293 0.54901195 0.05208333
0.84208027 0.53848039 0.03880208
0.87181373 0.52806373 0.02600337
0.89901961 0.5122549 0.01519608
0.92883732 0.49301471 0.00551471
0.95721507 0.46911765 0
0.98536305 0.4379902 0
1 0.40073529 0
0.3247549 0.60710784 0.2192402
0.33240273 0.60710784 0.2192402
0.33651961 0.60710784 0.2192402
0.34595588 0.60710784 0.21887255
0.35563725 0.60742953 0.21531863
0.3692402 0.60747549 0.21495098
0.38284314 0.61102941 0.21139706
0.39754902 0.61102941 0.21002987
0.41789216 0.61102941 0.20710784
0.43578431 0.61102941 0.20240885
0.45723039 0.61102941 0.19571078
0.47867647 0.61102941 0.19173177
0.50012255 0.61102941 0.18394608
0.52156863 0.61102941 0.17610294
0.54150582 0.61102941 0.16997549
0.56838235 0.61102941 0.15993796
0.59001225 0.61102941 0.15042892
0.61508502 0.61102941 0.14093137
0.636803 0.60947457 0.13317249
0.6620098 0.60710784 0.1254902
0.68751532 0.60710784 0.11750919
0.70943627 0.60318627 0.10980392
0.73959099 0.60318627 0.09792433
0.76662454 0.59926471 0.08676471
0.79402574 0.59534314 0.07708333
0.82132353 0.59115732 0.06348039
0.84852941 0.58357843 0.05091146
0.87941559 0.57695695 0.03664216
0.90681679 0.56703431 0.02303922
0.93551241 0.55343137 0.01320849
0.96460631 0.5353171 0.00367647
0.99406786 0.50828355 0
1 0.47659314 0
0.36372549 0.64068627 0.24215686
0.36764706 0.64068627 0.24215686
0.37156863 0.64068627 0.24068627
0.37941176 0.64215686 0.24068627
0.3872549 0.64215686 0.24068627
0.39986213 0.64215686 0.23676471
0.41050858 0.64215686 0.23477328
0.42328431 0.64215686 0.23284314
0.44117647 0.64215686 0.22892157
0.45870098 0.64215686 0.225
0.47791054 0.64215686 0.22107843
0.49620098 0.64215686 0.2144761
0.51617647 0.64215686 0.20931373
0.53540135 0.64215686 0.20147059
0.55490196 0.64215686 0.19534314
0.57814032 0.64215686 0.18328738
0.60073529 0.64215686 0.1747549
0.6248315 0.64215686 0.16237745
0.64739583 0.64215686 0.1502451
0.67155331 0.64215686 0.13909314
0.69613971 0.63823529 0.13033088
0.71764706 0.63823529 0.12303922
0.74754902 0.6370098 0.11081495
0.77507659 0.63431373 0.10004596
0.80134804 0.63039216 0.08921569
0.82958027 0.62688419 0.07666973
0.85637255 0.62254902 0.06348039
0.88408395 0.61862745 0.04987745
0.91207108 0.61047794 0.03480392
0.94191176 0.60148591 0.02020527
0.97049632 0.58848039 0.00784314
0.99816176 0.57095588 0
1 0.54705882 0
0.39215686 0.66666667 0.2627451
0.3939951 0.66666667 0.2627451
0.3997549 0.66666667 0.2627451
0.40392157 0.66666667 0.25882353
0.41176471 0.66666667 0.25882353
0.42095588 0.66666667 0.25490196
0.43455882 0.66666667 0.25490196
0.4442402 0.66666667 0.25098039
0.45882353 0.66666667 0.24803922
0.47536765 0.67058824 0.24313725
0.49289216 0.67058824 0.23921569
0.51041667 0.67058824 0.23529412
0.52794118 0.67058824 0.22892157
0.54938725 0.67058824 0.22316176
0.56519608 0.67058824 0.21348039
0.58835784 0.67058824 0.20772059
0.60980392 0.67058824 0.19607843
0.63125 0.67058824 0.18443627
0.65661765 0.66666667 0.1747549
0.67806373 0.66666667 0.16115196
0.70343137 0.66666667 0.14362745
0.7254902 0.66666667 0.13333333
0.75416667 0.6627451 0.12034314
0.78259804 0.6627451 0.11066176
0.80882353 0.65882353 0.09803922
0.83419118 0.6560049 0.08737745
0.86348039 0.65416667 0.07377451
0.89142157 0.64840686 0.06017157
0.91862745 0.64264706 0.04264706
0.94583333 0.63529412 0.02745098
0.97671569 0.62720588 0.01544118
1 0.61360294 0.00392157
1 0.59607843 0
0.42598039 0.70441176 0.29142157
0.42867647 0.70441176 0.29015778
0.43259804 0.70441176 0.28872549
0.43701746 0.70441176 0.28822763
0.44402574 0.70441176 0.2875
0.45043658 0.70441176 0.28480392
0.46004902 0.70441176 0.28357843
0.4689951 0.70441176 0.28053768
0.48290441 0.70710784 0.27696078
0.49620098 0.70710784 0.27303922
0.51372549 0.70710784 0.26911765
0.52732843 0.70833333 0.26397059
0.54485294 0.70833333 0.25836397
0.56507353 0.70833333 0.25195312
0.58210784 0.70833333 0.24607843
0.60404412 0.70833333 0.23643536
0.62414216 0.70833333 0.22732843
0.6442402 0.70833333 0.21695006
0.66838235 0.70833333 0.2058364
0.69093903 0.70722273 0.19349724
0.71565564 0.70441176 0.17745098
0.73455882 0.70441176 0.16323529
0.76407782 0.70441176 0.14240196
0.79070925 0.70441176 0.12365196
0.81697304 0.7004902 0.11004902
0.84291513 0.7004902 0.09838388
0.87132353 0.69656863 0.08553922
0.8974954 0.69264706 0.0710095
0.92613358 0.68823529 0.05563725
0.95367647 0.68088235 0.03811275
0.98203125 0.67303922 0.02328431
1 0.66311275 0.00968137
1 0.65073529 0
0.45012255 0.73553922 0.31593137
0.45358839 0.73553922 0.31593137
0.45691636 0.73553922 0.31593137
0.46137791 0.73553922 0.31286765
0.46580882 0.73553922 0.31286765
0.47365196 0.73553922 0.3120098
0.48133425 0.73553922 0.30894608
0.49044118 0.73639706 0.30722656
0.50404412 0.73639706 0.30416667
0.51611903 0.73639706 0.3002451
0.53125 0.73946078 0.29632353
0.54485294 0.73946078 0.28933824
0.56237745 0.73946078 0.28488051
0.57990196 0.73946078 0.27749311
0.59571078 0.73946078 0.27144608
0.61497779 0.73946078 0.26482843
0.63639706 0.73946078 0.25514706
0.65784314 0.73946078 0.24536994
0.67928922 0.73946078 0.23406097
0.70151271 0.73946078 0.22218137
0.72610294 0.73946078 0.20857843
0.7442402 0.73946078 0.19522059
0.77318474 0.73946078 0.17352941
0.7989545 0.73572687 0.15294118
0.8245098 0.73553922 0.12965686
0.84963618 0.73553922 0.10674403
0.87598039 0.73161765 0.09338235
0.90423943 0.72769608 0.07977941
0.93039216 0.72377451 0.06531863
0.95884268 0.71985294 0.04779412
0.98848039 0.7120098 0.03032322
1 0.70416667 0.01666667
1 0.69240196 0.00392157
0.47254902 0.76568627 0.34313725
0.4754902 0.76568627 0.34313725
0.47941176 0.76568627 0.34313725
0.48333333 0.76666667 0.34215686
0.4872549 0.76666667 0.33958333
0.49509804 0.76666667 0.33921569
0.50220588 0.76666667 0.33584559
0.50977328 0.76666667 0.33501838
0.52156863 0.76666667 0.33137255
0.53431373 0.76666667 0.32745098
0.54607843 0.76666667 0.32352941
0.56237745 0.76960784 0.31816789
0.57598039 0.76960784 0.31286765
0.5935049 0.76960784 0.30775123
0.60931373 0.77058824 0.30128676
0.62855392 0.77058824 0.29212623
0.65 0.77058824 0.28382353
0.67037377 0.77058824 0.27552083
0.69025735 0.77058824 0.26427696
0.71308211 0.77058824 0.25321691
0.73578431 0.77058824 0.23970588
