Kodak Converted/Kodak Portra 160.cube
# Exported with LUT Lab 1.2.1
# LUTLab.com
TITLE Kodak Portra 160 2
LUT_3D_SIZE 5
0.00392157 0.00784314 0.00784314
0.19019608 0.00882353 0.00392157
0.58627451 0 0
0.85784314 0 0
1 0.16862745 0
0 0.18921569 0
0.16740196 0.21053922 0
0.63431373 0.27696078 0
0.86446078 0.2872549 0
1 0.33529412 0
0 0.49607843 0
0.16813725 0.48039216 0
0.50686275 0.53235294 0
0.82941176 0.58970588 0
1 0.57254902 0
0.2627451 0.70490196 0.05
0.33063725 0.69607843 0.0129902
0.50441176 0.6995098 0
0.7245098 0.73995098 0.0502451
1 0.79803922 0
0.5372549 0.94117647 0.44313725
0.56470588 0.94117647 0.44019608
0.64509804 0.9372549 0.43921569
0.78921569 0.95980392 0.4627451
0.96078431 0.98431373 0.49803922
0 0.01960784 0.22058824
0.2120098 0.00392157 0.2245098
0.61323529 0 0.24019608
0.84044118 0 0.21740196
1 0.15980392 0.21568627
0 0.25122549 0.22769608
0.23621324 0.25061275 0.23664216
0.61642157 0.2439951 0.22401961
0.84957108 0.26525735 0.20490196
1 0.33112745 0.2004902
0.09313725 0.54852941 0.25196078
0.26017157 0.52659314 0.23272059
0.53210784 0.5495098 0.23235294
0.8370098 0.58357843 0.17916667
1 0.56715686 0.13039216
0.31985294 0.72279412 0.29117647
0.375 0.71286765 0.27689951
0.51041667 0.70036765 0.2504902
0.72892157 0.74442402 0.29613971
1 0.79656863 0.29044118
0.54117647 0.94509804 0.49803922
0.56862745 0.94142157 0.49485294
0.64656863 0.94117647 0.48921569
0.78946078 0.95710784 0.50906863
0.96372549 0.98431373 0.54411765
0 0.05686275 0.6
0.275 0.0622549 0.60931373
0.63333333 0.10980392 0.61862745
0.86960784 0.27647059 0.60196078
1 0.34117647 0.57647059
0 0.29901961 0.59117647
0.30710784 0.31752451 0.60257353
0.62352941 0.36397059 0.61176471
0.84816176 0.42794118 0.60269608
1 0.42058824 0.57156863
0.09901961 0.61372549 0.58627451
0.34705882 0.60980392 0.5875
0.59264706 0.59166667 0.58480392
0.80514706 0.57867647 0.56397059
1 0.5745098 0.54607843
0.41960784 0.7745098 0.56715686
0.47622549 0.76887255 0.57022059
0.56421569 0.73357843 0.5379902
0.74436275 0.75759804 0.5564951
1 0.79166667 0.55245098
0.56470588 0.95686275 0.62941176
0.5877451 0.95343137 0.62598039
0.65392157 0.95196078 0.61176471
0.78627451 0.95784314 0.60980392
0.96470588 0.98431373 0.64509804
0.27647059 0.2254902 0.81666667
0.41789216 0.24803922 0.81666667
0.6377451 0.32892157 0.81862745
0.83946078 0.42622549 0.82058824
1 0.52254902 0.8127451
0.3379902 0.40367647 0.80563725
0.44742647 0.41936275 0.80698529
0.64080882 0.46960784 0.81237745
0.83155637 0.52935049 0.81666667
1 0.59019608 0.81495098
0.33921569 0.59215686 0.77843137
0.45012255 0.60551471 0.78492647
0.63578431 0.63504902 0.79460784
0.81960784 0.67316176 0.80747549
1 0.70931373 0.81813725
0.45465686 0.81544118 0.79019608
0.51378676 0.81746324 0.79313725
0.63946078 0.80833333 0.79056373
0.80490196 0.79332108 0.78811275
1 0.77843137 0.76985294
0.6245098 0.98039216 0.79313725
0.64583333 0.97818627 0.79166667
0.70294118 0.97647059 0.78970588
0.79705882 0.96789216 0.76568627
0.98039216 0.99215686 0.79313725
0.54117647 0.52156863 0.98823529
0.58431373 0.53039216 0.98823529
0.69607843 0.56666667 0.98823529
0.83627451 0.61666667 0.98431373
0.99215686 0.65882353 0.98431373
0.56764706 0.59411765 0.98823529
0.60465686 0.5997549 0.98504902
0.70539216 0.62254902 0.98431373
0.84313725 0.66176471 0.98333333
0.98823529 0.69215686 0.98333333
0.58627451 0.70392157 0.98431373
0.61862745 0.70392157 0.98382353
0.71568627 0.71862745 0.98333333
0.85 0.74313725 0.98235294
0.99215686 0.77058824 0.98431373
0.55392157 0.82156863 0.98039216
0.58897059 0.82058824 0.98039216
0.68431373 0.81666667 0.98431373
0.85294118 0.84117647 0.98529412
0.99607843 0.8754902 0.98823529
0.63529412 1 0.98823529
0.66568627 1 0.98823529
0.74509804 1 0.99019608
0.86470588 1 0.99215686
1 1 1
