Kodak Converted/Kodak Portra 800.cube
# Exported with LUT Lab 1.2.1
# LUTLab.com
TITLE Kodak Portra 800 2
LUT_3D_SIZE 5
0.01568627 0.01960784 0.01960784
0.20980392 0.03137255 0.01568627
0.6254902 0 0
0.96372549 0 0
1 0.16862745 0
0 0.18529412 0.04705882
0.15588235 0.21446078 0.00563725
0.61666667 0.25980392 0
0.94289216 0.30294118 0
1 0.35784314 0
0 0.45490196 0.04509804
0 0.45294118 0.03480392
0.4872549 0.54411765 0
0.87647059 0.61372549 0
1 0.61568627 0
0 0.73235294 0.07058824
0 0.72671569 0.06078431
0.36470588 0.74705882 0
0.75098039 0.80686275 0
1 0.84509804 0
0.34509804 0.97647059 0.48235294
0.40392157 0.97647059 0.48235294
0.54313725 0.97647059 0.49019608
0.73823529 0.98823529 0.42941176
0.95686275 0.99607843 0.18823529
0 0.02745098 0.22941176
0.22377451 0.00392157 0.23553922
0.63137255 0 0.22843137
0.96102941 0 0.20955882
1 0.10098039 0.17254902
0 0.2129902 0.21372549
0.20637255 0.23051471 0.22604167
0.63443627 0.23039216 0.22071078
0.94368873 0.26452206 0.19313725
1 0.34191176 0.15171569
0 0.50343137 0.25196078
0.03713235 0.49411765 0.22977941
0.51446078 0.55367647 0.1754902
0.88039216 0.60441176 0.12867647
1 0.6122549 0.09852941
0 0.74803922 0.25808824
0 0.74332108 0.25
0.38321078 0.74705882 0.21789216
0.75692402 0.80998775 0.10386029
1 0.84142157 0
0.37647059 0.97647059 0.54117647
0.43137255 0.97647059 0.54117647
0.55882353 0.97647059 0.54411765
0.73921569 0.98455882 0.50588235
0.95686275 0.99607843 0.34705882
0 0.00784314 0.58823529
0.27058824 0 0.60294118
0.67647059 0 0.62941176
0.95196078 0 0.59215686
1 0 0.53921569
0 0.2245098 0.57598039
0.24632353 0.23517157 0.59436275
0.66568627 0.20955882 0.61911765
0.94105392 0.16164216 0.58419118
1 0.29019608 0.54509804
0 0.55 0.54411765
0.25220588 0.55980392 0.55294118
0.58235294 0.57794118 0.56715686
0.87818627 0.60465686 0.57401961
1 0.63431373 0.57254902
0.29215686 0.78627451 0.58578431
0.38982843 0.78541667 0.58835784
0.48480392 0.76936275 0.52916667
0.77365196 0.81568627 0.52377451
1 0.83872549 0.54705882
0.47843137 0.97647059 0.68823529
0.49852941 0.97696078 0.68039216
0.59509804 0.97745098 0.6745098
0.7504902 0.98284314 0.6627451
0.95490196 0.99215686 0.59607843
0.15196078 0 0.86764706
0.37843137 0 0.87132353
0.68186275 0 0.87745098
0.94215686 0 0.8872549
1 0 0.84901961
0.11740196 0.24019608 0.85980392
0.36501225 0.23707108 0.86372549
0.67058824 0.24362745 0.87352941
0.92849265 0.28572304 0.88216912
1 0.31397059 0.84730392
0 0.5372549 0.81960784
0.20514706 0.54301471 0.82892157
0.60759804 0.57745098 0.84264706
0.87573529 0.62401961 0.86237745
1 0.63284314 0.84019608
0.3125 0.80759804 0.80686275
0.41666667 0.81335784 0.81280637
0.60625 0.81617647 0.81568627
0.81348039 0.83327206 0.83235294
1 0.85686275 0.84828431
0.63235294 0.98039216 0.86764706
0.65735294 0.97818627 0.86764706
0.72401961 0.97843137 0.86568627
0.78921569 0.98039216 0.8372549
0.96470588 0.99215686 0.83235294
0.45882353 0.1372549 1
0.5372549 0.1372549 1
0.71372549 0.16078431 1
0.90784314 0.25588235 1
1 0.34117647 1
0.46176471 0.33333333 1
0.5370098 0.33823529 1
0.70735294 0.35882353 1
0.89828431 0.4254902 1
1 0.48333333 1
0.42941176 0.59803922 1
0.51617647 0.60784314 1
0.68333333 0.62647059 1
0.87107843 0.6627451 1
1 0.69803922 1
0.39607843 0.81372549 0.99215686
0.45759804 0.81372549 0.99362745
0.60392157 0.81372549 0.99607843
0.84019608 0.84191176 0.99313725
1 0.87254902 0.99313725
0.66666667 0.98431373 0.98431373
0.69313725 0.98431373 0.98529412
0.76470588 0.98627451 0.98627451
0.86862745 0.98529412 0.98823529
0.98823529 0.99215686 0.99215686
