Kodak Converted/Kodak Portra 800.cube
# Exported with LUT Lab 1.2.1
# LUTLab.com
TITLE Kodak Portra 800 2
LUT_3D_SIZE 33
0.01568627 0.01960784 0.01960784
0.02928922 0.02352941 0.02352941
0.04289216 0.02352941 0.01960784
0.06593137 0.02745098 0.02352941
0.08921569 0.03088235 0.01960784
0.11507353 0.03137255 0.01960784
0.14362745 0.03137255 0.01960784
0.16911765 0.03137255 0.01568627
0.20980392 0.03137255 0.01568627
0.25183824 0.02659314 0.01482843
0.29558824 0.01691176 0.01176471
0.34301471 0.00330882 0.00784314
0.39558824 0 0.00392157
0.4560049 0 0
0.50343137 0 0
0.56519608 0 0
0.6254902 0 0
0.67818627 0 0
0.73235294 0 0
0.78713235 0 0
0.83039216 0 0
0.86666667 0 0
0.90710784 0 0
0.93553922 0 0
0.96372549 0 0
0.99387255 0 0
1 0 0
1 0 0
1 0.02156863 0
1 0.07365196 0
1 0.11004902 0
1 0.1375 0
1 0.16862745 0
0.01568627 0.03504902 0.02536765
0.02536765 0.03713235 0.02352941
0.04277727 0.04080882 0.02328431
0.06310126 0.04214537 0.0206993
0.08921569 0.04679841 0.02329963
0.11386719 0.04697457 0.01960784
0.14178922 0.04889706 0.01737898
0.16853171 0.04889706 0.01568627
0.20980392 0.04935662 0.0143076
0.24963235 0.04497549 0.01222044
0.29436275 0.03835784 0.00906863
0.34301471 0.02504213 0.00596661
0.39627757 0.00791973 0.00392157
0.45208333 0 0
0.50343137 0 0
0.56513863 0 0
0.62156863 0 0
0.67806373 0 0
0.73063725 0 0
0.78321078 0 0
0.82924326 0 0
0.8627451 0 0
0.90383732 0 0
0.93410309 0 0
0.9643076 0 0
0.98995098 0 0
1 0 0
1 0.01652497 0
1 0.06766238 0
1 0.10329733 0
1 0.12954197 0
1 0.15502451 0
1 0.18039216 0
0.01176471 0.04681373 0.02720588
0.02169118 0.04878217 0.02377451
0.03504902 0.05418199 0.02329963
0.06051624 0.05857843 0.01985294
0.08529412 0.0620098 0.01960784
0.10873928 0.0625 0.01960784
0.13970588 0.06573223 0.0189185
0.16519608 0.06642157 0.01568627
0.2088848 0.06642157 0.01182598
0.24877451 0.06269148 0.01176471
0.29191176 0.05980392 0.00808824
0.34301471 0.04991575 0.00392157
0.39558824 0.0338848 0.00137868
0.452428 0.01480545 0
0.50171569 0 0
0.56518842 0 0
0.62156863 0 0
0.67414982 0 0
0.73074449 0 0
0.78321078 0 0
0.82892157 0 0
0.85906863 0 0
0.9006587 0 0
0.93161765 0 0
0.9627451 0 0
0.98995098 0 0
1 0.0247549 0
1 0.06740196 0
1 0.10242034 0
1 0.12598039 0
1 0.15269608 0
1 0.17241881 0
1 0.19583333 0
0.01017157 0.0682598 0.02977941
0.01886106 0.0682598 0.02953431
0.02953431 0.07218137 0.02595741
0.05257353 0.07610294 0.02352941
0.0816636 0.08170956 0.01597733
0.10803079 0.08394608 0.01648667
0.13841146 0.08786765 0.01831342
0.16519608 0.08606771 0.01568627
0.20588235 0.08612132 0.0127451
0.24695542 0.08553922 0.00943627
0.29436275 0.08394608 0.00784314
0.34632353 0.07966069 0.00392157
0.3970435 0.06885723 0
0.45208333 0.0575023 0
0.50474112 0.03635876 0
0.56507353 0.00627298 0
0.62156863 0 0
0.67801394 0 0
0.73366268 0 0
0.78336014 0 0
0.82893689 0 0
0.85882353 0 0
0.9004902 0 0
0.93161765 0.00408241 0
0.96216299 0.03014706 0
0.99060585 0.06364507 0
1 0.09208793 0
1 0.11715686 0
1 0.13953738 0
1 0.15845588 0
1 0.17598039 0
1 0.19558824 0
1 0.21727941 0
0.0004902 0.08578431 0.03137255
0.00994179 0.08578431 0.02954963
0.01985294 0.08967525 0.02791054
0.0390625 0.09502145 0.02725184
0.06666667 0.09754902 0.02009804
0.10240502 0.10657169 0.0120864
0.13587623 0.10931373 0.01568627
0.16162684 0.10917586 0.01554841
0.20232843 0.10931373 0.01176471
0.24496017 0.10931373 0.0082261
0.29151348 0.11133578 0.00735294
0.34206495 0.10828738 0.00007659
0.39558824 0.10245098 0
0.44897365 0.09390319 0
0.50193015 0.08673407 0
0.56507353 0.0730239 0
0.62132353 0.05857843 0
0.67806373 0.04425551 0
0.73262868 0.03648897 0
0.78325674 0.04249387 0
0.82794118 0.04656863 0
0.85882353 0.05931373 0
0.89764093 0.07328431 0
0.93123468 0.08812806 0
0.95882353 0.10539216 0
0.98734681 0.12423407 0
1 0.14053309 0
0.99882047 0.15845588 0
1 0.17598039 0
1 0.19146752 0
1 0.20689338 0
1 0.22280944 0
1 0.23872549 0
0 0.10723039 0.03137255
0.00199908 0.10922947 0.03337163
0.01017157 0.10723039 0.03137255
0.02769608 0.11452589 0.02977941
0.05274203 0.11642157 0.02487745
0.08504902 0.12426471 0.01960784
0.12843137 0.13442862 0.01201746
0.15735294 0.13675322 0.00784314
0.20061275 0.13860294 0.00683211
0.24178922 0.13889782 0.0064951
0.28651961 0.13602941 0.00392157
0.33909314 0.13860294 0
0.39166667 0.13602941 0
0.44816176 0.1333295 0
0.49892004 0.12990196 0
0.56115196 0.12169118 0
0.61960784 0.11844363 0
0.67806373 0.11638327 0
0.73176317 0.116322 0
0.77953048 0.11899127 0
0.82254902 0.12611826 0
0.85490196 0.13088235 0
0.89441636 0.14037224 0
0.92634804 0.15115273 0
0.9564951 0.16155025 0
0.98468137 0.17414216 0
1 0.1870098 0
1 0.2 0
1 0.21220895 0
1 0.22487745 0
1 0.23688725 0
1 0.2504902 0
1 0.2627451 0
0 0.13259804 0.03921569
0 0.13259804 0.03602941
0 0.13259804 0.03553922
0.01176471 0.13289675 0.03529412
0.03897059 0.13995098 0.03137255
0.06984528 0.14545803 0.02327665
0.10833333 0.15206801 0.0162837
0.14321385 0.15922947 0.00653339
0.19803922 0.16789216 0.00073529
0.2384421 0.16842831 0
0.28651961 0.17107843 0
0.33517157 0.17107843 0
0.38802083 0.16988358 0
0.4442402 0.17004442 0
0.49419424 0.16927083 0
0.56127451 0.16727941 0
0.62193627 0.16875 0
0.67877604 0.17105545 0
0.73284314 0.17426471 0
0.78032322 0.17818627 0
0.82282475 0.18602941 0
0.85416667 0.18921569 0
0.89264706 0.1972886 0
0.92377451 0.20477941 0
0.95392157 0.21348039 0
0.98210784 0.22095588 0
1 0.2332261 0
1 0.24166667 0
1 0.25064338 0
1 0.26330423 0
1 0.27303922 0
1 0.28291973 0
1 0.2997549 0
0 0.15232843 0.04142157
0 0.15441176 0.04181602
0 0.15503983 0.04313725
0.00114507 0.15232843 0.04031863
0.02316176 0.15968137 0.03639706
0.05466835 0.16336933 0.03040365
0.09044118 0.1685432 0.02144608
0.12598039 0.17696078 0.01286765
0.18802083 0.19227941 0.00110294
0.23762638 0.2004902 0
0.28453585 0.2004902 0
0.33406863 0.20110294 0
0.38556985 0.20117953 0
0.44168581 0.20159314 0
0.4957261 0.20503217 0
0.56234298 0.20670573 0
0.62101716 0.20943627 0
0.6768727 0.21326976 0
0.72830116 0.21727941 0
0.77526425 0.22193627 0
0.81576287 0.22728248 0
0.84705882 0.23014706 0
0.88838082 0.23776808 0
0.91899127 0.24411382 0
0.94917279 0.24963235 0
0.97818627 0.25931373 0
1 0.26596967 0
1 0.2747549 0
1 0.28319547 0
1 0.2928079 0
1 0.30141697 0
1 0.30845588 0
1 0.32377451 0
0 0.18529412 0.04705882
0 0.18529412 0.04653799
0 0.18535539 0.04705882
0 0.18529412 0.04666054
0 0.18627451 0.04607843
0.02527574 0.19154412 0.03823529
0.06715686 0.19883578 0.02818627
0.10453431 0.20698529 0.02172181
0.15588235 0.21446078 0.00563725
0.21344975 0.22754289 0
0.27898284 0.2435049 0
0.33125 0.24525123 0
0.38737745 0.25257353 0
0.4442402 0.25294118 0
0.49571078 0.25643382 0
0.56020221 0.25591299 0
0.61666667 0.25980392 0
0.67306985 0.26752451 0
0.71985294 0.26991422 0
0.7705576 0.27815564 0
0.81078431 0.2814951 0
0.84019608 0.28431373 0
0.88088235 0.29117647 0
0.9120098 0.29586397 0
0.94289216 0.30294118 0
0.97215074 0.3075674 0
0.99761029 0.3125 0
1 0.32061887 0
1 0.32745098 0
1 0.33664216 0
1 0.33939951 0
1 0.34862132 0
1 0.35784314 0
0 0.20955882 0.04705882
0 0.21348039 0.05098039
0 0.21348039 0.05098039
0 0.21262255 0.05098039
0 0.21272978 0.04829963
0 0.21884957 0.04514782
0.03905484 0.22508425 0.03602941
0.08002834 0.23026961 0.02696461
0.13737745 0.24301471 0.01197917
0.19147901 0.25403646 0
0.25612745 0.26963082 0
0.33138404 0.2920458 0
0.3865962 0.29468444 0
0.44452742 0.2997549 0
0.4959712 0.30233609 0
0.55732613 0.30463006 0
0.61176471 0.30606618 0
0.66627221 0.30842907 0
0.71667433 0.31715686 0
0.7599686 0.32320389 0
0.80240502 0.32752757 0
0.83137255 0.32806373 0
0.87399663 0.33600643 0
0.90808824 0.34222197 0
0.93606005 0.34451593 0
0.96666667 0.35073529 0
0.99611673 0.35539216 0
1 0.35914139 0
1 0.36691176 0
1 0.37034314 0
1 0.37837776 0
1 0.38419118 0
1 0.39387255 0
0 0.24338235 0.05367647
0 0.24525888 0.05432751
0 0.24468444 0.05473346
0 0.24460784 0.05257353
0 0.24460784 0.05254289
0 0.24676011 0.0497549
0.00099571 0.25344669 0.0397212
0.04744945 0.26174173 0.03026961
0.1182598 0.27530637 0.01574755
0.17365196 0.28563879 0
0.23368566 0.29866728 0
0.30026042 0.31146599 0
0.38673407 0.33872549 0
0.44068627 0.34289982 0
0.49318321 0.34754902 0
0.55330882 0.35053615 0
0.6064951 0.35379902 0
0.65964308 0.35710784 0
0.70710784 0.35882353 0
0.75306373 0.36580882 0
0.79341299 0.36764706 0
0.82352941 0.37279412 0
0.86435355 0.37671569 0
0.89659161 0.38063725 0
0.93069853 0.38578431 0
0.95968137 0.39046415 0
0.98797488 0.39581801 0
1 0.40066636 0
1 0.40416667 0
1 0.40881587 0
1 0.4120864 0
1 0.41589308 0
1 0.425 0
0 0.27573529 0.05428922
0 0.28357843 0.05490196
0 0.28357843 0.05490196
0 0.28357843 0.05490196
0 0.28060662 0.05490196
0 0.28079427 0.05469133
0 0.28738511 0.04705882
0.00720358 0.29583333 0.0370098
0.08897059 0.30566789 0.01930147
0.15122549 0.31519608 0.00306373
0.21120558 0.3265242 0
0.27242647 0.3389974 0
0.34252451 0.35292586 0
0.43167509 0.38198529 0
0.48602941 0.38835784 0
0.54544654 0.39338235 0
0.60134804 0.39761029 0
0.65001915 0.40112209 0
0.6978171 0.4057598 0
0.7439951 0.40931373 0
0.78333333 0.40968137 0
0.81568627 0.41360294 0
0.85943627 0.41960784 0
0.89192325 0.4240311 0
0.92254902 0.42784926 0
0.95404412 0.43105469 0
0.98124234 0.43321078 0
1 0.43673024 0
1 0.44093137 0
1 0.44436275 0
1 0.44828431 0
1 0.45065487 0
1 0.4567402 0
0 0.3122549 0.05490196
0 0.32046569 0.05281863
0 0.31862745 0.05260417
0 0.31763174 0.05245098
0 0.31844363 0.05471814
0 0.31554841 0.05490196
0 0.31835172 0.0495098
0 0.32406556 0.03987439
0.04558824 0.33370098 0.02058824
0.12401961 0.34640012 0.00306373
0.18872549 0.35762868 0
0.25121017 0.37022059 0
0.3189951 0.38321078 0
0.38517157 0.39520527 0
0.46706495 0.42058824 0
0.53916973 0.4363511 0
0.59166667 0.44142157 0
0.64276961 0.44411765 0
0.69034926 0.4504902 0
0.73406863 0.45196078 0
0.7754902 0.45533088 0
0.80539216 0.45588235 0
0.84782475 0.45664828 0
0.88095895 0.46171875 0
0.91507353 0.46556373 0
0.94436275 0.46764706 0
0.97202819 0.46957721 0
0.99865196 0.47401961 0
1 0.47567402 0
1 0.47941176 0
1 0.48333333 0
0.9988511 0.48532475 0
1 0.48872549 0
0 0.34583333 0.05134804
0 0.35593214 0.05306373
0 0.35759804 0.05490196
0 0.35578661 0.05453431
0 0.35367647 0.05409007
0 0.35012255 0.05110677
0 0.35005362 0.05127911
0 0.35477941 0.04229856
0 0.36544118 0.0245098
0.08974801 0.37442938 0.00335095
0.16335784 0.3877451 0
0.22861137 0.40042509 0
0.29571078 0.4147212 0
0.36477482 0.42751991 0
0.4247549 0.43986673 0
0.5168007 0.46655561 0
0.58216912 0.48131127 0
0.6307598 0.4870098 0
0.6814951 0.49093137 0
0.72438725 0.49485294 0
0.76469056 0.49618566 0
0.79571078 0.49840686 0
0.8377451 0.49766391 0
0.87242647 0.49877451 0
0.90382966 0.49877451 0
0.93468137 0.50232843 0
0.96573989 0.50661765 0
0.99080882 0.51053922 0
1 0.51409314 0
1 0.51431143 0
1 0.51801471 0
1 0.51821002 0
1 0.52193627 0
0 0.37965686 0.05098039
0 0.38713235 0.05178462
0 0.38897059 0.05258885
0 0.38762255 0.05008425
0 0.38336397 0.04905025
0 0.38272059 0.05098039
0 0.37958027 0.04918811
0 0.38026961 0.04485294
0 0.39093137 0.02671569
0.04154412 0.4013557 0.00870864
0.13681066 0.41323529 0
0.20698529 0.42595741 0
0.27068015 0.43734681 0
0.33979013 0.4499617 0
0.40022978 0.46297488 0
0.47622549 0.47732843 0
0.55845588 0.50416667 0
0.62102482 0.5207644 0
0.67057292 0.52743566 0
0.71605392 0.53023131 0
0.75759804 0.53259804 0
0.7877451 0.53431373 0
0.83092831 0.53583027 0
0.86456801 0.53479626 0
0.89724265 0.53596814 0
0.92892157 0.53700214 0
0.95791973 0.53823529 0
0.9872549 0.5415671 0
1 0.54215686 0
1 0.54476869 0
1 0.54989277 0
1 0.54919577 0
1 0.55392157 0
0 0.41973039 0.05085784
0 0.4255553 0.04705882
0 0.42412684 0.04729626
0 0.42377451 0.04705882
0 0.42377451 0.05038297
0 0.41993336 0.04452359
0 0.41982996 0.04703585
0 0.41593137 0.04590227
0 0.42279412 0.02852328
0 0.43247549 0.01186045
0.09697457 0.44476869 0
0.17867647 0.45574066 0
0.24640012 0.46686581 0
0.31150812 0.47904412 0
0.37218137 0.49093137 0
0.4471852 0.50612745 0
0.51360294 0.51985294 0
0.58737745 0.54105009 0
0.65992647 0.56880362 0
0.701214 0.56887255 0
0.74404105 0.57279412 0
0.77634804 0.57291667 0
0.82062653 0.57671569 0
0.85306373 0.57671569 0
0.88431373 0.57671569 0
0.91817172 0.57683824 0
0.94656863 0.57745098 0
0.97761566 0.57675781 0
1 0.58051471 0
1 0.58289292 0
1 0.58088235 0
1 0.58277803 0
1 0.58835784 0
0 0.45490196 0.04509804
0 0.46170343 0.04509804
0 0.46066176 0.04497549
0 0.45998775 0.04430147
0 0.45539216 0.04338235
0 0.45557598 0.04381127
0 0.45171569 0.04154412
0 0.45238971 0.04172794
0 0.45294118 0.03480392
0 0.46121324 0.01439951
0.03872549 0.47193627 0
0.14754902 0.4810049 0
0.22156863 0.49142157 0
0.28952206 0.50606618 0
0.34987745 0.51789216 0
0.42199755 0.52947304 0
0.4872549 0.54411765 0
0.54865196 0.55680147 0
0.6192402 0.57683824 0
0.69283088 0.60569853 0
0.73431373 0.60857843 0
0.76470588 0.60980392 0
0.80772059 0.61176471 0
0.84338235 0.61329657 0
0.87647059 0.61372549 0
0.90759804 0.61372549 0
0.93872549 0.61372549 0
0.96789216 0.61372549 0
0.99656863 0.6120098 0
1 0.61176471 0
1 0.61384804 0
1 0.61568627 0
1 0.61568627 0
0 0.48602941 0.03933824
0 0.49178922 0.03921569
0 0.49387255 0.03933824
0 0.4923292 0.03928845
0 0.49338235 0.04264706
0 0.48995098 0.03929611
0 0.48985141 0.03921569
0 0.48496094 0.03814721
0 0.48210784 0.03538603
0 0.48997779 0.02171798
0 0.49787837 0.00118719
0.11050092 0.5070504 0
0.19673713 0.51752451 0
0.26790365 0.52965686 0
0.32543658 0.54147518 0
0.3968099 0.55305607 0
0.46292892 0.56660539 0
0.5252451 0.58014706 0
0.58958333 0.59754902 0
0.64987745 0.61150812 0
0.72218137 0.64051777 0
0.75686275 0.64669118 0
0.79861366 0.64681373 0
0.83370098 0.64690947 0
0.86865809 0.65064338 0
0.89984298 0.64963235 0
0.93026961 0.6469133 0
0.9595167 0.65069317 0
0.98874081 0.65013787 0
1 0.64681373 0
1 0.64681373 0
1 0.6447955 0
1 0.64681373 0
0 0.51887255 0.03921569
0 0.52892157 0.03921569
0 0.52731311 0.03760723
0 0.52671569 0.03790594
0 0.525 0.03728554
0 0.5218367 0.03605239
0 0.52288603 0.03570772
0 0.52045803 0.03529412
0 0.5158701 0.03345588
0 0.5176394 0.02486979
0 0.52838542 0.00363051
0.06668964 0.5353171 0
0.17132353 0.54568015 0
0.24681373 0.55857843 0
0.30709252 0.56738664 0
0.37743566 0.57836244 0
0.43946078 0.59276961 0
0.49987745 0.60343137 0
0.56325061 0.61815257 0
0.62254902 0.63272059 0
0.67886029 0.64430147 0
0.73602941 0.67058824 0
0.78863358 0.67912071 0
0.82535999 0.6810049 0
0.85906863 0.68186275 0
0.89019608 0.68186275 0
0.92083333 0.68186275 0
0.9502451 0.68186275 0
0.97965686 0.68036152 0
1 0.67863817 0
1 0.67794118 0
1 0.67702972 0
1 0.67622549 0
0 0.5564951 0.03529412
0 0.56377528 0.03529412
0 0.56063879 0.03529412
0 0.5614928 0.03514476
0 0.55661765 0.03186275
0 0.55734911 0.03259421
0 0.55612745 0.03167126
0 0.55247013 0.03153339
0 0.55193015 0.03020833
0 0.54828431 0.02737056
0 0.55257353 0.00906863
0.00568704 0.56458333 0
0.14226409 0.5720435 0
0.22536765 0.58394608 0
0.28860294 0.59362745 0
0.36116345 0.60711933 0
0.4221201 0.61727941 0
0.48234145 0.62707184 0
0.54056373 0.64040288 0
0.59926471 0.65416667 0
0.6535386 0.66518076 0
0.69840686 0.67414216 0
0.77684589 0.70687806 0
0.81511566 0.7129902 0
0.8520527 0.71326593 0
0.88161765 0.71335784 0
0.91519608 0.71328891 0
0.94399127 0.71421186 0
0.97308517 0.7129902 0
0.99855622 0.71088006 0
1 0.70943627 0
1 0.70924096 0
1 0.70906863 0
0 0.5872549 0.03137255
0 0.59624694 0.03252145
0 0.59509804 0.03137255
0 0.59509804 0.03137255
0 0.59509804 0.03137255
0 0.59117647 0.03002451
0 0.59117647 0.02990196
0 0.58901654 0.02703738
0 0.58615196 0.02414216
0 0.58333333 0.02352941
0 0.58287377 0.01446078
0 0.59362745 0
0.11280637 0.60202206 0
0.20784314 0.61314338 0
0.27107843 0.62083333 0
0.3439951 0.63046875 0
0.40563725 0.64338235 0
0.46482843 0.65379902 0
0.51994485 0.66283701 0
0.57625613 0.67575061 0
0.63039216 0.68621324 0
0.67303922 0.69558824 0
0.73507966 0.7091299 0
0.79808517 0.73362439 0
0.84178922 0.74301471 0
0.8747549 0.74306066 0
0.90615809 0.74457721 0
0.93540135 0.74411765 0
0.9653799 0.74411765 0
0.99289216 0.74106924 0
1 0.74240196 0
1 0.74019608 0
1 0.73627451 0
0 0.61960784 0.03137255
0 0.62536765 0.03321078
0 0.62352941 0.03137255
0 0.62352941 0.03137255
0 0.62009804 0.02794118
0 0.62095588 0.02745098
0 0.61960784 0.02745098
0 0.6185049 0.02634804
0 0.61568627 0.02352941
0 0.61482843 0.02267157
0 0.60906863 0.01691176
0 0.61960784 0
0.08627451 0.62352941 0
0.19007353 0.6317402 0
0.25906863 0.64142157 0
0.33370098 0.65490196 0
0.39215686 0.66078431 0
0.45061275 0.67058824 0
0.50710784 0.68235294 0
0.56360294 0.69411765 0
0.61372549 0.70343137 0
0.65490196 0.71372549 0
0.71740196 0.7254902 0
0.7629902 0.73333333 0
0.82647059 0.75882353 0
0.86556373 0.76470588 0
0.8995098 0.76544118 0
0.93063725 0.76862745 0
0.95784314 0.76813725 0
0.98664216 0.76470588 0
1 0.76078431 0
1 0.76078431 0
1 0.76078431 0
0 0.66127451 0.03651961
0 0.66519608 0.03921569
0 0.66519608 0.03921569
0 0.66519608 0.03921569
0 0.66412377 0.0354473
0 0.66127451 0.03436734
0 0.66127451 0.03259804
0 0.65735294 0.02867647
0 0.65533088 0.02542892
0 0.65438879 0.02448683
0 0.65258885 0.02083333
0 0.65343137 0.00991115
0.03792892 0.66081495 0
0.17071844 0.6682598 0
0.2444087 0.67455576 0
0.32071078 0.68488817 0
0.38112745 0.69595588 0
0.4375 0.70306373 0
0.49142157 0.7122549 0
0.54532782 0.72254136 0
0.59610907 0.73287377 0
0.63676471 0.73848039 0
0.69348958 0.75108762 0
0.74188879 0.76019455 0
0.78805147 0.76985294 0
0.84129902 0.78602941 0
0.89166667 0.79903493 0
0.92279412 0.80202972 0
0.95140931 0.79901961 0
0.98039982 0.79852941 0
1 0.79730392 0
1 0.79522059 0
1 0.79338235 0
0 0.69632353 0.05012255
0 0.7002451 0.05241651
0 0.7002451 0.05404412
0 0.69865196 0.05063189
0 0.69632353 0.05012255
0 0.69632353 0.04955959
0 0.69562653 0.04550398
0 0.69460401 0.04361979
0 0.69010417 0.0385723
0 0.68933824 0.03443627
0 0.68637408 0.02840839
0 0.68528263 0.02400812
0.01332721 0.68848039 0.00568321
0.15984605 0.69669118 0
0.23553922 0.70245098 0
0.30723039 0.70906863 0
0.36905637 0.71875 0
0.42698759 0.72843137 0
0.47965686 0.73773744 0
0.53194317 0.74693627 0
0.58005515 0.75546875 0
0.62046569 0.76384804 0
0.67722886 0.77110141 0
0.72310432 0.77934666 0
0.7685049 0.79065564 0
0.81347656 0.79742264 0
0.86666667 0.8125 0
0.91524586 0.82659314 0
0.94569547 0.82584252 0
0.97363281 0.82483915 0
0.99712776 0.82286305 0
1 0.82018612 0
1 0.81789216 0
0 0.73235294 0.07058824
0 0.73235294 0.07254902
0 0.73235294 0.07261029
0 0.73235294 0.07254902
0 0.73235294 0.06997549
0 0.72843137 0.06761642
0 0.73082108 0.06727941
0 0.72843137 0.06470588
0 0.72671569 0.06078431
0 0.7268076 0.05992647
0 0.72150735 0.05091912
0 0.71976103 0.04773284
0.00122549 0.72022059 0.03933824
0.15211397 0.7265625 0.01014093
0.22996324 0.73192402 0
0.30625 0.74206495 0
0.36470588 0.74705882 0
0.41914828 0.75477941 0
0.47181373 0.7627451 0
0.52144608 0.77058824 0
0.56911765 0.77843137 0
0.60784314 0.78333333 0
0.66127451 0.79411765 0
0.70416667 0.79825368 0
0.75098039 0.80686275 0
0.79304534 0.81443015 0
0.83731618 0.82156863 0
0.88710172 0.83293505 0
0.93823529 0.85208333 0
0.96703431 0.85076593 0
0.99338235 0.84901961 0
1 0.84699755 0
1 0.84509804 0
0 0.76642157 0.09693627
0 0.76642157 0.10085784
0 0.76642157 0.0997549
0 0.76642157 0.0997549
0 0.76395527 0.09693627
0 0.76360294 0.09621247
0 0.7625 0.09530484
0 0.7625 0.09191176
0 0.76038603 0.08909314
0 0.75857843 0.08517157
0 0.75857843 0.08125
0 0.75509727 0.0766659
0.01577819 0.75465686 0.07271752
0.1561466 0.7557598 0.05880438
0.23333333 0.76188725 0.03554688
0.30518153 0.77034314 0.00546109
0.3627451 0.77622549 0
0.41531863 0.78210784 0
0.46617647 0.78995098 0
0.51272595 0.79742647 0
0.56196385 0.80281863 0
0.6 0.80955882 0
0.65149357 0.8185049 0
0.69632736 0.82304688 0
0.73921569 0.8294424 0
0.78008195 0.83732001 0
0.82238817 0.84224112 0
0.86410463 0.84890855 0
0.90955882 0.85834865 0
0.96102941 0.87573529 0
0.9897595 0.87622549 0
1 0.87230392 0
1 0.86948529 0
0 0.79754902 0.12696078
0 0.79754902 0.13088235
0 0.80073529 0.13019301
0 0.79754902 0.12696078
0 0.79745711 0.12696078
0 0.79497549 0.12438725
0 0.7948223 0.12363664
0 0.79681373 0.12303922
0 0.79362745 0.11991422
0 0.793053 0.1185432
0 0.78970588 0.1125
0 0.78970588 0.11127451
0.06256127 0.78777574 0.10735294
0.16661305 0.78511795 0.09921109
0.23757659 0.79149816 0.08757659
0.30627298 0.7968367 0.06865043
0.3627451 0.80306373 0.04056373
0.41151961 0.80847886 0.00394455
0.4622549 0.81462929 0
0.51188725 0.8232307 0
0.55542279 0.82818627 0
0.59142157 0.83210784 0
0.64143689 0.83995098 0
0.68382353 0.844447 0
0.72616422 0.85116422 0
0.7685049 0.85563725 0
0.80857843 0.86288297 0
0.84803156 0.86630668 0
0.8870098 0.87181373 0
0.93000919 0.87787224 0
0.97945772 0.89739583 0
1 0.89689032 0
1 0.89558824 0
0 0.83259804 0.16985294
0 0.83394608 0.17377451
0 0.83259804 0.17226562
0 0.83364354 0.17089844
0 0.83259804 0.16985294
0 0.83259804 0.1685049
0 0.83234528 0.16750919
0 0.8314951 0.16740196
0 0.83002451 0.16234681
