Kodak Converted/Kodak Portra 160 ++.cube
# Exported with LUT Lab 1.2.1
# LUTLab.com
TITLE Kodak Portra 160 4 ++
LUT_3D_SIZE 9
0.1254902 0.0745098 0.06666667
0.15637255 0.07401961 0.06666667
0.25 0.06666667 0.0627451
0.40343137 0.03284314 0.05490196
0.58431373 0 0.03529412
0.74019608 0 0.00392157
0.85686275 0.03823529 0
0.95735294 0.12598039 0
1 0.20392157 0
0.1254902 0.11323529 0.06666667
0.15294118 0.11764706 0.06323529
0.26213235 0.12977941 0.05098039
0.41648284 0.12843137 0.03707108
0.59019608 0.12426471 0.01004902
0.74166667 0.13382353 0
0.85588235 0.16066176 0
0.95735294 0.20300245 0
1 0.25441176 0
0.11470588 0.22058824 0.05980392
0.15159314 0.21764706 0.0627451
0.23039216 0.2372549 0.04803922
0.41691176 0.28394608 0
0.60882353 0.28529412 0
0.74411765 0.28933824 0
0.85269608 0.29901961 0
0.95257353 0.31580882 0
1 0.34411765 0
0.07598039 0.36568627 0.03284314
0.13658088 0.36568627 0.03529412
0.23272059 0.37254902 0.02107843
0.3783701 0.40974265 0
0.58112745 0.45906863 0
0.73235294 0.4504902 0
0.84840686 0.43848039 0
0.94607843 0.4403799 0
1 0.45490196 0
0.07254902 0.50784314 0
0.14093137 0.50441176 0
0.23333333 0.49215686 0
0.36642157 0.51568627 0
0.52254902 0.54803922 0
0.69705882 0.59607843 0
0.82303922 0.58529412 0
0.93995098 0.56862745 0
1 0.57058824 0
0.16764706 0.61862745 0.01323529
0.20882353 0.61844363 0.01697304
0.27352941 0.60355392 0.00392157
0.375 0.60747549 0
0.50392157 0.63161765 0
0.63915441 0.66176471 0
0.79301471 0.71164216 0
0.91470588 0.70490196 0
1 0.69705882 0
0.28823529 0.72745098 0.12352941
0.30784314 0.72389706 0.11605392
0.35220588 0.71813725 0.10392157
0.41372549 0.7057598 0.08002451
0.51960784 0.72303922 0.09166667
0.63039216 0.74607843 0.10784314
0.74705882 0.76960784 0.13137255
0.88664216 0.81617647 0.16715686
1 0.82058824 0.00196078
0.40882353 0.84362745 0.26372549
0.42058824 0.84019608 0.26029412
0.44840686 0.83370098 0.25245098
0.49460784 0.82794118 0.23756127
0.56323529 0.82843137 0.23284314
0.65655637 0.84754902 0.25588235
0.75526961 0.86323529 0.27683824
0.85931373 0.87941176 0.2995098
0.97598039 0.90980392 0.33431373
0.56078431 0.96862745 0.47843137
0.56862745 0.96470588 0.47843137
0.58921569 0.96470588 0.4754902
0.62352941 0.96470588 0.47843137
0.67058824 0.96470588 0.47843137
0.73627451 0.97009804 0.49166667
0.8127451 0.97941176 0.50882353
0.89068627 0.98480392 0.52205882
0.97254902 0.99215686 0.54117647
0.1254902 0.0745098 0.11323529
0.1598652 0.0745098 0.11666667
0.2567402 0.0627451 0.12095588
0.40882353 0.00324755 0.11844363
0.58627451 0 0.11495098
0.73890931 0 0.10147059
0.85551471 0 0.08786765
0.95392157 0.09944853 0.06519608
1 0.18823529 0.04901961
0.1189951 0.1254902 0.11758578
0.16421569 0.12805607 0.12107843
0.26481311 0.12735907 0.11994485
0.41901042 0.11919424 0.11323529
0.59604779 0.103125 0.1036152
0.74393382 0.10882353 0.08921569
0.85373775 0.14047181 0.06931679
0.95429687 0.18517157 0.04558824
1 0.24221814 0.01862745
0.125 0.24754902 0.12757353
0.16410846 0.2397212 0.12487745
0.2481924 0.2495098 0.11737132
0.43566176 0.27941176 0.08579963
0.6129902 0.27591912 0.05447304
0.74419424 0.27668505 0.02789522
0.85272672 0.28609069 0.00171569
0.95272672 0.30788909 0
1 0.33884804 0
0.0814951 0.39050245 0.11452206
0.14795496 0.38872549 0.11639859
0.24238664 0.38393076 0.11017157
0.39195772 0.41666667 0.0935432
0.59083946 0.45710784 0.00278799
0.73872549 0.44129136 0
0.8484375 0.43235294 0
0.94763327 0.43627451 0
1 0.4495098 0
0.09779412 0.52696078 0.11053922
0.16026348 0.52153799 0.10710784
0.24889706 0.50379902 0.10122549
0.37671569 0.52098652 0.09123775
0.53014706 0.55196078 0.07389706
0.69926471 0.59436275 0
0.82420343 0.58002451 0
0.94234069 0.56295956 0
1 0.56838235 0
0.18939951 0.6286152 0.12990196
0.22796415 0.62673866 0.12974112
0.29031863 0.61433824 0.11879596
0.38246783 0.61212469 0.11029412
0.50793505 0.63308824 0.10768995
0.64449295 0.66550245 0.11398591
0.7953125 0.71228554 0.098269
0.91682751 0.70675551 0
1 0.69528186 0
0.3 0.7317402 0.19264706
0.32141544 0.73125 0.1884038
0.3614277 0.72328431 0.17751225
0.41815257 0.707981 0.15447304
0.52120098 0.72493873 0.16495098
0.63092831 0.74653799 0.18230699
0.74963235 0.77058824 0.20729167
0.88633578 0.81619179 0.23946078
1 0.82034314 0.13688725
0.4127451 0.84368873 0.30251225
0.42493873 0.84057138 0.29939491
0.4546875 0.83648897 0.29096201
0.49863664 0.8321538 0.27690717
0.56495098 0.83164828 0.27132353
0.65471814 0.84411765 0.28880974
0.75543811 0.86323529 0.31416973
0.85893842 0.87978707 0.33736979
0.9721201 0.9098652 0.36911765
0.56470588 0.96862745 0.49754902
0.5721201 0.9651348 0.49454657
0.59129902 0.96482843 0.49411765
0.62383578 0.96256127 0.49178922
0.67230392 0.96470588 0.49387255
0.73743873 0.96911765 0.50588235
0.81237745 0.97916667 0.52120098
0.88768382 0.98480392 0.53425245
0.96911765 0.99264706 0.55294118
0.11372549 0.07843137 0.24509804
0.16078431 0.075 0.24546569
0.26470588 0.0745098 0.24901961
0.43970588 0.03958333 0.26470588
0.62303922 0 0.26764706
0.75588235 0 0.24803922
0.85514706 0 0.24411765
0.95392157 0.09362745 0.23713235
1 0.1872549 0.23627451
0.11372549 0.13676471 0.24509804
0.16888787 0.14175858 0.25019914
0.27377451 0.14840686 0.25416667
0.44661458 0.14171262 0.26493566
0.62156863 0.09313725 0.2598652
0.75001532 0.05166973 0.2419424
0.85572917 0.12827819 0.23918505
0.95355392 0.17958027 0.2316636
1 0.23909314 0.22977941
0.05098039 0.2754902 0.25220588
0.14601716 0.27420343 0.25422794
0.28088235 0.27420343 0.26035539
0.45422794 0.27245711 0.25321691
0.61911765 0.26776961 0.2442402
0.74721201 0.26819853 0.23262868
0.85349265 0.27965686 0.2213848
0.95009191 0.30027574 0.21295956
1 0.33529412 0.21348039
0 0.43627451 0.24473039
0.14422488 0.43944547 0.25343137
0.28195466 0.42034314 0.25814951
0.42242647 0.43682598 0.25900735
0.60931373 0.45147059 0.2247549
0.74564951 0.42950368 0.19359681
0.84874387 0.42512255 0.18529412
0.94757966 0.43175551 0.17855392
1 0.44803922 0.17683824
0.17254902 0.56176471 0.2754902
0.21917892 0.55723039 0.2716299
0.29448529 0.53921569 0.25686275
0.39963235 0.53357843 0.24785539
0.54607843 0.56348039 0.25710784
0.70741422 0.59466912 0.23443627
0.83186275 0.57377451 0.16703431
0.94515931 0.55882353 0.10441176
1 0.56176471 0.09656863
0.25085784 0.65183824 0.28370098
0.27896752 0.65003064 0.28085172
0.3317402 0.63897059 0.26844363
0.39806985 0.61757047 0.24856005
0.52107843 0.64123775 0.25955882
0.65 0.6689185 0.27688419
0.79748775 0.71219363 0.28183211
0.91789216 0.703125 0.20307904
1 0.68811275 0.0375
0.3372549 0.74632353 0.31985294
0.35085784 0.74249387 0.31311275
0.38670343 0.73615196 0.30098039
0.43939951 0.72300858 0.28121936
0.52365196 0.72561275 0.27708333
0.63492647 0.74788603 0.3018076
0.75091912 0.77352941 0.32855392
0.88992034 0.82058824 0.3573223
1 0.81691176 0.2872549
0.43186275 0.84889706 0.38811275
0.44238664 0.84765625 0.38425245
0.46712623 0.84381127 0.37598039
0.50667892 0.83627451 0.36012561
0.56452206 0.82971814 0.34289216
0.65761336 0.84693627 0.36426164
0.75496324 0.86323529 0.38743873
0.85695466 0.87941176 0.40906863
0.97598039 0.91286765 0.44558824
0.56862745 0.96862745 0.53627451
0.57647059 0.96605392 0.53333333
0.59509804 0.96470588 0.53235294
0.62634804 0.96470588 0.53063725
0.67254902 0.96470588 0.52843137
0.73517157 0.9689951 0.53664216
0.80906863 0.97671569 0.55
0.89068627 0.98468137 0.56801471
0.97254902 0.99509804 0.58431373
0.03284314 0.08627451 0.44264706
0.14803922 0.08872549 0.44656863
0.29215686 0.0877451 0.45196078
0.45833333 0.0745098 0.45833333
0.64191176 0.04436275 0.46691176
0.78817402 0.11078431 0.46317402
0.87904412 0.12953431 0.4377451
0.96360294 0.16832108 0.41911765
1 0.2127451 0.40882353
0.04246324 0.15882353 0.43872549
0.15428922 0.16476716 0.44610141
0.2979473 0.17161458 0.45272672
0.46325061 0.17579657 0.46079963
0.64509804 0.18063725 0.46902574
0.78046109 0.20411305 0.45998009
0.87169118 0.20833333 0.43494179
0.95757506 0.2276731 0.41725643
1 0.28069853 0.41813725
0 0.28504902 0.43529412
0.12729779 0.28871017 0.44090074
0.29681373 0.30272672 0.45395221
0.47051164 0.32247243 0.46511949
0.64044118 0.33921569 0.47009804
0.75957414 0.32529105 0.44918811
0.85367647 0.31859681 0.42515319
0.93982843 0.33929228 0.4185815
1 0.36629902 0.41813725
0 0.47457108 0.44803922
0.06855086 0.47860754 0.45415901
0.29690564 0.47545956 0.45695466
0.46672794 0.46638327 0.45798866
0.61369485 0.45392157 0.44188113
0.73457414 0.4457644 0.42638634
0.83912377 0.44411765 0.4127451
0.93785999 0.44755668 0.40031403
1 0.45980392 0.39650735
0.18602941 0.60637255 0.43357843
0.25474877 0.60523897 0.44126838
0.35747549 0.59387255 0.44442402
0.45710784 0.56789216 0.43918505
0.57083333 0.58198529 0.44338235
0.71639093 0.59215686 0.42227328
0.83590686 0.56758578 0.38259804
0.93710172 0.5638174 0.37303922
1 0.56715686 0.36740196
0.31568627 0.69019608 0.4495098
0.36488971 0.68694087 0.4627451
0.41231618 0.67712929 0.45496324
0.45922947 0.65602788 0.4303079
0.53998162 0.65030637 0.41939338
0.66121324 0.68024663 0.44319853
0.80134804 0.71213235 0.44174326
0.92077206 0.69587929 0.38627451
1 0.67745098 0.31568627
0.40012255 0.77022059 0.47218137
0.41145833 0.76645221 0.46841299
0.43848039 0.75808824 0.45551471
0.48042279 0.74561887 0.43581495
0.53351716 0.72775735 0.40729167
0.64082414 0.75151654 0.43143382
0.75490196 0.77815564 0.45867034
0.89019608 0.81875 0.4782935
1 0.81372549 0.42365196
0.4596201 0.8596201 0.49718137
0.46992953 0.85838695 0.495481
0.4908701 0.85479473 0.48665748
0.5258655 0.84547335 0.46868873
0.571875 0.83609069 0.44613971
0.65521599 0.84411765 0.45166207
0.75436581 0.86323529 0.47703738
0.85931373 0.88257506 0.50359222
0.97990196 0.91764706 0.53970588
0.57647059 0.96862745 0.59460784
0.58431373 0.97224265 0.59215686
0.60330882 0.9689951 0.59068627
0.63382353 0.96862745 0.58676471
0.67573529 0.96789216 0.57892157
0.73327206 0.96917892 0.58131127
0.81213235 0.97683824 0.59852941
0.89068627 0.98805147 0.61421569
0.97107843 0.99215686 0.62990196
0 0.11176471 0.61568627
0.15563725 0.11544118 0.61764706
0.31568627 0.12107843 0.62352941
0.48186275 0.14044118 0.63137255
0.64411765 0.16372549 0.63823529
0.77941176 0.1877451 0.63063725
0.8877451 0.2995098 0.62156863
0.97279412 0.33946078 0.60955882
1 0.36470588 0.59803922
0.03137255 0.19166667 0.6122549
0.16960784 0.1955576 0.6174326
0.32352941 0.2064951 0.62291667
0.4872549 0.22778799 0.63137255
0.64215686 0.24914216 0.63541667
0.77564338 0.27196691 0.62931985
0.88382353 0.35821078 0.62395833
0.96372549 0.37447917 0.60762868
1 0.39191176 0.59607843
0.04215686 0.32058824 0.60735294
0.17665441 0.32665441 0.61507353
0.33308824 0.33909314 0.61960784
0.49191176 0.3620098 0.62745098
0.63529412 0.38357843 0.63210784
0.76243873 0.40214461 0.62689951
0.86654412 0.4439951 0.62340686
0.95067402 0.43823529 0.60435049
1 0.44215686 0.59411765
0 0.46764706 0.59681373
0.16078431 0.47092525 0.60327819
0.32469363 0.46746324 0.603125
0.48802083 0.49016544 0.6129902
0.62291667 0.51090686 0.62132353
0.74457721 0.52962623 0.62352941
0.84056373 0.5192402 0.60784314
0.93103554 0.50245098 0.58691789
1 0.49264706 0.57181373
0.14607843 0.63137255 0.60784314
0.23933824 0.63137255 0.60968137
0.3627451 0.62598039 0.60857843
0.49154412 0.61862745 0.60784314
0.60735294 0.60833333 0.60441176
0.71593137 0.59865196 0.59117647
0.81985294 0.5879902 0.57622549
0.92120098 0.58137255 0.56348039
1 0.58235294 0.55392157
0.37598039 0.72696078 0.59215686
0.40652574 0.72696078 0.59469975
0.4588848 0.72022059 0.59607843
0.52598039 0.70931373 0.5958027
0.58811275 0.68125 0.58026961
0.68183211 0.69632353 0.58943015
0.80857843 0.70851716 0.57585784
0.925 0.68520221 0.53324142
1 0.68014706 0.52279412
0.43578431 0.80098039 0.59362745
0.45122549 0.79944853 0.59276961
0.48872549 0.79509804 0.59534314
0.54650735 0.78082108 0.59577206
0.58063725 0.75759804 0.56372549
0.65091912 0.75631127 0.55318627
0.76544118 0.78541667 0.58431373
0.89411765 0.81666667 0.5903799
1 0.80686275 0.54362745
0.51617647 0.88112745 0.62377451
0.52374387 0.8776348 0.62025123
0.53897059 0.87328431 0.61182598
0.5640625 0.86553309 0.59617034
0.60012255 0.85367647 0.57169118
0.6504902 0.84019608 0.54332108
0.75637255 0.86323529 0.57254902
0.8620098 0.88483456 0.6004902
0.9877451 0.92205882 0.62598039
0.59607843 0.97647059 0.66862745
0.60196078 0.97647059 0.66862745
0.61568627 0.97303922 0.66127451
0.64436275 0.97377451 0.65808824
0.68137255 0.97254902 0.64901961
0.73088235 0.97107843 0.63970588
0.80882353 0.97696078 0.65
0.89093137 0.9879902 0.66862745
0.97254902 0.99215686 0.68431373
0.14656863 0.16470588 0.73872549
0.22757353 0.17009804 0.74050245
0.35698529 0.18357843 0.74375
0.50294118 0.21568627 0.74957108
0.6372549 0.26617647 0.75318627
0.7622549 0.30490196 0.75441176
0.87218137 0.33137255 0.74656863
0.96568627 0.43235294 0.74283088
1 0.50490196 0.74166667
0.175 0.24215686 0.73841912
0.25104167 0.2478171 0.74234069
0.37058824 0.26190257 0.74339767
0.50667126 0.28540901 0.74656863
0.63710172 0.33014706 0.75122549
0.75844822 0.36268382 0.75166973
0.86848958 0.38480392 0.74603248
0.96174173 0.46731771 0.74323683
1 0.52401961 0.74264706
0.21752451 0.36507353 0.73382353
0.27928922 0.3707261 0.73622855
0.38792892 0.38189338 0.73826593
0.51450674 0.40306373 0.74134498
0.63547794 0.43633578 0.74473039
0.7504902 0.46000306 0.74725797
0.85799632 0.47745098 0.74420956
0.9524663 0.53900123 0.74656863
1 0.5622549 0.74264706
0.22009804 0.47904412 0.71666667
0.29245558 0.48772978 0.7220435
0.40625 0.50418199 0.72634804
0.51787684 0.51845129 0.72843137
0.63238358 0.54390319 0.73627451
0.74080882 0.56600797 0.74172794
0.84159007 0.57884498 0.74042586
0.9401348 0.61796109 0.74884344
1 0.60747549 0.73682598
0.26029412 0.61495098 0.71323529
0.31158088 0.61583946 0.71412377
0.39871324 0.61329657 0.71354167
0.50245098 0.60784314 0.71050858
0.62389706 0.62879902 0.72083333
0.72843137 0.65171569 0.73235294
0.83333333 0.66881127 0.74050245
0.9247549 0.65848652 0.73103554
1 0.64019608 0.71421569
0.35496324 0.74411765 0.72150735
0.38775276 0.74352022 0.72261795
0.451731 0.74028799 0.72173713
0.53635876 0.73815104 0.72269455
0.62640931 0.72996324 0.72012868
0.71609222 0.72246477 0.71909467
0.81228554 0.71089154 0.70490196
0.91151961 0.70010723 0.69247089
1 0.69613971 0.68137255
0.51519608 0.83737745 0.72022059
0.5287837 0.83466605 0.72054228
0.55735294 0.83189338 0.72022059
0.59695159 0.82362132 0.7189185
0.646875 0.81060049 0.7127451
0.69238664 0.78098958 0.69082414
0.7833027 0.79871324 0.70143995
0.90294118 0.80980392 0.69022672
1 0.78921569 0.65355392
0.54264706 0.90422794 0.71666667
0.55051317 0.90274203 0.71521906
0.57250306 0.90179228 0.71504289
0.60227482 0.89541207 0.71096814
0.65765931 0.88054534 0.71011029
0.68529412 0.86323529 0.67486979
0.75882353 0.86227022 0.6680913
0.86954657 0.88678768 0.69906556
0.99001225 0.91599265 0.7096201
0.60245098 0.98823529 0.74117647
0.61158088 0.98431373 0.74117647
0.64276961 0.98247549 0.74828431
0.67205882 0.98094363 0.74803922
0.70073529 0.97916667 0.73627451
0.74356618 0.97738971 0.72395833
0.80490196 0.97794118 0.71519608
0.89301471 0.98792892 0.73321078
0.97647059 0.99362745 0.7504902
0.29215686 0.25588235 0.84411765
0.33786765 0.25992647 0.8432598
0.4254902 0.27769608 0.84387255
0.53247549 0.30539216 0.84411765
0.64509804 0.3504902 0.84607843
0.75159314 0.4120098 0.84803922
0.85588235 0.44901961 0.84901961
0.95723039 0.46421569 0.84497549
1 0.55 0.84117647
0.31127451 0.31421569 0.83970588
0.35643382 0.32506127 0.84094669
0.43495711 0.33547794 0.84083946
0.53901654 0.36081495 0.84289216
0.64681373 0.40159314 0.84411765
0.75150123 0.45231311 0.84750306
0.85254289 0.48048407 0.84632353
0.9504902 0.49509804 0.84471507
1 0.57218137 0.84289216
0.34877451 0.42230392 0.83308824
0.38192402 0.42806373 0.83416054
0.45465686 0.4375 0.83443627
0.54883578 0.45692402 0.8370098
0.65085784 0.4875 0.84056373
0.75116422 0.52643995 0.84411765
0.84767157 0.5497549 0.846875
0.94191176 0.55992647 0.84053309
1 0.61862745 0.84411765
0.37598039 0.52830882 0.82095588
0.41104473 0.53468137 0.82464767
0.47270221 0.54252451 0.82714461
0.55730699 0.5560049 0.82904412
0.653125 0.57855392 0.83253676
0.74911152 0.60928309 0.83904718
0.84231005 0.62907475 0.84276961
0.93226103 0.63463542 0.84047181
1 0.67512255 0.84411765
0.3504902 0.60882353 0.80735294
0.38553922 0.61372549 0.80931373
0.45882353 0.62156863 0.81237745
0.55477941 0.63756127 0.81605392
0.6504902 0.65465686 0.82303922
0.74675245 0.68161765 0.83253676
0.83651961 0.69987745 0.83872549
0.92683824 0.70876225 0.8408701
1 0.74264706 0.85098039
0.4060049 0.73590686 0.8127451
0.42694547 0.73242953 0.81090686
0.47864583 0.73373162 0.81228554
0.5466299 0.72843137 0.81205576
0.62585784 0.72181373 0.80900735
0.73572304 0.74287684 0.82219669
0.83416054 0.76927083 0.83553922
0.92383578 0.7819087 0.84064032
0.99963235 0.77352941 0.83578431
0.47254902 0.84583333 0.82230392
0.49044118 0.84718137 0.82377451
0.52947304 0.84675245 0.8245098
0.58746936 0.84301471 0.8245098
0.66004902 0.83762255 0.82340686
0.73927696 0.8338848 0.8236826
0.82058824 0.8252451 0.82150735
0.90768995 0.8091299 0.80511642
1 0.80196078 0.79411765
0.6245098 0.92990196 0.8245098
0.62999387 0.92711397 0.82268689
0.65193015 0.92619485 0.82481618
0.68265931 0.9254902 0.82633272
0.72040441 0.91856618 0.82493873
0.75834865 0.90553002 0.81668199
0.78924632 0.8783701 0.78541667
0.88339461 0.89462316 0.80142463
1 0.90686275 0.79448529
0.65588235 0.99215686 0.8245098
0.66335784 0.99215686 0.8254902
0.67622549 0.98995098 0.82622549
0.70147059 0.99105392 0.82732843
0.73039216 0.98872549 0.825
0.78284314 0.98823529 0.82904412
0.81691176 0.98357843 0.80490196
0.89375 0.98823529 0.80502451
0.98431373 0.99607843 0.82843137
0.42794118 0.38088235 0.92941176
0.44797794 0.38180147 0.92640931
0.50539216 0.3995098 0.92892157
0.58284314 0.42254902 0.92941176
0.66862745 0.45735294 0.92769608
0.75882353 0.5004902 0.92647059
0.84669118 0.55343137 0.92990196
0.93431373 0.57702206 0.92990196
1 0.58529412 0.92990196
0.43627451 0.42009804 0.92297794
0.46323529 0.42788756 0.92598039
0.51548713 0.43852635 0.92598039
0.58606771 0.45796569 0.92598039
0.6721201 0.48805147 0.92598039
0.7589231 0.52957261 0.92614124
0.84724265 0.57702206 0.92910539
0.93344822 0.59651501 0.9272212
1 0.60398284 0.92990196
0.46262255 0.50085784 0.92193627
0.48310355 0.50533088 0.92210478
0.52965686 0.51397059 0.92205882
0.59828431 0.52855392 0.9230239
0.67824755 0.55202206 0.92352941
0.7626685 0.58400735 0.92415748
0.84454657 0.62107843 0.92640931
0.93007047 0.63616728 0.9261489
1 0.63872549 0.92683824
0.48707108 0.58707108 0.91452206
0.50610447 0.59074755 0.91572457
0.54595588 0.59546569 0.91502757
0.60979626 0.60948989 0.91721814
0.68578431 0.62573529 0.91930147
0.76636795 0.65080423 0.92157629
0.84666054 0.67858456 0.9231924
0.92955729 0.69295343 0.92601869
1 0.69050245 0.92383578
0.48455882 0.65906863 0.90980392
0.50438113 0.66121324 0.91001838
0.54926471 0.66709559 0.90857843
0.6106924 0.67686887 0.91060049
0.68566176 0.69142157 0.91421569
0.76657475 0.71216299 0.91829044
0.84803922 0.73578431 0.92205882
0.92772672 0.74993873 0.92772672
1 0.75122549 0.92426471
0.46893382 0.73658088 0.90275735
0.48316483 0.73627451 0.90261183
0.52063419 0.7339614 0.90245098
0.58204657 0.73517923 0.90343903
0.67098652 0.75 0.90857843
0.76236979 0.76839001 0.91373315
0.84969363 0.79232537 0.91991422
0.92598039 0.81165748 0.92598039
1 0.81715686 0.92598039
0.50735294 0.84117647 0.9064951
0.52179841 0.84042586 0.90647978
0.55398284 0.84019608 0.90637255
0.60193015 0.83671875 0.90540748
0.66519608 0.83278186 0.90637255
0.73665748 0.82334559 0.90430453
0.84019608 0.84411765 0.91421569
0.92749694 0.86920956 0.92598039
1 0.87990196 0.92990196
0.57254902 0.9377451 0.91421569
0.58168658 0.9381204 0.91421569
0.61047794 0.93705576 0.91421569
0.65157782 0.93384651 0.91421569
0.71007966 0.9323223 0.91617647
0.77579657 0.92992494 0.91767004
0.84600184 0.92591912 0.91803002
0.91776195 0.91776195 0.91421569
1 0.9033701 0.89901961
0.71715686 0.99607843 0.90637255
0.72457108 0.99908088 0.90637255
0.74117647 0.99607843 0.9067402
0.76893382 0.99607843 0.91060049
0.79877451 0.99607843 0.91421569
0.83419118 0.99448529 0.91654412
0.86813725 0.99227941 0.91470588
0.9033701 0.98872549 0.89509804
0.99166667 0.9995098 0.91029412
0.56470588 0.54509804 1
0.57990196 0.54901961 1
0.60784314 0.55392157 1
0.65735294 0.57254902 1
0.71960784 0.59215686 1
0.78970588 0.61960784 1
0.85588235 0.64705882 0.99607843
0.92598039 0.68235294 0.99607843
1 0.69019608 0.99607843
0.57254902 0.56813725 1
0.58431373 0.57169118 1
0.61568627 0.58026961 1
0.66390931 0.59215686 1
0.72181373 0.61151961 1
0.78970588 0.63498775 0.99969363
0.85943627 0.66323529 0.99607843
0.92254902 0.6911152 0.99264706
1 0.70196078 0.99607843
0.58823529 0.61568627 1
0.6 0.61875 0.99742647
0.62745098 0.62426471 0.99779412
0.67414216 0.63492647 1
0.72892157 0.65 0.99607843
0.79362745 0.66776961 0.99607843
0.8627451 0.69313725 0.99534314
0.92855392 0.72071078 0.99571078
0.99607843 0.7254902 0.99313725
0.60637255 0.67303922 0.99607843
0.61599265 0.67481618 0.99607843
0.64252451 0.68026961 0.99718137
0.6838848 0.68872549 0.99607843
0.7372549 0.69803922 0.99607843
0.79901961 0.71372549 0.99607843
0.86372549 0.73223039 0.99252451
0.92757353 0.75716912 0.99375
0.99607843 0.76323529 0.99460784
0.61764706 0.73137255 0.99607843
0.6254902 0.73137255 0.99607843
0.64803922 0.73284314 0.99558824
0.68946078 0.73921569 0.99607843
0.74215686 0.75 0.99509804
0.80343137 0.76151961 0.99411765
0.86715686 0.77794118 0.99362745
0.92990196 0.79803922 0.99240196
0.99411765 0.80588235 0.99411765
0.59068627 0.77794118 0.99215686
0.60373775 0.77794118 0.99375
0.63431373 0.78370098 0.99607843
0.68088235 0.78878676 0.99515931
0.73848039 0.79803922 0.99534314
0.80147059 0.80931373 0.99362745
0.87156863 0.82561275 0.99607843
0.93118873 0.84246324 0.99344363
0.99215686 0.85245098 0.99215686
0.59607843 0.85294118 0.99215686
0.60735294 0.85588235 0.99509804
0.62647059 0.85196078 0.99215686
0.66164216 0.84803922 0.99215686
0.71470588 0.84803922 0.99607843
0.79264706 0.85882353 0.99509804
0.86838235 0.87156863 0.99313725
0.9377451 0.89117647 0.99571078
0.99313725 0.90294118 0.99313725
0.63186275 0.9377451 0.99215686
0.64270833 0.9377451 0.99515931
0.65931373 0.9377451 0.99301471
0.69393382 0.93511029 0.99344363
0.73602941 0.93039216 0.99264706
0.79234069 0.93020833 0.99607843
0.85110294 0.92242647 0.99607843
0.93768382 0.93768382 0.99607843
0.99607843 0.95686275 0.99607843
0.68235294 1 0.99215686
0.68970588 1 0.99215686
0.70882353 1 0.99215686
0.7372549 1 0.99362745
0.77647059 1 0.99411765
0.82892157 1 0.99362745
0.88333333 1 0.99607843
0.94166667 1 0.99656863
1 1 1
