Kodak Converted/Kodak Elite Color 400.cube
# Exported with LUT Lab 1.2.1
# LUTLab.com
TITLE Kodak Elite Color 400
LUT_3D_SIZE 5
0 0 0
0.15490196 0 0
0.37254902 0 0
0.66078431 0 0
0.92941176 0.00392157 0.00392157
0.12058824 0.1754902 0.03529412
0.22254902 0.15490196 0.03823529
0.43284314 0.09852941 0.03823529
0.69607843 0.00612745 0.02573529
0.94509804 0.00098039 0.00392157
0.2254902 0.42745098 0.09411765
0.32254902 0.41617647 0.09411765
0.51960784 0.38431373 0.09019608
0.76029412 0.29901961 0.0745098
0.98431373 0.07254902 0.02745098
0.42941176 0.71470588 0.09803922
0.4879902 0.71176471 0.09803922
0.63823529 0.69607843 0.09411765
0.82058824 0.66151961 0.08602941
1 0.54803922 0.03921569
0.71764706 0.97254902 0
0.74019608 0.97254902 0
0.80196078 0.97254902 0
0.90686275 0.96470588 0
1 0.94117647 0
0 0.00392157 0.14313725
0.1127451 0 0.14411765
0.34901961 0 0.13970588
0.65294118 0 0.11642157
0.92941176 0 0.05784314
0.0872549 0.20294118 0.18333333
0.18627451 0.1838848 0.18333333
0.4125 0.13137255 0.1870098
0.68823529 0.02156863 0.17156863
0.94509804 0 0.11102941
0.16764706 0.44705882 0.21470588
0.28296569 0.43713235 0.21764706
0.49926471 0.40563725 0.21838235
0.7504902 0.32598039 0.20980392
0.98235294 0.09754902 0.16666667
0.39803922 0.72352941 0.24509804
0.46372549 0.71960784 0.24289216
0.62107843 0.70772059 0.23897059
0.80906863 0.67310049 0.22230392
1 0.5629902 0.16740196
0.70588235 0.97647059 0.2372549
0.72941176 0.97647059 0.23406863
0.79411765 0.97647059 0.22156863
0.89901961 0.96862745 0.18431373
1 0.94509804 0
0 0.02941176 0.31960784
0.06764706 0.00392157 0.32352941
0.31470588 0 0.32745098
0.63382353 0 0.31715686
0.9254902 0 0.27058824
0.03039216 0.24558824 0.37598039
0.12254902 0.22794118 0.38186275
0.37107843 0.18186275 0.38823529
0.66862745 0.06409314 0.38823529
0.93480392 0 0.35294118
0.04215686 0.48235294 0.43627451
0.16372549 0.4745098 0.43995098
0.44607843 0.44607843 0.44607843
0.72328431 0.3745098 0.44705882
0.97254902 0.15980392 0.4254902
0.30686275 0.73921569 0.49460784
0.39166667 0.73823529 0.49656863
0.5745098 0.72745098 0.49803922
0.78161765 0.69754902 0.49411765
1 0.59509804 0.46666667
0.68235294 0.98235294 0.52156863
0.70588235 0.98235294 0.52156863
0.7745098 0.98039216 0.52156863
0.88333333 0.97647059 0.50931373
1 0.95686275 0.44313725
0 0.10294118 0.53823529
0.00392157 0.05980392 0.54705882
0.25245098 0.0122549 0.55882353
0.59730392 0 0.5627451
0.90980392 0 0.54313725
0 0.31593137 0.60416667
0.01231618 0.3002451 0.60955882
0.27156863 0.25637255 0.62156863
0.62530637 0.15545343 0.63308824
0.91764706 0 0.62769608
0 0.5372549 0.6622549
0 0.53002451 0.66617647
0.33088235 0.50637255 0.67598039
0.67009804 0.44387255 0.68578431
0.95294118 0.25294118 0.6877451
0.04191176 0.76666667 0.71862745
0.21158088 0.76568627 0.72034314
0.48333333 0.75563725 0.72671569
0.73229167 0.73192402 0.73210784
0.98431373 0.64534314 0.73063725
0.63823529 0.99215686 0.76176471
0.66568627 0.99215686 0.7627451
0.74068627 0.99215686 0.76568627
0.85980392 0.98823529 0.76568627
1 0.97254902 0.74705882
0 0.22352941 0.74117647
0 0.18431373 0.74901961
0.11176471 0.13333333 0.76470588
0.53137255 0.01862745 0.78039216
0.88627451 0 0.78431373
0 0.41470588 0.79509804
0 0.40294118 0.79901961
0.00735294 0.37303922 0.81176471
0.52843137 0.29117647 0.83137255
0.89411765 0.05 0.84705882
0 0.61372549 0.84313725
0 0.60980392 0.84705882
0 0.59411765 0.85882353
0.54803922 0.55196078 0.8745098
0.91372549 0.40588235 0.89019608
0 0.80882353 0.89901961
0 0.80882353 0.90294118
0.14264706 0.80343137 0.91372549
0.61544118 0.78921569 0.92647059
0.9372549 0.72745098 0.93823529
0.48627451 0.99215686 0.96862745
0.52843137 0.99215686 0.97254902
0.6372549 0.99607843 0.97647059
0.78921569 0.99607843 0.98823529
1 1 1
