Kodak Converted/Kodak Portra 800.cube
# Exported with LUT Lab 1.2.1
# LUTLab.com
TITLE Kodak Portra 800 2
LUT_3D_SIZE 9
0.01568627 0.01960784 0.01960784
0.08921569 0.03088235 0.01960784
0.20980392 0.03137255 0.01568627
0.39558824 0 0.00392157
0.6254902 0 0
0.83039216 0 0
0.96372549 0 0
1 0.02156863 0
1 0.16862745 0
0.0004902 0.08578431 0.03137255
0.06666667 0.09754902 0.02009804
0.20232843 0.10931373 0.01176471
0.39558824 0.10245098 0
0.62132353 0.05857843 0
0.82794118 0.04656863 0
0.95882353 0.10539216 0
1 0.17598039 0
1 0.23872549 0
0 0.18529412 0.04705882
0 0.18627451 0.04607843
0.15588235 0.21446078 0.00563725
0.38737745 0.25257353 0
0.61666667 0.25980392 0
0.81078431 0.2814951 0
0.94289216 0.30294118 0
1 0.32745098 0
1 0.35784314 0
0 0.3122549 0.05490196
0 0.31844363 0.05471814
0.04558824 0.33370098 0.02058824
0.3189951 0.38321078 0
0.59166667 0.44142157 0
0.7754902 0.45533088 0
0.91507353 0.46556373 0
1 0.47567402 0
1 0.48872549 0
0 0.45490196 0.04509804
0 0.45539216 0.04338235
0 0.45294118 0.03480392
0.22156863 0.49142157 0
0.4872549 0.54411765 0
0.73431373 0.60857843 0
0.87647059 0.61372549 0
0.99656863 0.6120098 0
1 0.61568627 0
0 0.5872549 0.03137255
0 0.59509804 0.03137255
0 0.58615196 0.02414216
0.11280637 0.60202206 0
0.40563725 0.64338235 0
0.63039216 0.68621324 0
0.84178922 0.74301471 0
0.9653799 0.74411765 0
1 0.73627451 0
0 0.73235294 0.07058824
0 0.73235294 0.06997549
0 0.72671569 0.06078431
0.00122549 0.72022059 0.03933824
0.36470588 0.74705882 0
0.56911765 0.77843137 0
0.75098039 0.80686275 0
0.93823529 0.85208333 0
1 0.84509804 0
0 0.86323529 0.2127451
0 0.86366422 0.20931373
0 0.85980392 0.20539216
0.19264706 0.85539216 0.19705882
0.38480392 0.85980392 0.17230392
0.55588235 0.87910539 0.11685049
0.71519608 0.89852941 0
0.86372549 0.91378676 0
1 0.93382353 0
0.34509804 0.97647059 0.48235294
0.36421569 0.97647059 0.48235294
0.40392157 0.97647059 0.48235294
0.46911765 0.97647059 0.48627451
0.54313725 0.97647059 0.49019608
0.63431373 0.98186275 0.46666667
0.73823529 0.98823529 0.42941176
0.84411765 0.99264706 0.35637255
0.95686275 0.99607843 0.18823529
0.01960784 0.02352941 0.10098039
0.09313725 0.02352941 0.10490196
0.21017157 0.00772059 0.10085784
0.39344363 0 0.08363971
0.61764706 0 0.08357843
0.82273284 0 0.05588235
0.95796569 0 0.00257353
1 0 0
1 0.13382353 0
0.00526961 0.09448529 0.09454657
0.0775046 0.10184589 0.10103401
0.20828738 0.1041973 0.09754902
0.39540441 0.08910846 0.09317555
0.62199755 0.01115196 0.0754902
0.82067249 0 0.03396906
0.9541973 0.04989277 0
1 0.14584865 0
1 0.22218137 0
0 0.20441176 0.12316176
0.02820159 0.20183824 0.11300551
0.17107843 0.2208027 0.09375
0.39558824 0.24707414 0.07777267
0.62113971 0.25238971 0.04417892
0.80863971 0.26732537 0
0.94292279 0.28802083 0
1 0.31862745 0
1 0.34914216 0
0 0.32794118 0.11844363
0 0.33400735 0.11731771
0.08615196 0.3386489 0.10637255
0.33112745 0.38658088 0.04442402
0.59564951 0.43740809 0
0.77560509 0.44668352 0
0.91515012 0.45980392 0
1 0.47226562 0
1 0.48578431 0
0 0.47034314 0.11691176
0 0.47230392 0.115625
0 0.4627451 0.11305147
0.2372549 0.49672181 0.06176471
0.49485294 0.54693627 0
0.73348652 0.60490196 0
0.87659314 0.60857843 0
0.99656863 0.61001838 0
1 0.61568627 0
0 0.59901961 0.1153799
0 0.6040671 0.11668964
0 0.59554228 0.11021752
0.1432598 0.60520067 0.08565411
0.41234681 0.64362745 0
0.63530944 0.6891008 0
0.84237132 0.74151348 0
0.96737898 0.74234069 0
1 0.73498775 0
0 0.73627451 0.14264706
0 0.73846507 0.14494485
0 0.73210784 0.13765319
0.05280331 0.72314645 0.12478554
0.37126225 0.74883578 0.06452206
0.5696538 0.778125 0
0.75364583 0.80906863 0
0.93825061 0.84918811 0
1 0.84509804 0
0 0.86372549 0.24846814
0 0.8641008 0.25190717
0 0.86265319 0.24653799
0.20878523 0.85917586 0.23785233
0.39044118 0.86151961 0.22034314
0.55637255 0.87724418 0.18033088
0.71519608 0.89837623 0.09229473
0.8641008 0.91384038 0
1 0.93339461 0
0.35637255 0.98039216 0.50147059
0.37254902 0.97689951 0.50153186
0.41384804 0.97659314 0.50110294
0.47463235 0.97432598 0.50324755
0.54877451 0.97647059 0.50588235
0.6372549 0.98069853 0.48872549
0.7379902 0.98786765 0.45355392
0.84454657 0.99215686 0.3877451
0.95686275 0.99607843 0.24264706
0 0.02745098 0.22941176
0.08578431 0.02009804 0.22941176
0.22377451 0.00392157 0.23553922
0.40232843 0 0.23333333
0.63137255 0 0.22843137
0.83039216 0 0.20012255
0.96102941 0 0.20955882
1 0 0.19313725
1 0.10098039 0.17254902
0 0.10147059 0.2189951
0.0713848 0.10577512 0.22634804
0.22193627 0.09941789 0.23333333
0.40574449 0.03818934 0.22909007
0.6377451 0 0.22046569
0.828125 0 0.2073223
0.95579044 0 0.20579044
1 0.09739583 0.18884804
1 0.20686275 0.16862745
0 0.2129902 0.21372549
0.05386029 0.21966912 0.21764706
0.20637255 0.23051471 0.22604167
0.41519608 0.23360907 0.2254902
0.63443627 0.23039216 0.22071078
0.81436887 0.23765319 0.20836397
0.94368873 0.26452206 0.19313725
0.99996936 0.29963235 0.17267157
1 0.34191176 0.15171569
0 0.35747549 0.24178922
0.03895527 0.36688113 0.24978554
0.16761642 0.36332721 0.23143382
0.36323529 0.39520527 0.21380208
0.60625 0.42493873 0.19558824
0.78157169 0.43624387 0.18843444
0.91749387 0.45085784 0.16862745
1 0.4644761 0.14474571
1 0.48223039 0.11997549
0 0.50343137 0.25196078
0 0.50496324 0.23731618
0.03713235 0.49411765 0.22977941
0.27806373 0.50355392 0.21648284
0.51446078 0.55367647 0.1754902
0.7403799 0.60012255 0.12218137
0.88039216 0.60441176 0.12867647
0.99828431 0.60790441 0.13057598
1 0.6122549 0.09852941
0 0.62438725 0.2372549
0 0.62668505 0.23779105
0 0.62074142 0.23204657
0.20075061 0.60816483 0.22133885
0.43063725 0.64699755 0.19044118
0.64318321 0.68982843 0.13002451
0.8455576 0.74019608 0
0.96783088 0.73849571 0.02610294
1 0.73455882 0.08296569
0 0.74803922 0.25808824
0 0.74730392 0.25551471
0 0.74332108 0.25
0.1627451 0.73529412 0.23860294
0.38321078 0.74705882 0.21789216
0.57714461 0.77925858 0.18201593
0.75692402 0.80998775 0.10386029
0.93973652 0.84987745 0
1 0.84142157 0
0 0.8685049 0.33333333
0 0.86796875 0.33365502
0.00128676 0.86724877 0.32938113
0.24800858 0.86012561 0.31796875
0.39834559 0.85808824 0.30588235
0.56297488 0.87896752 0.28573836
0.71559436 0.89564951 0.24678309
0.86458333 0.91121324 0.16757047
1 0.93639706 0
0.37647059 0.97647059 0.54117647
0.39607843 0.97659314 0.54117647
0.43137255 0.97647059 0.54117647
0.48811275 0.97647059 0.54301471
0.55882353 0.97647059 0.54411765
0.64215686 0.97977941 0.53272059
0.73921569 0.98455882 0.50588235
0.84411765 0.99129902 0.45379902
0.95686275 0.99607843 0.34705882
0 0.02352941 0.3995098
0.03449755 0.01813725 0.40343137
0.24558824 0 0.4127451
0.44117647 0 0.42395833
0.63529412 0 0.42377451
0.82640931 0 0.41666667
0.96384804 0 0.38848039
1 0 0.35606618
1 0 0.34509804
0 0.10753676 0.39166667
0.01564798 0.10726869 0.39936428
0.24211091 0.09549632 0.40873162
0.44117647 0.02715993 0.42158395
0.64117647 0 0.42303922
0.82566636 0 0.41158088
0.96029412 0 0.3839614
1 0 0.35448836
1 0.19264706 0.38020833
0 0.22267157 0.38002451
0 0.22729779 0.3877451
0.22202819 0.23379289 0.40343137
0.44296875 0.2316636 0.42129289
0.64227941 0.18707108 0.41409314
0.81948529 0.15526961 0.39889706
0.95254289 0.16467525 0.37408088
1 0.29745711 0.39384191
1 0.35772059 0.38872549
0 0.375 0.37352941
0 0.38841146 0.38460478
0.22778799 0.39866728 0.39157475
0.41035539 0.40847886 0.39971661
0.61911765 0.4127451 0.39632353
0.78702512 0.42428002 0.392356
0.9189951 0.44411765 0.38921569
1 0.46483609 0.38070619
1 0.48970588 0.37843137
0 0.53259804 0.40171569
0.10199142 0.54028799 0.40851716
0.26397059 0.54044118 0.409375
0.36243873 0.53036152 0.38474265
0.54436275 0.56335784 0.37144608
0.74439338 0.59335172 0.37009804
0.88278186 0.59981618 0.37616422
0.99656863 0.60971201 0.37313113
1 0.61617647 0.3627451
0.05882353 0.65545343 0.42359069
0.17157629 0.66047794 0.42873009
0.19290748 0.65692402 0.39840686
0.31233915 0.64403339 0.37618719
0.46158088 0.65168505 0.36102941
0.65784314 0.6959329 0.34703585
0.84624694 0.73627451 0.3379136
0.96482843 0.73480392 0.35490196
1 0.73480392 0.37205882
0 0.76727941 0.41678922
0 0.7674326 0.40464154
0.07720588 0.76320466 0.39457721
0.27284007 0.75513174 0.38235294
0.40925245 0.74583333 0.36311275
0.58656556 0.77843137 0.3528799
0.76335784 0.81207108 0.33636642
0.93920037 0.84620098 0.30605086
1 0.83897059 0.33051471
0 0.87530637 0.45012255
0.03261336 0.87723652 0.45207567
0.18999694 0.87210478 0.44474571
0.31058517 0.86801471 0.4335095
0.42472426 0.86246936 0.41893382
0.56630668 0.87384344 0.40716912
0.71600797 0.89460784 0.39304534
0.86715686 0.91078431 0.36209406
1 0.93560049 0.29019608
0.41421569 0.97647059 0.60245098
0.43088235 0.97794118 0.60606618
0.46066176 0.97683824 0.60281863
0.50833333 0.97647059 0.60245098
0.57181373 0.97647059 0.60122549
0.65 0.97702206 0.59852941
0.74607843 0.98468137 0.58186275
0.84785539 0.99215686 0.54558824
0.95686275 0.99460784 0.46764706
0 0.00784314 0.58823529
0 0 0.59387255
0.27058824 0 0.60294118
0.48308824 0 0.61568627
0.67647059 0 0.62941176
0.81470588 0 0.60906863
0.95196078 0 0.59215686
1 0 0.56642157
1 0 0.53921569
0 0.10539216 0.58063725
0 0.09947917 0.58826593
0.26660539 0.07775735 0.5973652
0.48514093 0 0.61568627
0.6745098 0 0.62732843
0.81544118 0 0.60906863
0.95098039 0 0.590625
1 0 0.5627451
1 0 0.53946078
0 0.2245098 0.57598039
0 0.23468137 0.58498775
0.24632353 0.23517157 0.59436275
0.47352941 0.22843137 0.60857843
0.66568627 0.20955882 0.61911765
0.80863971 0.16617647 0.60214461
0.94105392 0.16164216 0.58419118
1 0.21115196 0.56072304
1 0.29019608 0.54509804
0 0.38529412 0.5497549
0 0.39632353 0.56283701
0.16231618 0.39497549 0.56568627
0.4278799 0.40661765 0.58357843
0.63284314 0.41397059 0.59816176
0.78630515 0.40266544 0.58627451
0.91930147 0.41464461 0.57254902
1 0.43985907 0.5606924
1 0.50514706 0.57352941
0 0.55 0.54411765
0 0.55686275 0.54987745
0.25220588 0.55980392 0.55294118
0.42732843 0.5682598 0.55906863
0.58235294 0.57794118 0.56715686
0.74509804 0.59019608 0.57095588
0.87818627 0.60465686 0.57401961
0.9879902 0.62071078 0.57536765
1 0.63431373 0.57254902
0.18921569 0.68137255 0.56151961
0.25539216 0.68783701 0.56985294
0.34993873 0.68651961 0.56862745
0.46176471 0.68624387 0.57227328
0.53051471 0.67340686 0.54142157
0.67745098 0.70462623 0.53921569
0.84405637 0.73327206 0.55128676
0.95775123 0.73627451 0.56479779
1 0.74142157 0.56740196
0.29215686 0.78627451 0.58578431
0.3276348 0.78817402 0.58921569
0.38982843 0.78541667 0.58835784
0.43014706 0.7814951 0.56384804
0.48480392 0.76936275 0.52916667
0.60171569 0.77745098 0.51672794
0.77365196 0.81568627 0.52377451
0.93357843 0.84417892 0.52751225
1 0.83872549 0.54705882
0.38455882 0.88112745 0.62573529
0.38844975 0.8830576 0.6200674
0.38406863 0.88284314 0.59914216
0.40401348 0.88023897 0.57092525
0.48247549 0.87414216 0.55343137
0.57558211 0.86734069 0.53382353
0.72150735 0.89215686 0.5370098
0.86936275 0.9125 0.53189338
1 0.93382353 0.51519608
0.47843137 0.97647059 0.68823529
0.48235294 0.98039216 0.68627451
0.49852941 0.97696078 0.68039216
0.54166667 0.97769608 0.67769608
0.59509804 0.97745098 0.6745098
0.6627451 0.97647059 0.67107843
0.7504902 0.98284314 0.6627451
0.85147059 0.99191176 0.64460784
0.95490196 0.99215686 0.59607843
0 0 0.74411765
0.09117647 0 0.74589461
0.31004902 0 0.75196078
0.50594363 0 0.76372549
0.68235294 0 0.77156863
0.82892157 0 0.7754902
0.93382353 0 0.75441176
1 0 0.7341299
1 0 0.71029412
0 0.09528186 0.74001225
0.09505974 0.08759957 0.74787837
0.31213235 0.05294118 0.75344669
0.50379902 0 0.76146599
0.68048407 0 0.76966912
0.82679228 0 0.77500766
0.93328738 0 0.75387561
1 0 0.73278186
1 0 0.71029412
0 0.23713235 0.73676471
0.01125919 0.23688725 0.74096201
0.29491422 0.23324142 0.74592525
0.49163603 0.22712929 0.75310968
0.66789216 0.22591912 0.76243873
0.81470588 0.22094056 0.76787684
0.92536765 0.20085784 0.75070466
1 0.22061887 0.73223039
1 0.29080882 0.71139706
0 0.38137255 0.71029412
0 0.38873315 0.71959252
0.2166973 0.39376532 0.72689951
0.45400582 0.40455729 0.73382353
0.63918505 0.42012868 0.74558824
0.78913143 0.4338848 0.75683977
0.90392157 0.42512255 0.74060968
1 0.44063266 0.72671569
1 0.48394608 0.71574755
0 0.5502451 0.69632353
0 0.55315564 0.69810049
0.18259804 0.5536152 0.7002451
0.38746936 0.55370711 0.70220588
0.58995098 0.57487745 0.7189951
0.75104167 0.59757966 0.73719363
0.87628676 0.59485294 0.72916667
0.98504902 0.6088848 0.7213848
1 0.63137255 0.71666667
0.09178922 0.68921569 0.68529412
0.20202972 0.6953508 0.69142923
0.32610294 0.69669118 0.69192708
0.4588848 0.70063572 0.6959329
0.58581495 0.70735294 0.70098039
0.70620404 0.71909467 0.71090686
0.8421875 0.7338848 0.72017463
0.95207567 0.74748775 0.72481618
1 0.7588848 0.72990196
0.38088235 0.80919118 0.71372549
0.40770527 0.80975797 0.71433824
0.45652574 0.80882353 0.71510417
0.52564338 0.80629596 0.71358762
0.60453431 0.80251225 0.71011029
0.65654105 0.79206495 0.68242953
0.78566176 0.81957721 0.68820466
0.92605699 0.84117647 0.70556066
1 0.84411765 0.72242647
0.45324755 0.89460784 0.73658088
0.47095588 0.89246324 0.73660386
0.50487132 0.89394914 0.73811275
0.55324755 0.89068627 0.73399969
0.59607843 0.88805147 0.71672794
0.62879902 0.87903646 0.68008578
0.73092831 0.88935355 0.67242647
0.875 0.91266085 0.68719363
0.99785539 0.92775735 0.69442402
0.58970588 0.97892157 0.79754902
0.59607843 0.97647059 0.79754902
0.61715686 0.97794118 0.79571078
0.62702206 0.97702206 0.7838848
0.63553922 0.98039216 0.7622549
0.68958333 0.97984069 0.75533088
0.75992647 0.98039216 0.7504902
0.85539216 0.98823529 0.74234069
0.95686275 0.99215686 0.72058824
0.15196078 0 0.86764706
0.23933824 0 0.86776961
0.37843137 0 0.87132353
0.53039216 0 0.87156863
0.68186275 0 0.87745098
0.82365196 0 0.88504902
0.94215686 0 0.8872549
1 0 0.86936275
1 0 0.84901961
0.14411765 0.08480392 0.86372549
0.24249387 0.07700674 0.86807598
0.37613358 0.04280025 0.86838235
0.52970282 0 0.87169118
0.68106618 0 0.878125
0.82169118 0 0.88368566
0.9388174 0 0.88468137
1 0 0.86813725
1 0.08063725 0.84779412
0.11740196 0.24019608 0.85980392
0.22218137 0.2408701 0.86170343
0.36501225 0.23707108 0.86372549
0.52074142 0.23474265 0.86636029
0.67058824 0.24362745 0.87352941
0.81053922 0.27279412 0.87941176
0.92849265 0.28572304 0.88216912
1 0.27579657 0.86384804
1 0.31397059 0.84730392
0 0.38210784 0.84448529
0.13959865 0.39751838 0.84817708
0.32515319 0.40281863 0.85140931
0.49270833 0.40929841 0.85404412
0.64601716 0.42561275 0.86017157
0.78697917 0.45773591 0.86950061
0.90542279 0.47512255 0.8745098
0.99442402 0.46845895 0.8580576
1 0.48897059 0.84227941
0 0.5372549 0.81960784
0 0.54117647 0.825
0.20514706 0.54301471 0.82892157
0.42457108 0.55098039 0.83535539
0.60759804 0.57745098 0.84264706
0.75588235 0.60753676 0.85588235
0.87573529 0.62401961 0.86237745
0.97279412 0.61838235 0.85245098
1 0.63284314 0.84019608
0 0.68884804 0.81090686
0.1001685 0.68921569 0.81282169
0.26914828 0.6916973 0.81593137
0.41323529 0.69252451 0.81666667
0.54656863 0.69136029 0.81734069
0.71219363 0.71873468 0.83465074
0.84791667 0.74344363 0.85137868
0.94607843 0.74301471 0.84448529
0.99963235 0.75551471 0.84019608
0.3125 0.80759804 0.80686275
0.35 0.81213235 0.81112132
0.41666667 0.81335784 0.81280637
0.5051777 0.81335784 0.81207108
0.60625 0.81617647 0.81568627
0.71109069 0.82322304 0.82156863
0.81348039 0.83327206 0.83235294
0.92273284 0.84546569 0.84050245
1 0.85686275 0.84828431
0.53088235 0.90637255 0.83639706
0.54371936 0.90713848 0.8370864
0.57389706 0.90658701 0.83759191
0.61822917 0.90614277 0.83769914
0.67310049 0.90508578 0.83682598
0.73235294 0.90148591 0.83333333
0.76966912 0.89080882 0.80502451
0.88553922 0.9145527 0.81689645
0.99215686 0.92598039 0.83321078
0.63235294 0.98039216 0.86764706
0.64019608 0.98039216 0.86764706
0.65735294 0.97818627 0.86764706
0.68872549 0.98039216 0.86764706
0.72401961 0.97843137 0.86568627
0.7627451 0.98039216 0.85931373
0.78921569 0.98039216 0.8372549
0.86372549 0.98480392 0.83247549
0.96470588 0.99215686 0.83235294
0.32205882 0 0.95735294
0.36470588 0 0.95735294
0.45428922 0 0.95992647
0.56960784 0 0.96078431
0.69191176 0 0.95906863
0.81127451 0 0.96127451
0.92732843 0.08235294 0.96384804
1 0.11574755 0.96519608
1 0.11519608 0.96176471
0.31862745 0.10539216 0.95349265
0.36863511 0.10533854 0.95729933
0.45623468 0.09281556 0.95660233
0.56633732 0.07612592 0.95735294
0.69001225 0.07898284 0.96038603
0.80947457 0.1245864 0.96008732
0.92417279 0.20528493 0.96202512
1 0.2243413 0.96175705
1 0.22696078 0.95784314
0.31666667 0.26017157 0.95245098
0.3615962 0.26147365 0.95343137
0.45045956 0.26179534 0.95343137
0.56294424 0.26530331 0.95447304
0.6838848 0.27726716 0.95514706
0.80165441 0.3088848 0.95735294
0.91464461 0.35952819 0.95778186
1 0.37751225 0.96095282
1 0.37463235 0.95
0.27512255 0.41060049 0.94344363
0.33459712 0.41672794 0.94558824
0.42660846 0.4198989 0.94595588
0.54393382 0.42996324 0.94840686
0.66559436 0.44558824 0.94764093
0.78444393 0.47500766 0.95031403
0.89600184 0.51591605 0.95174632
0.99248621 0.53069853 0.95486366
1 0.52303922 0.94185049
0.11078431 0.54656863 0.93357843
0.21813725 0.54874387 0.93382353
0.35 0.55122549 0.93382353
0.50677083 0.57285539 0.9341299
0.6375 0.58921569 0.9377451
0.7611826 0.61191789 0.94093137
0.8721201 0.64338235 0.94338235
0.96914828 0.65778186 0.94797794
1 0.65122549 0.93602941
0 0.68137255 0.91685049
0.12583487 0.68169424 0.9182981
0.26622243 0.68088235 0.91813725
0.4192402 0.68169424 0.91931679
0.58112745 0.69451593 0.92426471
0.72807138 0.72169884 0.92935049
0.85021446 0.74920343 0.93547794
0.94777114 0.76633732 0.94164369
1 0.76403186 0.93363971
0.28872549 0.80980392 0.91041667
0.3239277 0.80980392 0.91040135
0.38979779 0.8104473 0.91032475
0.47700674 0.80980392 0.9106924
0.57506127 0.80955882 0.91078431
0.67666973 0.80750613 0.91214767
0.81773897 0.83045343 0.92215074
0.92990196 0.85707721 0.93523284
1 0.85723039 0.93002451
0.4754902 0.90680147 0.90980392
0.49116881 0.90942862 0.90980392
0.52872243 0.90862439 0.90981924
0.58754596 0.90795037 0.90825674
0.66148897 0.90879289 0.91032475
0.74267004 0.91187194 0.91417739
0.8260723 0.91567096 0.91577819
0.90943627 0.92512255 0.92248775
0.98909314 0.93425245 0.9307598
0.67794118 0.98431373 0.92990196
0.68878676 0.9838848 0.92990196
0.7057598 0.9807598 0.92990196
0.73756127 0.9841299 0.93333333
0.77107843 0.98259804 0.93382353
0.81213235 0.98272059 0.93223039
0.85894608 0.98431373 0.93345588
0.88768382 0.98431373 0.9151348
0.97598039 0.99215686 0.92205882
0.45882353 0.1372549 1
0.48235294 0.14117647 1
0.5372549 0.1372549 1
0.62058824 0.14117647 1
0.71372549 0.16078431 1
0.81323529 0.2 1
0.90784314 0.25588235 1
1 0.33382353 1
1 0.34117647 1
0.45882353 0.20735294 1
0.48541667 0.21084559 1
0.53762255 0.21213235 1
0.62058824 0.21764706 1
0.71176471 0.23480392 1
0.80931373 0.2658701 1
0.9064951 0.31421569 1
0.99356618 0.38082108 1
1 0.39166667 1
0.46176471 0.33333333 1
0.48504902 0.33443627 1
0.5370098 0.33823529 1
0.61776961 0.34607843 1
0.70735294 0.35882353 1
0.80183824 0.38566176 1
0.89828431 0.4254902 1
0.98835784 0.48051471 1
1 0.48333333 1
0.45098039 0.46764706 1
0.47971814 0.4754902 1
0.53235294 0.47941176 1
0.609375 0.4872549 1
0.69754902 0.4997549 1
0.79209559 0.52310049 1
0.88370098 0.55036765 1
0.97303922 0.58970588 1
1 0.59313725 1
0.42941176 0.59803922 1
0.4627451 0.60784314 1
0.51617647 0.60784314 1
0.59387255 0.61568627 1
0.68333333 0.62647059 1
0.77671569 0.64191176 1
0.87107843 0.6627451 1
0.95735294 0.69240196 1
1 0.69803922 1
0.33970588 0.69705882 1
0.37873775 0.70079657 1
0.44852941 0.70490196 1
0.54368873 0.71035539 1
0.65735294 0.72892157 1
0.75833333 0.74264706 1
0.85588235 0.7622549 1
0.94166667 0.78333333 0.9973652
1 0.79362745 0.99754902
0.39607843 0.81372549 0.99215686
0.41813725 0.81764706 0.99607843
0.45759804 0.81372549 0.99362745
0.52144608 0.81372549 0.99546569
0.60392157 0.81372549 0.99607843
0.72414216 0.82205882 0.99509804
0.84019608 0.84191176 0.99313725
0.92990196 0.86372549 0.99571078
1 0.87254902 0.99313725
0.53823529 0.91421569 0.98823529
0.54908088 0.91721814 0.99123775
0.57438725 0.91507353 0.98909314
0.61862745 0.91421569 0.98952206
0.67352941 0.91470588 0.98872549
0.74313725 0.91470588 0.9908701
0.81323529 0.91078431 0.98860294
0.91807598 0.92598039 0.99209559
0.99215686 0.94166667 0.99215686
0.66666667 0.98431373 0.98431373
0.67401961 0.98431373 0.98431373
0.69313725 0.98431373 0.98529412
0.72156863 0.98578431 0.98578431
0.76470588 0.98627451 0.98627451
0.81323529 0.98578431 0.98578431
0.86862745 0.98529412 0.98823529
0.92990196 0.98872549 0.98872549
0.98823529 0.99215686 0.99215686
