Kodak Converted/Kodak Elite Color 200.cube
# Exported with LUT Lab 1.2.1
# LUTLab.com
TITLE Kodak Elite Color 200
LUT_3D_SIZE 5
0 0 0
0.15196078 0 0
0.36470588 0.00392157 0.00392157
0.67745098 0.02352941 0.02352941
0.96862745 0.09411765 0.0745098
0.08529412 0.14019608 0.01568627
0.17941176 0.14779412 0.02352941
0.39215686 0.16372549 0.03921569
0.69926471 0.19509804 0.06764706
0.97647059 0.25784314 0.12156863
0.11764706 0.34117647 0.02156863
0.22647059 0.34656863 0.0254902
0.45294118 0.35980392 0.0372549
0.74117647 0.38431373 0.06323529
0.99607843 0.43333333 0.11372549
0.22843137 0.56176471 0
0.32941176 0.56176471 0
0.55784314 0.56176471 0
0.81446078 0.57352941 0
1 0.60490196 0.02647059
0.4627451 0.72156863 0
0.52843137 0.72156863 0
0.69215686 0.72156863 0
0.9 0.71764706 0
1 0.71764706 0
0 0.01568627 0.16764706
0.16666667 0.02254902 0.18553922
0.38039216 0.03921569 0.20294118
0.68921569 0.07132353 0.23039216
0.96862745 0.14509804 0.27745098
0.09705882 0.1752451 0.17156863
0.18333333 0.18235294 0.18235294
0.4 0.19901961 0.20196078
0.70392157 0.23112745 0.22965686
0.97647059 0.29313725 0.27745098
0.11176471 0.37598039 0.15539216
0.2189951 0.38039216 0.16127451
0.45588235 0.39558824 0.17696078
0.74313725 0.42107843 0.20686275
0.99215686 0.47205882 0.26078431
0.21862745 0.58921569 0.05686275
0.32647059 0.59215686 0.06078431
0.55392157 0.59705882 0.07647059
0.80686275 0.6120098 0.103125
1 0.64411765 0.16004902
0.49019608 0.7254902 0
0.55122549 0.7254902 0
0.70980392 0.72156863 0
0.91078431 0.72156863 0
1 0.72156863 0
0.00392157 0.06862745 0.36078431
0.17941176 0.07058824 0.37843137
0.39607843 0.08431373 0.4
0.7 0.11960784 0.42745098
0.96862745 0.19215686 0.47254902
0.09411765 0.22254902 0.4
0.18333333 0.23186275 0.41164216
0.41176471 0.25 0.43137255
0.71176471 0.28186275 0.46237745
0.97009804 0.34607843 0.50588235
0.10196078 0.4372549 0.43137255
0.19852941 0.44313725 0.43921569
0.45882353 0.45833333 0.45882353
0.73921569 0.48455882 0.48627451
0.98039216 0.53627451 0.52941176
0.14117647 0.67205882 0.39803922
0.29019608 0.67389706 0.40490196
0.53112745 0.68137255 0.4247549
0.78553922 0.69595588 0.45723039
0.99852941 0.72647059 0.51127451
0.5254902 0.74509804 0.01372549
0.57990196 0.74705882 0.01568627
0.72745098 0.74803922 0.02352941
0.91127451 0.75588235 0.04166667
1 0.78235294 0.10784314
0.01666667 0.14509804 0.61372549
0.19509804 0.14607843 0.62941176
0.42352941 0.14607843 0.64656863
0.71568627 0.16495098 0.66544118
0.96862745 0.23529412 0.69607843
0.10882353 0.27352941 0.6747549
0.20349265 0.28008578 0.6838848
0.43995098 0.29669118 0.69718137
0.72352941 0.32622549 0.71544118
0.96764706 0.38823529 0.74142157
0.06029412 0.49411765 0.72107843
0.21384804 0.49803922 0.72696078
0.47696078 0.51078431 0.73676471
0.7435049 0.5372549 0.75245098
0.97254902 0.58627451 0.7745098
0.12401961 0.75171569 0.74313725
0.28143382 0.75416667 0.74705882
0.52561275 0.75955882 0.75490196
0.77058824 0.77022059 0.77058824
0.98039216 0.79705882 0.79411765
0.44215686 0.89509804 0.61078431
0.50808824 0.89901961 0.61544118
0.66421569 0.89901961 0.62745098
0.84730392 0.90686275 0.65171569
1 0.91862745 0.70098039
0.05490196 0.20784314 0.82745098
0.24215686 0.20784314 0.83921569
0.4745098 0.20392157 0.84705882
0.74215686 0.2 0.85490196
0.97254902 0.24313725 0.87058824
0.17156863 0.27745098 0.87745098
0.28431373 0.28137255 0.88235294
0.50196078 0.29509804 0.88921569
0.75490196 0.32156863 0.89730392
0.97254902 0.3872549 0.90882353
0.24509804 0.49803922 0.91764706
0.34411765 0.49803922 0.92156863
0.54901961 0.50980392 0.9254902
0.77990196 0.53431373 0.93333333
0.98039216 0.58823529 0.94117647
0.32254902 0.78235294 0.95294118
0.41176471 0.78529412 0.95294118
0.59852941 0.78921569 0.95686275
0.79877451 0.79803922 0.96176471
0.98039216 0.82156863 0.96960784
0.51372549 0.99215686 0.97254902
0.56372549 0.99215686 0.97254902
0.68823529 0.99215686 0.98039216
0.84019608 0.99607843 0.98823529
1 1 1
