Kodak Converted/Kodak E-100 GX Ektachrome 100.cube
# Exported with LUT Lab 1.2.1
# LUTLab.com
TITLE Kodak E-100 GX Ektachrome 100
LUT_3D_SIZE 5
0 0 0
0.15490196 0 0
0.39215686 0 0
0.64509804 0.00392157 0
0.84705882 0.00784314 0
0.12941176 0.21764706 0.07745098
0.24436275 0.1997549 0.06568627
0.45784314 0.15294118 0.03823529
0.66764706 0.05367647 0.00759804
0.84313725 0.00392157 0
0.26666667 0.5 0.19411765
0.36960784 0.49411765 0.18627451
0.55686275 0.4745098 0.16666667
0.76029412 0.41715686 0.14313725
0.91372549 0.25490196 0.10392157
0.47254902 0.76568627 0.34215686
0.53039216 0.7627451 0.33823529
0.66960784 0.75833333 0.32647059
0.84044118 0.73823529 0.30686275
0.99607843 0.68137255 0.2754902
0.72156863 0.98039216 0.51372549
0.74803922 0.98039216 0.50980392
0.82156863 0.98039216 0.50588235
0.93431373 0.98039216 0.49803922
1 0.97254902 0.47843137
0 0 0.14313725
0.12377451 0 0.12745098
0.37254902 0 0.10392157
0.6254902 0 0.07254902
0.83137255 0.00392157 0.0372549
0.09803922 0.22941176 0.2379902
0.21709559 0.21372549 0.22867647
0.44227941 0.16862745 0.20379902
0.65514706 0.06372549 0.16642157
0.83063725 0.00392157 0.12671569
0.22990196 0.50980392 0.34215686
0.34215686 0.50232843 0.33615196
0.53921569 0.48235294 0.32083333
0.74656863 0.42696078 0.29485294
0.90392157 0.26666667 0.25539216
0.45220588 0.76960784 0.45490196
0.51151961 0.76666667 0.45318627
0.65588235 0.76176471 0.44313725
0.82867647 0.74270833 0.42720588
0.98529412 0.68529412 0.40294118
0.70980392 0.98039216 0.59901961
0.7372549 0.98039216 0.59901961
0.81372549 0.98431373 0.59509804
0.92647059 0.98431373 0.58333333
1 0.97647059 0.56862745
0 0.00392157 0.35294118
0.08676471 0 0.34117647
0.34117647 0 0.32156863
0.60147059 0 0.29803922
0.80784314 0 0.27058824
0.06568627 0.25294118 0.45637255
0.16911765 0.23615196 0.44705882
0.41495098 0.19215686 0.42647059
0.63308824 0.07977941 0.39313725
0.80392157 0 0.35980392
0.13333333 0.52254902 0.55098039
0.28676471 0.51764706 0.54534314
0.50588235 0.49852941 0.53137255
0.72303922 0.44632353 0.50955882
0.88431373 0.29313725 0.4745098
0.40196078 0.7745098 0.64558824
0.46911765 0.7745098 0.64215686
0.62254902 0.76887255 0.63382353
0.80269608 0.75098039 0.61862745
0.96519608 0.69607843 0.59901961
0.69019608 0.98431373 0.74705882
0.71715686 0.98431373 0.74313725
0.79411765 0.98431373 0.73921569
0.90833333 0.98431373 0.73529412
1 0.98039216 0.72156863
0 0.01568627 0.58529412
0.03406863 0.00392157 0.5745098
0.29803922 0 0.55098039
0.56666667 0 0.53039216
0.78039216 0 0.50784314
0.01372549 0.29215686 0.67867647
0.11102941 0.27653186 0.67083333
0.37585784 0.23223039 0.64840686
0.61194853 0.12346814 0.61648284
0.77647059 0 0.58063725
0 0.54558824 0.75637255
0.17745098 0.54215686 0.7504902
0.45833333 0.5254902 0.73553922
0.6939951 0.47757353 0.71360294
0.87009804 0.33970588 0.68235294
0.31862745 0.78627451 0.83014706
0.40392157 0.78627451 0.82677696
0.57892157 0.78198529 0.81801471
0.77316176 0.76531863 0.80514706
0.94509804 0.71176471 0.78627451
0.65882353 0.98823529 0.90294118
0.68627451 0.98823529 0.90294118
0.76813725 0.98823529 0.89901961
0.8872549 0.99215686 0.89509804
1 0.98431373 0.88333333
0 0.05098039 0.73333333
0.00392157 0.01960784 0.7254902
0.27058824 0 0.69803922
0.54313725 0 0.6745098
0.76078431 0 0.65490196
0.00392157 0.33137255 0.82254902
0.03112745 0.31960784 0.81470588
0.33676471 0.28039216 0.79166667
0.59632353 0.17745098 0.75980392
0.76372549 0 0.72058824
0 0.57058824 0.89411765
0.04215686 0.56862745 0.88823529
0.40588235 0.55294118 0.87156863
0.66813725 0.51127451 0.84901961
0.86078431 0.39019608 0.82156863
0.1872549 0.80098039 0.95686275
0.31397059 0.79803922 0.95294118
0.52843137 0.79705882 0.94215686
0.74240196 0.78235294 0.92941176
0.92647059 0.73529412 0.91078431
0.61568627 0.98823529 1
0.64705882 0.99215686 1
0.73529412 0.99215686 1
0.86372549 0.99607843 1
1 0.99607843 1
