Kodak Converted/Kodak Portra 160 ++.cube
# Exported with LUT Lab 1.2.1
# LUTLab.com
TITLE Kodak Portra 160 4 ++
LUT_3D_SIZE 33
0.1254902 0.0745098 0.06666667
0.12941176 0.0745098 0.06666667
0.12941176 0.07058824 0.06666667
0.14276961 0.0745098 0.06666667
0.15637255 0.07401961 0.06666667
0.17781863 0.07058824 0.06666667
0.19852941 0.07058824 0.06666667
0.21789216 0.06666667 0.0627451
0.25 0.06666667 0.0627451
0.28406863 0.06188725 0.06188725
0.32303922 0.05612745 0.0627451
0.35870098 0.04705882 0.05882353
0.40343137 0.03284314 0.05490196
0.44816176 0.02279412 0.05453431
0.4877451 0.00343137 0.04485294
0.53762255 0 0.03921569
0.58431373 0 0.03529412
0.62340686 0 0.02757353
0.66617647 0 0.02181373
0.70514706 0 0.01213235
0.74019608 0 0.00392157
0.76862745 0 0
0.80514706 0 0
0.82965686 0.01397059 0
0.85686275 0.03823529 0
0.88406863 0.06446078 0
0.90735294 0.0870098 0
0.93455882 0.10845588 0
0.95735294 0.12598039 0
0.98272059 0.14583333 0
1 0.16470588 0
1 0.18247549 0
1 0.20392157 0
0.12732843 0.07634804 0.06666667
0.12830499 0.0773246 0.06666667
0.13517157 0.07843137 0.06666667
0.14386106 0.08026961 0.06542969
0.16029412 0.08235294 0.06666667
0.17781863 0.08026961 0.0627451
0.19926471 0.07843137 0.0627451
0.2195121 0.07784544 0.0627451
0.25340074 0.07634804 0.06136642
0.28636259 0.0728822 0.05968137
0.32303922 0.06973039 0.05947457
0.36229703 0.06425781 0.05665977
0.40490196 0.0567402 0.05375306
0.44982767 0.04460784 0.04872472
0.49026501 0.03180913 0.04485294
0.53946844 0.01544118 0.03535922
0.58327206 0.00459559 0.03045343
0.62512255 0.00005744 0.02352941
0.66514246 0 0.01568627
0.70328585 0 0.00617724
0.74019608 0.00252757 0
0.76862745 0.01335784 0
0.80187653 0.03235294 0
0.82965686 0.05150506 0
0.85842525 0.07340686 0
0.88125 0.08833104 0
0.90696232 0.10845588 0
0.93319164 0.12598039 0
0.95761336 0.14166667 0
0.98381204 0.15979243 0
1 0.17476256 0
1 0.1942402 0
1 0.20968137 0
0.1254902 0.08235294 0.06666667
0.12941176 0.08235294 0.06666667
0.13285846 0.08579963 0.06642157
0.14291513 0.09005055 0.0651731
0.16029412 0.09338235 0.06596201
0.17932751 0.09019608 0.0627451
0.20245098 0.09313725 0.06205576
0.22284773 0.08995098 0.05899969
0.25667892 0.08995098 0.05882353
0.2879902 0.08622089 0.05901501
0.32443321 0.08350184 0.05629596
0.36572457 0.0814951 0.05432751
0.40735294 0.07564338 0.0486826
0.45206036 0.07032016 0.04705882
0.48946078 0.06004902 0.03932292
0.54153646 0.0504902 0.03172488
0.58431373 0.04252451 0.02573529
0.62340686 0.03468903 0.0196155
0.66789216 0.03273591 0.01190257
0.70514706 0.03870251 0.00394455
0.74019608 0.04779412 0
0.76495098 0.05441176 0
0.79992341 0.07132353 0
0.82965686 0.08492647 0
0.85686275 0.09852941 0
0.88118107 0.11230852 0
0.90735294 0.12965686 0
0.93214614 0.14109222 0
0.9578125 0.16032475 0
0.98112745 0.17313879 0
1 0.18823529 0
1 0.20195312 0
1 0.22328431 0
0.12781863 0.09803922 0.0689951
0.12941176 0.09888557 0.06666667
0.13551624 0.09803922 0.06666667
0.14371553 0.10057828 0.06528416
0.15637255 0.10384498 0.0627451
0.17861903 0.10747549 0.06219746
0.20507812 0.1077742 0.05882353
0.22683824 0.10747549 0.05702359
0.25943627 0.10572917 0.05530025
0.29226026 0.10514706 0.05490196
0.32965686 0.10405178 0.05258119
0.37010187 0.10489813 0.05098039
0.4102788 0.09963235 0.04546569
0.45578661 0.09730392 0.04132583
0.49628523 0.09248621 0.03439798
0.54534314 0.08708257 0.02732843
0.58627451 0.08357843 0.01881127
0.62874923 0.08161765 0.01183747
0.67079504 0.08333333 0.00302543
0.70529642 0.08532093 0
0.74206495 0.09192708 0
0.76862745 0.09730392 0
0.80354626 0.10796569 0
0.82965686 0.1181564 0
0.85628064 0.12907475 0
0.8847235 0.14281173 0
0.90735294 0.15294118 0
0.93198529 0.16549862 0
0.95784314 0.17855392 0
0.98272059 0.18982843 0
1 0.20561428 0
1 0.21936275 0
1 0.23688725 0
0.1254902 0.11323529 0.06666667
0.12941176 0.11323529 0.06484375
0.13379289 0.11369485 0.06320466
0.14257047 0.11715686 0.06443015
0.15294118 0.11764706 0.06323529
0.17164522 0.125 0.05882353
0.19862132 0.13170956 0.05882353
0.22423407 0.13270527 0.05772059
0.26213235 0.12977941 0.05098039
0.29583333 0.12892157 0.04754902
0.33431373 0.13235294 0.04705882
0.37336091 0.12850797 0.0426011
0.41648284 0.12843137 0.03707108
0.45992647 0.12843137 0.03186275
0.49779412 0.125 0.02573529
0.54594056 0.1245098 0.01617647
0.59019608 0.12426471 0.01004902
0.63112745 0.12403493 0.00061275
0.6703125 0.1245098 0
0.70862439 0.13109681 0
0.74166667 0.13382353 0
0.76862745 0.14019608 0
0.80245098 0.14534314 0
0.83002451 0.15464154 0
0.85588235 0.16066176 0
0.88160233 0.16896446 0
0.90670956 0.17950368 0
0.93112745 0.19031863 0
0.95735294 0.20300245 0
0.98272059 0.21360294 0
1 0.22328431 0
1 0.23849571 0
1 0.25441176 0
0.1254902 0.13468137 0.0627451
0.13004366 0.13410692 0.06474418
0.13333333 0.13210784 0.0627451
0.14375 0.1370098 0.06611903
0.15261949 0.13828125 0.0629136
0.16740196 0.14163986 0.06186045
0.19007353 0.15011489 0.05907629
0.21579733 0.15636106 0.05452282
0.25551471 0.15955882 0.04770221
0.29534314 0.16012178 0.0420841
0.33830423 0.15955882 0.03609835
0.37944623 0.16213235 0.03333333
0.41962316 0.15955882 0.02449449
0.46482843 0.16335401 0.02181373
0.50235141 0.16068474 0.01401654
0.54930683 0.15960095 0.00641468
0.59283088 0.16090686 0
0.63504902 0.16352252 0
0.67401961 0.16595435 0
0.70906863 0.16740196 0
0.74231005 0.17182904 0
0.76605392 0.17659314 0
0.80110294 0.18216146 0
0.82860371 0.18902037 0
0.85588235 0.19451593 0
0.88087086 0.20134804 0
0.90661765 0.21028646 0
0.93063725 0.21703431 0
0.9551011 0.22654718 0
0.97879902 0.23664216 0
1 0.24856771 0
1 0.26017157 0
1 0.27058824 0
0.12230392 0.16004902 0.06348039
0.12771906 0.16004902 0.06348039
0.13333333 0.15632659 0.06279105
0.14147518 0.15961244 0.06304381
0.15245098 0.16283701 0.0627451
0.16653646 0.16506587 0.05930607
0.18736213 0.17107843 0.05882353
0.2060432 0.17512255 0.05469516
0.2497549 0.18829657 0.04466912
0.28926164 0.19211857 0.03586857
0.33357843 0.19829963 0.02918199
0.37904412 0.19790901 0.02022825
0.42650123 0.19733456 0.0125
0.46740196 0.19786305 0.00428922
0.50693934 0.20032169 0.00032169
0.55651808 0.19865196 0
0.59963235 0.20245098 0
0.63897059 0.20625 0
0.67794118 0.20816483 0
0.71010263 0.20740656 0
0.74411765 0.21421569 0
0.76789216 0.21666667 0
0.80145527 0.2205576 0
0.82965686 0.2245481 0
0.85588235 0.22990196 0
0.88014706 0.23664216 0
0.90721507 0.24240196 0
0.93198529 0.2495098 0
0.95456495 0.25735294 0
0.97879902 0.26403952 0
1 0.27377451 0
1 0.28331036 0
1 0.29656863 0
0.12156863 0.18088235 0.06384804
0.12698759 0.18237975 0.06482843
0.13333333 0.18352482 0.0664905
0.13950291 0.18043428 0.06339997
0.15245098 0.18466605 0.0627451
0.16605392 0.18762255 0.05920267
0.18357843 0.19154412 0.05653339
0.20330882 0.19454274 0.05490196
0.24108456 0.2111826 0.04886642
0.28296569 0.22401961 0.03505285
0.32691483 0.22706036 0.02277114
0.37328431 0.23186275 0.01066176
0.42262561 0.23255208 0.00105699
0.47169118 0.23296569 0
0.51409314 0.23248315 0
0.56222044 0.23688725 0
0.60392157 0.23688725 0
0.64280407 0.2396178 0
0.67856158 0.24080882 0
0.71033241 0.24070542 0
0.74370404 0.24431679 0
0.76862745 0.24473039 0
0.80210631 0.24918811 0
0.82659314 0.25391391 0
0.85505515 0.25848652 0
0.88014706 0.26323529 0
0.90432751 0.26768536 0
0.93063725 0.27365196 0
0.9537837 0.2817402 0
0.97879902 0.28843827 0
1 0.29639246 0
1 0.30394838 0
1 0.31593137 0
0.11470588 0.22058824 0.05980392
0.12156863 0.21920956 0.0627451
0.12941176 0.21783088 0.0627451
0.13884804 0.21666667 0.0627451
0.15159314 0.21764706 0.0627451
0.16605392 0.22156863 0.05882353
0.18357843 0.2254902 0.05588235
0.20260417 0.23051471 0.05407475
0.23039216 0.2372549 0.04803922
0.26488971 0.24715074 0.04129902
0.31617647 0.26862745 0.02083333
0.36360294 0.27647059 0.00082721
0.41691176 0.28394608 0
0.46776961 0.28431373 0
0.51519608 0.28553922 0
0.56792279 0.28336397 0
0.60882353 0.28529412 0
0.64583333 0.2872549 0
0.67849265 0.28658088 0
0.71237745 0.29001225 0
0.74411765 0.28933824 0
0.76862745 0.28921569 0
0.79920343 0.29215686 0
0.82637868 0.29292279 0
0.85269608 0.29901961 0
0.87803309 0.30153186 0
0.9028799 0.30490196 0
0.92806373 0.30983456 0
0.95257353 0.31580882 0
0.97720588 0.32193627 0
1 0.3283701 0
1 0.33581495 0
1 0.34411765 0
0.10894608 0.24963235 0.05796569
0.11601945 0.25355392 0.05882353
0.12444087 0.25269608 0.05882353
0.13639706 0.25183824 0.06064262
0.1477788 0.2480239 0.05882353
0.16414292 0.25269608 0.05691253
0.18341759 0.25910692 0.05547641
0.20000383 0.26164216 0.05073912
0.23192402 0.27068015 0.04313725
0.26446078 0.28014706 0.03510646
0.30257353 0.29009651 0.02755055
0.361286 0.31605392 0
0.41073836 0.32328431 0
0.46307062 0.33112745 0
0.50907629 0.3332261 0
0.56411994 0.33198529 0
0.60545343 0.32959559 0
0.64681373 0.32803692 0
0.68186275 0.32720588 0
0.71327742 0.32720588 0
0.74411765 0.32752757 0
0.76556373 0.32806373 0
0.79852941 0.32843137 0
0.82831648 0.33352099 0
0.85272672 0.33189338 0
0.87732843 0.33591069 0
0.90257353 0.33954504 0
0.92671569 0.341839 0
0.95075061 0.34719669 0
0.97487745 0.35073529 0
1 0.35876991 0
1 0.3641276 0
1 0.37426471 0
0.10196078 0.29044118 0.05490196
0.10980392 0.29109222 0.05490196
0.11862745 0.29149816 0.05473346
0.12830882 0.2877451 0.05330116
0.14476103 0.28431373 0.05612745
0.16036305 0.28517157 0.05313266
0.17965686 0.29166667 0.04878983
0.19938725 0.29669118 0.04630055
0.23241422 0.30667892 0.03860294
0.26446078 0.31308977 0.02781863
0.30035233 0.32388174 0.01775429
0.34155944 0.3349954 0.00558364
0.40364583 0.36415441 0
0.4560049 0.3703508 0
0.50343137 0.37671569 0
0.55449602 0.37671569 0
0.59865196 0.37401961 0
0.64019608 0.37401961 0
0.67794118 0.36887255 0
0.71421569 0.36861979 0
0.74411765 0.36617647 0
0.76740196 0.36617647 0
0.79730392 0.3657935 0
0.82477788 0.36617647 0
0.85128676 0.3685049 0
0.87539062 0.37009804 0
0.90170037 0.3722886 0
0.92591146 0.37621017 0
0.94984681 0.37794118 0
0.97487745 0.38259038 0
0.9988511 0.38595282 0
1 0.39035692 0
1 0.39877451 0
0.08627451 0.32671569 0.04313725
0.09959023 0.33251379 0.04644608
0.10976562 0.33125 0.0439185
0.12316176 0.33063725 0.04644608
0.14060968 0.32725184 0.04698223
0.15821078 0.32279412 0.04684819
0.17954197 0.32940411 0.04313725
0.19938725 0.33411841 0.03811275
0.23287377 0.34096201 0.03091299
0.26446078 0.34963235 0.02205882
0.2995098 0.35789675 0.00906863
0.33848039 0.36644838 0
0.38137255 0.37645527 0
0.44393765 0.40521216 0
0.49311428 0.41519608 0
0.54474954 0.41691176 0
0.59019608 0.41721814 0
0.63431373 0.41691176 0
0.67009804 0.41360294 0
0.70814568 0.41267999 0
0.74019608 0.404519 0
0.76470588 0.40183824 0
0.79730392 0.40392157 0
0.82525659 0.40466835 0
0.84803922 0.40416667 0
0.87578508 0.40470665 0
0.8988894 0.40526195 0
0.92414216 0.40866651 0
0.94992341 0.40948223 0
0.97462852 0.4129902 0
0.99632353 0.41691176 0
1 0.42083333 0
1 0.42536765 0
0.07598039 0.36568627 0.03284314
0.08880208 0.37144608 0.03321078
0.09941789 0.36976103 0.03284314
0.11678922 0.36655944 0.03284314
0.13658088 0.36568627 0.03529412
0.15609681 0.36125919 0.03760723
0.17892157 0.36148897 0.03529412
0.19980086 0.36573223 0.03068321
0.23272059 0.37254902 0.02107843
0.26446078 0.38169424 0.01122855
0.2995098 0.39022672 0.00147059
0.33848039 0.39767157 0
0.3783701 0.40974265 0
0.42071078 0.41703431 0
0.4754902 0.4388174 0
0.53762255 0.45595895 0
0.58112745 0.45906863 0
0.62328431 0.45833333 0
0.6611826 0.45505515 0
0.69744179 0.45232843 0
0.73235294 0.4504902 0
0.75833333 0.44411765 0
0.79561887 0.43973652 0
0.82267157 0.43872549 0
0.84840686 0.43848039 0
0.87340686 0.43627451 0
0.89558824 0.4370098 0
0.92022059 0.44019608 0
0.94607843 0.4403799 0
0.97095588 0.44312194 0
0.99632353 0.44803922 0
0.9988511 0.45081189 0
1 0.45490196 0
0.0627451 0.40465686 0.01960784
0.07823606 0.41066176 0.02149586
0.09720435 0.40860141 0.02316176
0.11139706 0.406767 0.02316176
0.13279718 0.40461091 0.02316176
0.15428922 0.39951363 0.02352941
0.17603401 0.39614737 0.02641697
0.19938725 0.39818091 0.01950444
0.23039216 0.40554534 0.01237745
0.26446078 0.4125 0.00028722
0.2995098 0.42034314 0
0.33455882 0.42824372 0
0.37745098 0.43981311 0
0.42000996 0.44746094 0
0.45772059 0.45747549 0
0.5172909 0.47856541 0
0.57254902 0.49485294 0
0.61151961 0.49485294 0
0.65404412 0.49485294 0
0.68909314 0.49448529 0
0.72414216 0.4907935 0
0.75220588 0.4870098 0
0.78809743 0.48186275 0
0.81830193 0.47602252 0
0.84500613 0.47123162 0
0.86938189 0.4684015 0
0.8955193 0.4712546 0
0.92022059 0.47132353 0
0.94603248 0.47176777 0
0.97080653 0.47509574 0
0.99632353 0.47879902 0
1 0.48105469 0
1 0.48308824 0
0.05882353 0.43848039 0.00955882
0.07543658 0.44203431 0.00955882
0.09362745 0.44387255 0.01116728
0.11139706 0.43860294 0.01057751
0.13091299 0.4346201 0.01155025
0.15504749 0.43235294 0.01203278
0.17712929 0.42663909 0.01487439
0.19780178 0.42732843 0.01237745
0.23039216 0.43363971 0.00435049
0.26397825 0.44008885 0
0.29730392 0.44701287 0
0.33455882 0.45546875 0
0.37215074 0.46151961 0
0.41405484 0.47128523 0
0.45121017 0.48037684 0
0.49786305 0.49075521 0
0.55196078 0.51090686 0
0.60526961 0.52647059 0
0.64312194 0.52743566 0
0.68096661 0.52647059 0
0.71583946 0.5239277 0
0.74289216 0.52254902 0
0.77941176 0.51740196 0
0.80966605 0.51126685 0
0.83897059 0.50643382 0
0.86886489 0.50170803 0
0.89485294 0.49901961 0
0.92075674 0.50014553 0
0.94558824 0.50052083 0
0.968053 0.50163143 0
0.99632353 0.50454963 0
1 0.50686275 0
1 0.50857843 0
0.05882353 0.4747549 0
0.07641314 0.47867647 0
0.09398744 0.47866881 0
0.11146982 0.4747549 0
0.13674939 0.47473958 0.00332414
0.15571768 0.4682981 0.00130591
0.17965686 0.46688879 0.0030867
0.19831878 0.45906863 0.00273055
0.23048407 0.46308211 0
0.26446078 0.47166437 0
0.29832261 0.47745098 0
0.33453968 0.48639706 0
0.36968444 0.49289216 0
0.40894608 0.49865196 0
0.44411765 0.5082644 0
0.49032246 0.51776961 0
0.53131127 0.52573529 0
0.57966069 0.54105392 0
0.63466605 0.56481311 0
0.66973039 0.56138557 0
0.70482537 0.56482843 0
0.73321078 0.56102941 0
0.77095588 0.55706955 0
0.79911535 0.55021829 0
0.82941176 0.54831495 0
0.86053922 0.54427466 0
0.8877451 0.53833487 0
0.91499311 0.53362056 0
0.94546569 0.5334712 0
0.96936275 0.53590686 0
0.99264706 0.53382353 0
1 0.5375 0
1 0.54129902 0
0.07254902 0.50784314 0
0.09007353 0.50980392 0
0.10551471 0.50980392 0
0.12120098 0.50704657 0
0.14093137 0.50441176 0
0.16348039 0.50196078 0
0.18431373 0.49681373 0
0.20471814 0.49356618 0
0.23333333 0.49215686 0
0.26446078 0.49650735 0
0.2995098 0.50330882 0
0.33229167 0.51011029 0
0.36642157 0.51568627 0
0.40465686 0.52352941 0
0.44129902 0.53137255 0
0.48259804 0.53921569 0
0.52254902 0.54803922 0
0.56053922 0.55490196 0
0.60514706 0.56813725 0
0.65968137 0.59375 0
0.69705882 0.59607843 0
0.72352941 0.59215686 0
0.76066176 0.58958333 0
0.79240196 0.58670343 0
0.82303922 0.58529412 0
0.85269608 0.58039216 0
0.8814951 0.57647059 0
0.91041667 0.57254902 0
0.93995098 0.56862745 0
0.96623775 0.56470588 0
0.99448529 0.56666667 0
1 0.56758578 0
1 0.57058824 0
0.09007353 0.5370098 0
0.10367647 0.53884804 0
0.11728707 0.53713235 0
0.13487669 0.53708257 0
0.1557598 0.5370098 0
0.17377451 0.53059513 0
0.19522059 0.52916667 0
0.21388251 0.52417662 0
0.23820466 0.51749387 0
0.26828661 0.52135034 0
0.2995098 0.52536765 0
0.33133425 0.53380438 0
0.36573223 0.53713235 0
0.4045458 0.54534314 0
0.43627451 0.55110294 0
0.47499617 0.56078048 0
0.51378676 0.5685049 0
0.5528148 0.57634421 0
0.59166667 0.58585325 0
0.63051471 0.59582184 0
0.68446691 0.62245711 0
0.71752451 0.62708333 0
0.75416667 0.62328431 0
0.78355162 0.62031633 0
0.81764706 0.61936275 0
0.84485294 0.61544118 0
0.87218137 0.61151961 0
0.90457261 0.60890395 0
0.93431373 0.60700061 0
0.96156939 0.60360371 0
0.99240196 0.59963235 0
1 0.59589078 0
1 0.5997549 0
0.11323529 0.56421569 0
0.12904412 0.56813725 0
0.13883272 0.5665288 0
0.15232843 0.56421569 0
0.16985294 0.56078431 0
0.18737745 0.55970435 0
0.20703125 0.55678615 0
0.22414982 0.55403646 0
0.24650735 0.54724265 0
0.27230392 0.54509038 0
0.30343137 0.55191483 0
0.33455882 0.55492494 0
0.36740196 0.56167279 0
0.40428922 0.57034314 0
0.43428309 0.57522978 0
0.4730239 0.58216146 0
0.50894608 0.58995098 0
0.54485294 0.59558824 0
0.58285846 0.60542279 0
0.62071078 0.61703431 0
0.65695466 0.62297794 0
0.69632353 0.64313725 0
0.74480699 0.65441176 0
0.77830116 0.65403646 0
0.80808824 0.65214461 0
0.83859528 0.64877451 0
0.86813725 0.64656863 0
0.89669118 0.64264706 0
0.92647059 0.63900123 0
0.95526961 0.63639706 0
0.98480392 0.63480392 0
1 0.63168658 0
1 0.62696078 0
0.14080882 0.59178922 0.00392157
0.15404412 0.59534314 0.00558747
0.16041667 0.59201134 0.00414369
0.17362515 0.59163986 0.00521599
0.18737745 0.58831189 0.00359988
0.20220205 0.5875 0.00122166
0.22242647 0.5875 0
0.23713235 0.57992111 0
0.26050858 0.57582721 0
0.27977941 0.57181373 0
0.30846354 0.57329197 0
0.33848039 0.57971431 0
0.37094056 0.58380821 0
0.40428922 0.59175475 0
0.43235294 0.59754902 0
0.47083333 0.60319776 0
0.50625 0.6096201 0
0.54093137 0.61578585 0
0.57598039 0.62487745 0
0.61136259 0.634892 0
0.64644608 0.6442402 0
0.67487745 0.64705882 0
0.72978707 0.67181373 0
0.76805683 0.68247549 0
0.8010723 0.68189338 0
0.83063725 0.67916667 0
0.86059283 0.67799479 0
0.89142157 0.67769608 0
0.92210478 0.67377451 0
0.95134804 0.67144608 0
0.97732843 0.66629902 0
1 0.66593137 0
1 0.66237745 0
0.16764706 0.61862745 0.01323529
0.17863051 0.62254902 0.01908701
0.18578431 0.62107843 0.01740196
0.19522059 0.61862745 0.01715686
0.20882353 0.61844363 0.01697304
0.22158395 0.61420037 0.01272978
0.23995098 0.61351103 0.01004902
0.25424326 0.60931373 0.00890012
0.27352941 0.60355392 0.00392157
0.29252451 0.59901961 0.0011489
0.31519608 0.59678309 0
0.34571078 0.6027114 0
0.375 0.60747549 0
0.40834865 0.61337316 0
0.43627451 0.61936275 0
0.47083333 0.62642463 0
0.50392157 0.63161765 0
0.53943015 0.64060968 0
0.56985294 0.64632353 0
0.60332414 0.6522212 0
0.63915441 0.66176471 0
0.66519608 0.66813725 0
0.70787377 0.67775735 0
0.75281863 0.69718137 0
0.79301471 0.71164216 0
0.82418811 0.71058517 0
0.8551777 0.70928309 0
0.88442096 0.70882353 0
0.91470588 0.70490196 0
0.94378064 0.70490196 0
0.9752451 0.70327819 0
1 0.70098039 0
1 0.69705882 0
0.19215686 0.64313725 0.03137255
0.20183824 0.64313725 0.03529412
0.20784314 0.63946078 0.03161765
0.21727941 0.64313725 0.03370098
0.22352941 0.63921569 0.02794118
0.2379902 0.63664216 0.02487745
0.25416667 0.63529412 0.02352941
0.26776961 0.63137255 0.01960784
0.28823529 0.62745098 0.01568627
0.3067402 0.62352941 0.01176471
0.32426471 0.61691176 0.00514706
0.3502451 0.62352941 0.00392157
0.37892157 0.62745098 0
0.40857843 0.63137255 0
0.43627451 0.6375 0
0.47463235 0.64313725 0
0.50392157 0.64901961 0
0.53321078 0.65490196 0
0.56813725 0.6627451 0
0.60318627 0.67058824 0
0.63431373 0.67843137 0
0.65882353 0.68235294 0
0.7004902 0.69411765 0
0.73247549 0.69803922 0
0.77843137 0.72156863 0
0.8185049 0.73333333 0
0.84852941 0.73333333 0
0.87965686 0.73333333 0
0.91029412 0.73284314 0
0.93958333 0.72941176 0
0.96887255 0.7254902 0
0.99816176 0.7254902 0
1 0.7254902 0
0.22598039 0.67303922 0.06519608
0.23259804 0.674303 0.06397059
0.24019608 0.6743413 0.06380208
0.24668352 0.67254136 0.06236979
0.25579044 0.67181373 0.06004902
0.26612286 0.66869638 0.0560049
0.28014706 0.66570159 0.05343137
0.28970588 0.66321232 0.04840686
0.30802696 0.66096814 0.04166667
0.32519914 0.65708487 0.03747702
0.34240196 0.65258885 0.02990196
0.36304381 0.64993107 0.02248009
0.39044118 0.65612745 0.02429534
0.41753217 0.66030178 0.02194393
0.4446538 0.6643076 0.02136949
0.47863817 0.67181373 0.02202053
0.50980392 0.67830882 0.02205882
0.5370098 0.68084406 0.02205882
0.56813725 0.68803615 0.02259498
0.59926471 0.69509038 0.02572763
0.63039216 0.70318627 0.02720588
0.65490196 0.70710784 0.03112745
0.69226409 0.71663603 0.03504902
0.72647059 0.72490043 0.03897059
0.75692402 0.73063725 0.04479167
0.79546569 0.74487592 0.04997702
0.83969056 0.76516544 0.04946385
0.8727405 0.7667356 0.00168505
0.90294118 0.76715686 0
0.93174786 0.76556373 0
0.96119792 0.7634038 0
0.99175092 0.76258425 0
1 0.7620098 0
0.25796569 0.70110294 0.0932598
0.26332338 0.70070083 0.09285769
0.26868107 0.70029871 0.09240196
0.27330346 0.69900046 0.08898974
0.28138787 0.69745711 0.08848039
0.29269684 0.69661841 0.08485371
0.30359222 0.69313725 0.0807981
0.31335401 0.69154029 0.07977558
0.32843137 0.68933824 0.07135417
0.34442785 0.68474648 0.06820236
0.35870098 0.6814951 0.0589231
0.37622549 0.67757353 0.05060126
0.40044424 0.68063725 0.04926471
0.42732843 0.68463925 0.05318627
0.45281863 0.68848039 0.05318627
0.48247549 0.6932598 0.05321308
0.51023284 0.69718137 0.05753676
0.54093137 0.70492877 0.06093367
0.56813725 0.71028646 0.06322763
0.59926471 0.71642157 0.06772748
0.629856 0.7240962 0.07225797
0.65490196 0.72855392 0.07671569
0.6908318 0.73580729 0.08274357
0.72052313 0.74338235 0.08762255
0.75162377 0.75208333 0.09546569
0.78234911 0.75820695 0.1002451
0.82193627 0.77185202 0.10866268
0.86482843 0.79024586 0.11816406
0.89788603 0.79408701 0.08062194
0.92657399 0.79346661 0.01416973
0.9544807 0.79154412 0
0.98639706 0.79273514 0
1 0.79044118 0
0.28823529 0.72745098 0.12352941
0.29163603 0.72745098 0.11960784
0.29589461 0.72745098 0.11960784
0.30294118 0.72686887 0.11960784
0.30784314 0.72389706 0.11605392
0.3153799 0.72288603 0.11403186
0.32647059 0.72254902 0.11096814
0.33639706 0.71960784 0.10784314
0.35220588 0.71813725 0.10392157
0.36590074 0.71547181 0.09914216
0.378125 0.70998775 0.09307598
0.39623162 0.70701593 0.08679534
0.41372549 0.7057598 0.08002451
0.43691789 0.71078431 0.0830576
0.46041667 0.71360294 0.08431373
0.49034926 0.71862745 0.08823529
0.51960784 0.72303922 0.09166667
0.54488358 0.72647059 0.09215686
0.57426471 0.73431373 0.1
0.60052083 0.73921569 0.10392157
0.63039216 0.74607843 0.10784314
0.65490196 0.75 0.11176471
0.68780637 0.75784314 0.11960784
0.71614583 0.76197917 0.12352941
0.74705882 0.76960784 0.13137255
0.7760723 0.77662377 0.13599877
0.80539216 0.78210784 0.14313725
0.84139093 0.79371936 0.15257353
0.88664216 0.81617647 0.16715686
0.92132353 0.82058824 0.14708946
0.94932598 0.82156863 0.1120098
0.9786152 0.82110907 0.05487132
1 0.82058824 0.00196078
0.31936275 0.75465686 0.15465686
0.31987975 0.75465686 0.15132123
0.32431832 0.75465686 0.1517693
0.32945389 0.75465686 0.15073529
0.33566176 0.75183824 0.14791667
0.34327129 0.75183824 0.14681373
0.35392157 0.75073529 0.14289216
0.36078431 0.74791667 0.14178922
0.37438725 0.74681373 0.13615196
0.3879902 0.7439951 0.13198912
0.40124847 0.74007353 0.12720588
0.41426547 0.73566176 0.11936275
0.42879902 0.73504902 0.11544118
0.4503485 0.73515242 0.11262255
0.47266391 0.73959099 0.11544118
0.50101486 0.74292662 0.11936275
0.52634804 0.74877451 0.12328431
0.55274969 0.75180377 0.12717142
0.57941942 0.75857843 0.13112745
0.6061083 0.76223575 0.13504902
0.63213848 0.76752451 0.14113051
0.65490196 0.77426471 0.14681373
0.6906633 0.77928922 0.15465686
0.71679305 0.78627451 0.15919884
0.74525123 0.79022672 0.16559436
0.77457491 0.79576823 0.17113588
0.80257353 0.80302543 0.17839308
0.83297718 0.80969286 0.18506051
0.86531863 0.81913297 0.19189645
0.90772059 0.83831955 0.21021369
0.94558824 0.84980852 0.20311734
0.97279412 0.84745328 0.17671569
1 0.84705882 0.1435049
0.34656863 0.78504902 0.18578431
0.35009957 0.78186275 0.18578431
0.35367647 0.78435968 0.18509498
0.35833333 0.78186275 0.18389246
0.36495098 0.78177083 0.18186275
0.36861979 0.77903646 0.17928922
0.37780331 0.77794118 0.17794118
0.38615196 0.77773438 0.17683824
0.3973652 0.77481618 0.17089461
0.40943627 0.77328431 0.16866575
0.42084865 0.77009804 0.1622549
0.43395374 0.76679688 0.15514706
0.4502451 0.76544118 0.1504902
0.46384804 0.76158854 0.14271599
0.48537071 0.76583946 0.14836091
0.51068474 0.76938572 0.15359988
0.53602941 0.77365196 0.15637255
0.56056219 0.77722886 0.15906863
0.58602941 0.78186275 0.16617647
0.61495098 0.78897059 0.1729856
0.63869485 0.79289216 0.17794118
0.65955882 0.79681373 0.18186275
0.69192708 0.80465686 0.18728554
0.71752451 0.80857843 0.19362745
