Kodak Converted/Kodak Ektachrome 100 VS.cube
# Exported with LUT Lab 1.2.1
# LUTLab.com
TITLE Kodak Ektachrome 100 VS
LUT_3D_SIZE 5
0 0 0
0.11960784 0 0
0.43529412 0 0
0.76764706 0 0
1 0 0
0.08921569 0.18627451 0.07843137
0.22622549 0.17843137 0.05073529
0.51127451 0.15245098 0.00735294
0.80588235 0.0872549 0
1 0.01176471 0
0.23529412 0.48627451 0.17843137
0.35784314 0.48480392 0.1627451
0.58627451 0.4745098 0.13627451
0.84705882 0.44460784 0.1254902
1 0.37843137 0.15882353
0.48039216 0.77058824 0.2872549
0.54509804 0.77058824 0.2754902
0.70882353 0.77058824 0.23627451
0.93137255 0.75882353 0.16642157
1 0.73137255 0.19509804
0.83137255 1 0.37254902
0.85784314 1 0.36470588
0.93529412 1 0.34901961
1 1 0.31764706
1 1 0.27058824
0 0 0.10490196
0.06102941 0 0.10171569
0.38676471 0 0.06960784
0.73137255 0 0.04607843
1 0 0.04313725
0.05318627 0.17843137 0.19803922
0.17977941 0.17058824 0.18180147
0.47058824 0.14313725 0.14460784
0.77395833 0.07628676 0.1
1 0.00784314 0.06176471
0.1872549 0.48627451 0.26960784
0.32058824 0.48235294 0.26568627
0.5495098 0.46789216 0.26151961
0.81029412 0.43676471 0.26372549
1 0.3745098 0.26176471
0.48039216 0.77843137 0.29019608
0.54607843 0.77818627 0.27843137
0.70502451 0.77156863 0.25784314
0.90955882 0.75827206 0.27101716
1 0.71985294 0.36593137
0.83921569 1 0.37254902
0.86568627 1 0.36862745
0.94313725 1 0.3504902
1 1 0.31764706
1 1 0.2745098
0 0 0.26862745
0.01078431 0 0.25294118
0.34705882 0 0.20392157
0.70441176 0 0.15882353
0.98823529 0 0.13921569
0.00294118 0.16519608 0.38921569
0.11519608 0.15539216 0.36568627
0.41813725 0.13137255 0.31446078
0.73578431 0.06446078 0.24276961
1 0.00294118 0.17745098
0.05882353 0.46666667 0.5127451
0.19803922 0.46593137 0.50220588
0.4754902 0.45441176 0.47794118
0.75906863 0.42622549 0.44313725
1 0.36862745 0.40196078
0.35784314 0.75882353 0.55686275
0.43039216 0.75686275 0.55833333
0.60245098 0.75098039 0.55931373
0.82365196 0.73566176 0.55931373
1 0.70784314 0.56372549
0.85294118 1 0.37647059
0.87843137 1 0.37254902
0.95490196 1 0.35294118
1 1 0.32303922
1 1 0.33921569
0 0 0.42058824
0 0 0.40098039
0.29166667 0 0.34411765
0.66568627 0 0.28627451
0.96470588 0 0.24705882
0 0.15098039 0.56078431
0.03927696 0.14313725 0.53333333
0.35428922 0.11715686 0.47009804
0.69215686 0.05196078 0.38259804
0.97647059 0 0.29485294
0 0.45490196 0.70098039
0.06813725 0.45294118 0.68553922
0.3995098 0.44313725 0.65
0.70821078 0.41568627 0.59656863
0.97647059 0.35882353 0.53235294
0.15465686 0.73921569 0.80514706
0.28155637 0.73921569 0.79877451
0.50294118 0.73529412 0.78235294
0.75526961 0.72352941 0.75563725
0.99142157 0.69607843 0.7245098
0.73137255 1 0.70588235
0.75563725 1 0.70980392
0.82794118 1 0.72156863
0.94509804 1 0.74509804
1 1 0.79509804
0 0 0.5254902
0 0 0.50588235
0.2372549 0 0.44313725
0.63431373 0 0.3754902
0.94509804 0 0.32156863
0 0.13921569 0.67352941
0 0.13137255 0.64607843
0.29607843 0.10588235 0.57352941
0.65392157 0.04093137 0.47573529
0.95294118 0 0.3754902
0 0.44705882 0.8254902
0 0.44313725 0.80588235
0.32843137 0.43529412 0.76176471
0.66568627 0.40931373 0.69754902
0.95294118 0.35294118 0.61568627
0 0.73137255 0.94607843
0.09828431 0.72745098 0.93823529
0.41666667 0.72745098 0.91470588
0.70098039 0.71568627 0.8747549
0.96078431 0.69215686 0.8245098
0.57254902 1 1
0.60392157 1 1
0.69607843 1 1
0.8372549 1 1
1 1 1
