Kodak Converted/Kodak Ektachrome 100 VS.cube
# Exported with LUT Lab 1.2.1
# LUTLab.com
TITLE Kodak Ektachrome 100 VS
LUT_3D_SIZE 33
0 0 0
0.00392157 0 0
0.01151961 0 0
0.02120098 0 0
0.03480392 0 0
0.05232843 0 0
0.06985294 0 0
0.08958333 0 0
0.11960784 0 0
0.15073529 0 0
0.19240196 0 0
0.22928922 0 0
0.26764706 0 0
0.30269608 0 0
0.34044118 0 0
0.38860294 0 0
0.43529412 0 0
0.48198529 0 0
0.52892157 0 0
0.57181373 0 0
0.6122549 0 0
0.64313725 0 0
0.68995098 0 0
0.7307598 0 0
0.76764706 0 0
0.80845588 0 0
0.84852941 0 0
0.8875 0 0
0.92647059 0 0
0.96776961 0 0
1 0 0
1 0 0
1 0 0
0.00183824 0.0057598 0
0.00968137 0.0057598 0
0.01947763 0.0057598 0
0.03296569 0.00501302 0
0.05232843 0.00392157 0
0.06985294 0.00392157 0
0.09095435 0.00392157 0
0.11362975 0.00392157 0
0.14889706 0.00392157 0
0.18394608 0.00392157 0
0.2189951 0.00392157 0
0.25612745 0.00392157 0
0.29117647 0.00392157 0
0.32806373 0.00392157 0
0.36580882 0.00274969 0
0.41384804 0 0
0.45778186 0 0
0.50349648 0 0
0.54735754 0 0
0.5891659 0 0
0.62909007 0 0
0.66066176 0 0
0.70498621 0 0
0.74338235 0 0
0.78079044 0 0
0.81872319 0 0
0.85821078 0 0
0.89654948 0 0
0.9345435 0 0
0.97437577 0 0
1 0 0
1 0 0
1 0 0
0.00759804 0.01568627 0
0.01360294 0.01557138 0
0.02351409 0.01544118 0
0.0406633 0.01544118 0
0.05833333 0.01544118 0
0.07953431 0.01176471 0
0.10098039 0.01176471 0
0.12470129 0.01176471 0
0.1625 0.01151961 0
0.19754902 0.01151961 0
0.23259804 0.01151961 0
0.26764706 0.01151961 0
0.30269608 0.01151961 0
0.33833487 0.01151961 0
0.37559743 0.00784314 0
0.42353707 0.00759804 0
0.46654412 0.00759804 0
0.50955116 0.00392157 0
0.55405944 0.00392157 0
0.59532016 0.00367647 0
0.63431373 0.00229779 0
0.66642157 0 0
0.70948223 0 0
0.74730392 0 0
0.78627451 0 0
0.825 0 0
0.86401654 0 0
0.89926471 0 0
0.93869485 0 0
0.97720588 0 0
1 0 0
1 0 0
1 0 0
0.01335784 0.03296569 0.00392157
0.02229243 0.03296569 0.00392157
0.03112745 0.03078278 0.00392157
0.04632353 0.02904412 0.00392157
0.06617647 0.02904412 0.00159314
0.08609452 0.02904412 0
0.11036305 0.02585784 0
0.13709023 0.02512255 0
0.17570466 0.02512255 0
0.20955882 0.02512255 0
0.24300705 0.02512255 0
0.27732843 0.02316559 0
0.31237745 0.02120098 0
0.3497549 0.02120098 0
0.38517157 0.0182981 0
0.43166743 0.01727941 0
0.47530637 0.01648284 0
0.51740196 0.01335784 0
0.56029412 0.01176471 0
0.60070849 0.00943627 0
0.63883272 0.00784314 0
0.67058824 0.00551471 0
0.71384804 0.00392157 0
0.75122549 0.00392157 0
0.78844975 0.00119485 0
0.82639017 0 0
0.8645144 0 0
0.90318627 0 0
0.94215686 0 0
0.98112745 0 0
1 0 0
1 0 0
1 0 0
0.02303922 0.05441176 0.01127451
0.03111213 0.05441176 0.01127451
0.03918505 0.05392157 0.00784314
0.05257353 0.05392157 0.00784314
0.07395833 0.0504902 0.00735294
0.095144 0.0504902 0.00392157
0.12352941 0.05 0.00392157
0.14937194 0.04656863 0.0024663
0.18970588 0.04656863 0
0.22083333 0.04264706 0
0.25352328 0.04264706 0
0.2870098 0.04264706 0
0.32205882 0.04001225 0
0.35791973 0.03872549 0
0.3950674 0.03480392 0
0.43956801 0.0342065 0
0.48210784 0.03088235 0
0.52522978 0.02696078 0
0.56764706 0.02331495 0
0.60661765 0.01992953 0
0.64344363 0.01911765 0
0.6745098 0.01519608 0
0.71617647 0.01127451 0
0.75514706 0.01127451 0
0.79105392 0.00772059 0
0.82916667 0.00392157 0
0.86813725 0 0
0.90710784 0 0
0.94607843 0 0
0.98484988 0 0
1 0 0
1 0 0
1 0 0
0.03272059 0.08112745 0.02352941
0.04177007 0.08112745 0.02095588
0.05208333 0.07977941 0.02095588
0.06433824 0.07720588 0.01703431
0.08154105 0.07720588 0.01585478
0.10465686 0.07585784 0.01311275
0.13578431 0.07328431 0.00967371
0.16224341 0.07290518 0.00784314
0.19938725 0.06936275 0.00425858
0.23051471 0.06801471 0.00392157
0.26244638 0.06544118 0.00042126
0.29534314 0.06409314 0
0.33039216 0.06248468 0
0.36936275 0.06017157 0
0.40377604 0.05683977 0
0.44865196 0.05232843 0
0.49019608 0.04908088 0
0.53051471 0.04452742 0
0.57205882 0.04056373 0
0.61102941 0.03664216 0
0.64742647 0.03272059 0
0.67843137 0.02879902 0
0.72009804 0.02095588 0
0.7564951 0.01960784 0
0.79411765 0.01504289 0
0.83308824 0.00919118 0
0.86887255 0.0073606 0
0.90710784 0.00392157 0
0.94607843 0 0
0.98504902 0 0
1 0 0
1 0 0
1 0 0
0.0502451 0.11617647 0.04240196
0.05808824 0.11617647 0.0401731
0.06593137 0.11544118 0.03848039
0.07928922 0.1122549 0.03455882
0.09289216 0.1122549 0.03103554
0.11459099 0.11151961 0.02671569
0.14681373 0.10833333 0.02279412
0.17283241 0.10812653 0.01887255
0.20925245 0.10441176 0.01495098
0.24019608 0.10297947 0.01102941
0.27155331 0.1004902 0.00784314
0.30637255 0.09656863 0.00392157
0.34142157 0.09411765 0.00318627
0.37720588 0.09227941 0
0.41242341 0.08651961 0
0.45524663 0.08159467 0
0.49767157 0.07696078 0
0.5370098 0.07303922 0
0.57737439 0.06911765 0
0.61495098 0.06134344 0
0.65318627 0.05615809 0
0.68235294 0.0502451 0
0.72401961 0.04217218 0
0.7622549 0.0377451 0
0.79803922 0.02965686 0
0.836803 0.02279412 0
0.87205882 0.01827512 0
0.91102941 0.01176471 0
0.95 0.00710784 0
0.98504902 0.00392157 0
1 0 0
1 0 0
1 0 0
0.06495098 0.14558824 0.05710784
0.07279412 0.14558824 0.05710784
0.08167126 0.14558824 0.05446538
0.0939951 0.1439951 0.05318627
0.10856311 0.14166667 0.04926471
0.12904412 0.14166667 0.04437423
0.1567019 0.13937653 0.0377068
0.18198529 0.1377451 0.03437117
0.21580882 0.13492647 0.02965686
0.24595588 0.13382353 0.02181373
0.27830882 0.12990196 0.01789216
0.31213235 0.126911 0.01397059
0.34718137 0.12598039 0.00935968
0.38615196 0.12179458 0.00602405
0.41997549 0.11655178 0.00440411
0.46409314 0.11136259 0.00110294
0.50306373 0.10637255 0
0.54476486 0.10245098 0
0.58223805 0.09460784 0
0.61997549 0.08713235 0
0.65784314 0.08068321 0
0.68627451 0.075 0
0.72904412 0.0651731 0
0.76409314 0.05821078 0
0.80196078 0.04938725 0
0.83811275 0.03939568 0
0.87598039 0.030553 0
0.91398208 0.02316176 0
0.95110294 0.01643689 0
0.98897059 0.00939415 0
1 0.00495558 0
1 0.00110294 0
1 0.00110294 0
0.08921569 0.18627451 0.07843137
0.0984375 0.18627451 0.07745098
0.10765931 0.18627451 0.07745098
0.1182598 0.18293505 0.07352941
0.13480392 0.18235294 0.06960784
0.15330882 0.18235294 0.06568627
0.17401961 0.17996324 0.06176471
0.19448529 0.17843137 0.0567402
0.22622549 0.17843137 0.05073529
0.25661765 0.1745098 0.04607843
0.29068627 0.1745098 0.03946078
0.32279412 0.17058824 0.03431373
0.35784314 0.16666667 0.02647059
0.39583333 0.16629902 0.02227328
0.43008578 0.1627451 0.01642157
0.47092525 0.15870098 0.01173407
0.51127451 0.15245098 0.00735294
0.55162377 0.14705882 0.00392157
0.5877451 0.1408701 0.00294118
0.62662377 0.1317402 0
0.66176471 0.12536765 0
0.69019608 0.11862745 0
0.73186275 0.10661765 0
0.76985294 0.09693627 0
0.80588235 0.0872549 0
0.84387255 0.07365196 0
0.87990196 0.06397059 0
0.91853554 0.05101103 0
0.95428922 0.03811275 0
0.99231005 0.02766544 0
1 0.015625 0
1 0.01176471 0
1 0.01176471 0
0.09803922 0.22132353 0.09411765
0.10772059 0.22132353 0.09105392
0.11740196 0.21740196 0.09105392
0.1310049 0.21740196 0.08713235
0.14852941 0.21740196 0.08321078
0.16605392 0.21740196 0.07928922
0.18357843 0.21491268 0.0759421
0.20416667 0.21348039 0.07426471
0.23811275 0.21348039 0.06752451
0.26838235 0.20955882 0.06360294
0.30036765 0.20955882 0.05698529
0.33455882 0.20563725 0.05183824
0.37046569 0.20372243 0.0439951
0.40551471 0.20171569 0.03970588
0.44019608 0.19779412 0.03223039
0.47963006 0.19387255 0.02438725
0.5185049 0.18995098 0.02046569
0.55744868 0.18602941 0.01654412
0.59558824 0.18039216 0.01262255
0.63063725 0.17426471 0.0089882
0.66568627 0.16642157 0.00870098
0.69411765 0.15943627 0.00784314
0.73664216 0.14977788 0.00784314
0.77169118 0.14049862 0.0054496
0.80980392 0.12784926 0.00477941
0.84546952 0.11716069 0.00392157
0.88382353 0.10294118 0.00085784
0.92174096 0.08828508 0.00085784
0.95795037 0.07181373 0.00085784
0.99448529 0.05428922 0.00085784
1 0.03982843 0.00085784
1 0.03223039 0.00085784
1 0.03223039 0.00085784
0.10735294 0.25637255 0.10857843
0.11307445 0.25637255 0.10857843
0.12149203 0.25637255 0.10465686
0.13492647 0.25637255 0.10465686
0.15245098 0.25514706 0.10073529
0.1669807 0.25245098 0.09938725
0.19361213 0.25245098 0.09581801
0.21507353 0.25245098 0.09178922
0.24969363 0.24852941 0.08602941
0.27892157 0.24852941 0.08112745
0.31211703 0.24545037 0.07720588
0.34613205 0.24460784 0.06936275
0.38014706 0.24068627 0.06544118
0.41642157 0.23920803 0.05759804
0.44955576 0.23607537 0.05147059
0.49044118 0.23284314 0.04452359
0.52818627 0.22892157 0.0379902
0.56446078 0.225 0.03026961
0.60220588 0.21867341 0.02622549
0.6372549 0.21323529 0.02241881
0.67230392 0.20539216 0.02230392
0.70073529 0.20147059 0.01960784
0.74240196 0.19155944 0.01960784
0.77745098 0.18245251 0.01838235
0.81372549 0.1721201 0.01838235
0.84877451 0.16213235 0.01838235
0.8877451 0.14875919 0.01446078
0.92279412 0.13492647 0.01446078
0.96176471 0.11740196 0.01161152
0.99681373 0.09827665 0.01053922
1 0.07573529 0.01037071
1 0.06813725 0.00784314
1 0.06813725 0.00784314
0.11703431 0.29534314 0.1254902
0.12124311 0.29534314 0.12218137
0.12879902 0.29534314 0.12218137
0.13884804 0.29534314 0.12156863
0.15637255 0.29203431 0.1182598
0.17956878 0.29142157 0.11433824
0.20379902 0.29142157 0.11384038
0.22745098 0.29142157 0.11024433
0.26139706 0.28765319 0.10355392
0.29252451 0.2875 0.09865196
0.32365196 0.28522518 0.09473039
0.35870098 0.28357843 0.09029182
0.39313725 0.28026961 0.08443627
0.42818627 0.27965686 0.07867647
0.45980392 0.27573529 0.07291667
0.49889706 0.27181373 0.06715686
0.53560049 0.26819853 0.05943627
0.57230392 0.26397059 0.05230928
0.60735294 0.25860141 0.04767157
0.64240196 0.25226333 0.04375
0.67745098 0.2470435 0.03982843
0.70588235 0.24105392 0.03982843
0.74754902 0.23259804 0.03982843
0.78259804 0.22216988 0.03982843
0.81764706 0.21344975 0.03636642
0.85269608 0.20531939 0.03590686
0.89166667 0.19276195 0.03590686
0.92671569 0.17965686 0.03590686
0.96279105 0.16551777 0.03259804
0.99706265 0.14852941 0.03198529
1 0.12683824 0.02867647
1 0.11556373 0.02806373
1 0.11556373 0.02806373
0.1122549 0.33431373 0.13970588
0.12193627 0.33431373 0.13970588
0.13186275 0.33431373 0.13578431
0.14914216 0.3337163 0.13578431
0.17058824 0.33284314 0.13363971
0.19338235 0.33039216 0.13186275
0.21740196 0.33039216 0.12794118
0.24146752 0.33039216 0.12683824
0.275 0.32892157 0.12009804
0.30612745 0.32647059 0.11617647
0.33771446 0.32647059 0.1122549
0.37192096 0.32254902 0.10772059
0.40343137 0.32254902 0.10140931
0.43848039 0.31862745 0.09656863
0.47009804 0.31642157 0.09044118
0.50857843 0.31323529 0.08475797
0.54362745 0.31004902 0.07818627
0.58014706 0.30543811 0.07303922
0.61519608 0.30039828 0.06911765
0.64891238 0.29532782 0.06519608
0.68382353 0.28878676 0.06127451
0.70980392 0.28333333 0.06127451
0.75147059 0.27503064 0.06127451
0.78651961 0.26703431 0.06127451
0.82156863 0.25772059 0.06127451
0.85661765 0.24872855 0.05980392
0.89411765 0.2379902 0.05735294
0.93063725 0.22535233 0.05735294
0.96568627 0.21078431 0.05735294
0.99840686 0.19473039 0.05735294
1 0.17573529 0.05735294
1 0.16813725 0.05735294
1 0.16813725 0.05735294
0.1379902 0.37328431 0.15294118
0.14600567 0.37328431 0.14938725
0.15735294 0.37328431 0.14938725
0.17095588 0.36973039 0.14901961
0.19159007 0.36973039 0.14546569
0.21114813 0.36936275 0.14509804
0.23811275 0.36936275 0.14154412
0.25857843 0.36936275 0.13762255
0.29252451 0.36936275 0.13370098
0.32365196 0.3657284 0.12977941
0.35452665 0.36544118 0.12585784
0.38529412 0.36488588 0.12193627
0.41680453 0.36151961 0.11778493
0.44816176 0.36118643 0.11339231
0.47977941 0.35759804 0.10796569
0.51789216 0.35403263 0.10231694
0.55294118 0.35012255 0.09822304
0.5879902 0.34631204 0.09068627
0.62303922 0.34227941 0.08664216
0.65453431 0.33835784 0.08342142
0.68958333 0.33406863 0.08272059
0.71764706 0.33014706 0.08272059
0.75931373 0.32119332 0.07916667
0.79080882 0.31454121 0.08272059
0.8254902 0.30572917 0.08272059
0.86053922 0.29622013 0.08272059
0.89595588 0.28634344 0.08272059
0.93455882 0.27303922 0.08272059
0.96960784 0.25943627 0.08308824
0.99840686 0.24191176 0.08308824
1 0.22438725 0.08308824
1 0.21678922 0.08308824
1 0.21678922 0.08308824
0.16740196 0.40710784 0.15906863
0.1752451 0.40490196 0.15906863
0.18455882 0.40490196 0.15906863
0.19644608 0.40490196 0.15906863
0.21369485 0.40490196 0.15514706
0.23284314 0.40490196 0.15514706
0.25686275 0.40490196 0.15122549
0.27830882 0.40441942 0.15012255
0.31096814 0.40318627 0.14730392
0.33946078 0.40098039 0.14300705
0.36789216 0.40098039 0.13946078
0.39779412 0.39926471 0.13527114
0.42892157 0.39788603 0.13054534
0.46160386 0.39534314 0.12577359
0.49042586 0.39410233 0.12081801
0.52794118 0.39142157 0.11587776
0.56213235 0.38835784 0.11115196
0.59411765 0.38536305 0.10642616
0.62916667 0.38186275 0.10245098
0.66421569 0.37765778 0.09889706
0.69534314 0.37181373 0.09705882
0.72377451 0.36789216 0.09460784
0.76323529 0.3627451 0.09460784
0.79656863 0.35612745 0.09804688
0.83161765 0.34785539 0.09852941
0.86666667 0.33920803 0.10073529
0.90171569 0.33014706 0.10245098
0.93676471 0.31911765 0.10245098
0.97352941 0.30686275 0.10465686
1 0.29064798 0.10637255
1 0.27401961 0.10857843
1 0.26642157 0.10857843
1 0.26642157 0.10857843
0.19632353 0.44742647 0.16875
0.2060049 0.44742647 0.16862745
0.21568627 0.44742647 0.16862745
0.22928922 0.44730392 0.1670841
0.24289216 0.44730392 0.1647212
0.26425781 0.44730392 0.16470588
0.28576134 0.44730392 0.16080729
0.30548024 0.44730392 0.15971584
0.3354473 0.44730392 0.15686275
0.36176471 0.4435049 0.15294118
0.38982843 0.44338235 0.14914216
0.41703431 0.44338235 0.14522059
0.44571078 0.44338235 0.14129902
0.47536765 0.43946078 0.13737745
0.50477941 0.43946078 0.13511795
0.54154029 0.43553922 0.12953431
0.57267157 0.43363971 0.12561275
0.60759804 0.43161765 0.12169118
0.63884804 0.42776501 0.11776961
0.67377451 0.42389706 0.1142042
0.70502451 0.41997549 0.11380208
0.73333333 0.41605392 0.10992647
0.77120098 0.4120098 0.10992647
0.80612745 0.40512025 0.11289445
0.83737745 0.39929534 0.11479779
0.87230392 0.39243643 0.11776961
0.90735294 0.38384651 0.12169118
0.94240196 0.37422258 0.12426471
0.97745098 0.36115196 0.12608762
1 0.35098039 0.12960708
1 0.33345588 0.13381587
1 0.32585784 0.13737745
1 0.32585784 0.13737745
0.23529412 0.48627451 0.17843137
0.24105392 0.48627451 0.17843137
0.25073529 0.48627451 0.17659314
0.26158088 0.48627451 0.1745098
0.27622549 0.48627451 0.17279412
0.29546569 0.48627451 0.17058824
0.3129902 0.48627451 0.16703431
0.33216912 0.48627451 0.16470588
0.35784314 0.48480392 0.1627451
0.38321078 0.4838848 0.16035539
0.40796569 0.48235294 0.15686275
0.43455882 0.48235294 0.15459559
0.46323529 0.48112745 0.15098039
0.49289216 0.47843137 0.14705882
0.52058824 0.47843137 0.1439951
0.55508578 0.47640931 0.13921569
0.58627451 0.4745098 0.13627451
0.61740196 0.47064951 0.13339461
0.64963235 0.46973039 0.13051471
0.68180147 0.46666667 0.12745098
0.71470588 0.4627451 0.12352941
0.74117647 0.45882353 0.12156863
0.78088235 0.45490196 0.12156863
0.81397059 0.44944853 0.12156863
0.84705882 0.44460784 0.1254902
0.88014706 0.4372549 0.12941176
0.91323529 0.42904412 0.13370098
0.94632353 0.42156863 0.13854167
0.98137255 0.41151961 0.14313725
1 0.39963235 0.14822304
1 0.38602941 0.15490196
1 0.37843137 0.15882353
1 0.37843137 0.15882353
0.27034314 0.5252451 0.19215686
0.27610294 0.5252451 0.19203431
0.28222273 0.5252451 0.19203431
0.29392233 0.5252451 0.18811275
0.30574449 0.52512255 0.18811275
0.32267157 0.52512255 0.18419118
0.34029565 0.52132353 0.18026961
0.35609298 0.52132353 0.17634804
0.38213848 0.52132353 0.17242647
0.40465686 0.52132353 0.16767387
0.42879902 0.52132353 0.16458333
0.45528876 0.52132353 0.16076517
0.4807598 0.52120098 0.15686275
0.51004902 0.51740196 0.15294118
0.53590686 0.51740196 0.15068168
0.56875 0.51348039 0.14889706
0.59987745 0.51348039 0.14503676
0.6310049 0.50955882 0.14117647
0.66213235 0.50950521 0.1372549
0.69327129 0.50563725 0.13713235
0.7245098 0.50171569 0.13321078
0.75281863 0.50159314 0.12941176
0.79064798 0.49648438 0.12937347
0.82264476 0.49078202 0.12941176
0.8567402 0.48599877 0.13039216
0.8879902 0.47925475 0.13606388
0.91911765 0.47414216 0.14117647
0.95408624 0.46634115 0.14889706
0.98861826 0.457981 0.15341605
1 0.44674096 0.16073453
1 0.43468903 0.16851256
1 0.42720588 0.17242647
1 0.42720588 0.17242647
0.30367647 0.56029412 0.20563725
0.30931373 0.56029412 0.20563725
0.31530331 0.56029412 0.20563725
0.32398131 0.56029412 0.20302543
0.33477328 0.56029412 0.20171569
0.34928768 0.56029412 0.19779412
0.36568627 0.56029412 0.19428615
0.38039216 0.56029412 0.19276961
0.40202206 0.56029412 0.18658088
0.4243796 0.56029412 0.18210784
0.44754902 0.55808824 0.17818627
0.47291667 0.55637255 0.17034314
0.49828431 0.55637255 0.16397059
0.52757353 0.55637255 0.16057751
0.5524663 0.55513174 0.15686275
0.58235294 0.55245098 0.15294118
0.61348039 0.55245098 0.14987745
0.64460784 0.54852941 0.14901961
0.67498468 0.54852941 0.14509804
0.7053079 0.54460784 0.14133732
0.73734681 0.54175858 0.13897059
0.7625 0.54068627 0.1372549
0.8002451 0.53676471 0.13504902
0.83357843 0.53284314 0.13504902
0.86642157 0.5283701 0.1372549
0.89816942 0.52156097 0.14007353
0.93046875 0.51674326 0.14541973
0.9620098 0.50786612 0.15294118
0.99414828 0.50119485 0.16099877
1 0.49040288 0.16964614
1 0.47954963 0.18049939
1 0.47401961 0.18602941
1 0.47401961 0.18602941
0.33296569 0.59534314 0.21960784
0.34044118 0.59534314 0.2192402
0.34436275 0.59534314 0.2192402
0.35235524 0.59534314 0.21568627
0.36348039 0.59534314 0.21531863
0.37352941 0.59534314 0.21163833
0.39068627 0.59534314 0.21139706
0.40183824 0.59534314 0.20747549
0.42484681 0.59534314 0.20355392
0.44362745 0.59534314 0.19885493
0.46751685 0.59534314 0.19301471
0.49044118 0.59534314 0.18786765
0.51580882 0.59511336 0.1814951
0.5418773 0.59142157 0.17573529
0.56724112 0.59142157 0.16605392
0.59987745 0.59142157 0.16030561
0.62904412 0.58927696 0.15294118
0.65821078 0.5875 0.15258502
0.68778339 0.58713235 0.14901961
0.71724494 0.58357843 0.14868643
0.74790135 0.57965686 0.14509804
0.77254902 0.57965686 0.14117647
0.81273744 0.57573529 0.14117647
0.84497549 0.57181373 0.14080882
0.87610294 0.56789216 0.14080882
0.90759804 0.56370634 0.14117647
0.93872549 0.55612745 0.14583333
0.96985294 0.54963235 0.15551471
0.99656863 0.54355086 0.16519608
1 0.53404182 0.17858073
1 0.52416513 0.19203431
1 0.52046569 0.19607843
1 0.52046569 0.19607843
0.36372549 0.63431373 0.23284314
0.36764706 0.63431373 0.23284314
0.37386642 0.63431373 0.23284314
0.38040748 0.63331801 0.23137255
0.38939951 0.63186275 0.22892157
0.39986213 0.63039216 0.22841605
0.41277574 0.63039216 0.225
0.42720588 0.63039216 0.22107843
0.44754902 0.63039216 0.21715686
0.46507353 0.63039216 0.21323529
0.48651961 0.63039216 0.20931373
0.50857843 0.63039216 0.20477941
0.53333333 0.63039216 0.19754902
0.55906863 0.63039216 0.18970588
0.58455882 0.62818627 0.18357843
0.61348039 0.62647059 0.17781863
0.64460784 0.62647059 0.16813725
0.67431066 0.62647059 0.15845588
0.70294118 0.62254902 0.15376838
0.73273591 0.62254902 0.1504902
0.76127451 0.61862745 0.14810049
0.78578431 0.61862745 0.14509804
0.82352941 0.61470588 0.14387255
0.85465686 0.61078431 0.14117647
0.88578431 0.60686275 0.14117647
0.9176011 0.60294118 0.14117647
0.95003064 0.59856005 0.14509804
0.98000919 0.59168199 0.15294118
1 0.5846201 0.16911765
1 0.57608762 0.18331801
1 0.56740196 0.2002451
1 0.56127451 0.20539216
1 0.56127451 0.20539216
0.38823529 0.6627451 0.24705882
0.39215686 0.6627451 0.24313725
0.39607843 0.6627451 0.24313725
0.40159314 0.6627451 0.24313725
0.41127451 0.6627451 0.23921569
0.42095588 0.6627451 0.23921569
0.43455882 0.6627451 0.23529412
0.44534314 0.65882353 0.23419118
0.46568627 0.65882353 0.23137255
0.48321078 0.65882353 0.22745098
0.50343137 0.65882353 0.22083333
0.52610294 0.65882353 0.21568627
0.54754902 0.65882353 0.21176471
0.57328431 0.65882353 0.20392157
0.59877451 0.65882353 0.19779412
0.62769608 0.65490196 0.19203431
0.65490196 0.65490196 0.18235294
0.68602941 0.65490196 0.17267157
0.71323529 0.65490196 0.16470588
0.74436275 0.65098039 0.15686275
0.77401961 0.65098039 0.15294118
0.79607843 0.64705882 0.14901961
0.83382353 0.64583333 0.14509804
0.86495098 0.64313725 0.14509804
0.89607843 0.63921569 0.14411765
0.92720588 0.63529412 0.14117647
0.95833333 0.63137255 0.14509804
0.98946078 0.62487745 0.15159314
1 0.61911765 0.16519608
1 0.60943627 0.18664216
1 0.6 0.20416667
1 0.59607843 0.21176471
1 0.59607843 0.21176471
0.42205882 0.70441176 0.26004902
0.42532935 0.70441176 0.26004902
0.42867647 0.70441176 0.26004902
0.43491881 0.70441176 0.26004902
0.44151348 0.70441176 0.25612745
0.45085784 0.70441176 0.25612745
0.46323529 0.70441176 0.2527114
0.47401961 0.702428 0.25186121
0.49166667 0.7004902 0.24828431
0.50919118 0.7004902 0.24436275
0.52941176 0.7004902 0.24044118
0.55085784 0.7004902 0.23487286
0.57230392 0.7004902 0.22867647
0.59767157 0.7004902 0.22438725
0.61960784 0.7004902 0.21862745
0.64840686 0.7004902 0.20906863
0.67377451 0.69656863 0.20318627
0.70294118 0.69656863 0.19730392
0.72961091 0.69656863 0.1877451
0.7576057 0.69656863 0.17806373
0.78848039 0.69264706 0.16838235
0.8129902 0.69264706 0.1620098
0.84866728 0.69180453 0.15294118
0.87794118 0.68872549 0.14901961
0.90876225 0.68480392 0.14901961
0.93931526 0.68122702 0.14901961
0.97109375 0.67696078 0.14901961
0.99865196 0.67303922 0.1520144
1 0.66862745 0.16127451
1 0.65967371 0.17879902
1 0.6506587 0.20416667
1 0.64681373 0.21176471
1 0.64681373 0.21176471
0.45012255 0.73946078 0.27365196
0.45318627 0.73946078 0.27365196
0.45710784 0.73946078 0.27365196
0.46313189 0.73946078 0.27365196
0.46962316 0.73639706 0.27058824
0.47862669 0.73639706 0.26973039
0.48917739 0.73553922 0.26666667
0.50158931 0.73553922 0.26580882
0.51657475 0.73553922 0.26188725
0.53333333 0.73553922 0.25796569
0.55296415 0.73553922 0.25404412
0.57230392 0.73553922 0.25012255
0.59375 0.73553922 0.24428615
0.61556373 0.73553922 0.23835784
0.63713235 0.73553922 0.23443627
0.66593137 0.73553922 0.22659314
0.69129902 0.73553922 0.22071078
0.71666667 0.73161765 0.21186045
0.74375 0.73161765 0.20526961
0.77103631 0.73161765 0.19558824
0.80093444 0.73161765 0.18737745
0.82352941 0.72769608 0.17953431
0.86041667 0.72769608 0.16776961
0.89154412 0.72702589 0.15686275
0.92190564 0.72377451 0.1513174
0.95011872 0.71985294 0.14901961
0.9810049 0.71593137 0.15294118
1 0.7120098 0.15294118
1 0.707981 0.15735294
1 0.70148974 0.17095588
1 0.69234835 0.1935049
1 0.68848039 0.20870098
1 0.68848039 0.20870098
0.48039216 0.77058824 0.2872549
0.48431373 0.77058824 0.2872549
0.48817402 0.77058824 0.28633578
0.49215686 0.77058824 0.28507966
0.49987745 0.77058824 0.28333333
0.50784314 0.77058824 0.28299632
0.51887255 0.77058824 0.27941176
0.52855392 0.77058824 0.27913603
0.54509804 0.77058824 0.2754902
0.55968137 0.77058824 0.27156863
0.57720588 0.77058824 0.26764706
0.59767157 0.77058824 0.26372549
0.61580882 0.77058824 0.25980392
0.63673407 0.77058824 0.25462623
0.65857843 0.77058824 0.2497549
0.68345588 0.77058824 0.2439951
0.70882353 0.77058824 0.23627451
0.73406863 0.76666667 0.22855392
0.75955882 0.76666667 0.22279412
0.78492647 0.76666667 0.21311275
0.81360294 0.76666667 0.20735294
0.83627451 0.76666667 0.20098039
0.87009804 0.7627451 0.1879902
0.90045956 0.7627451 0.17830882
0.93137255 0.75882353 0.16642157
0.96277574 0.75882353 0.15502451
0.99307598 0.75490196 0.15294118
1 0.7513174 0.15294118
1 0.74705882 0.15723039
1 0.74139093 0.16470588
1 0.73511029 0.18357843
1 0.73137255 0.19509804
1 0.73137255 0.19509804
0.51544118 0.80563725 0.30085784
0.51544118 0.80563725 0.29803922
0.51936275 0.80563725 0.29803922
0.52373238 0.80563725 0.29693627
0.53112745 0.80563725 0.29693627
0.53897059 0.80563725 0.29411765
0.54770987 0.80563725 0.29301471
0.55765548 0.80563725 0.29019608
0.57328431 0.80563725 0.28909314
0.58774893 0.80563725 0.28517157
0.60441176 0.80563725 0.28125
0.62193627 0.80563725 0.27732843
0.64056373 0.80563725 0.27340686
0.66101026 0.80563725 0.26922105
0.67940411 0.80563725 0.26335784
0.70490196 0.80563725 0.25772059
0.72634804 0.80226716 0.25183824
