Kodak Converted/Kodak Portra 400.cube
# Exported with LUT Lab 1.2.1
# LUTLab.com
TITLE Kodak Portra 400 2
LUT_3D_SIZE 33
0.01568627 0.01568627 0.01568627
0.02352941 0.01752451 0.01568627
0.03112745 0.01568627 0.01568627
0.0502451 0.01960784 0.01568627
0.07352941 0.01911765 0.01568627
0.10073529 0.01960784 0.01568627
0.13578431 0.01960784 0.01176471
0.16519608 0.01568627 0.01176471
0.21372549 0.00882353 0.00882353
0.26360294 0.00306373 0.00784314
0.31127451 0 0.00514706
0.36262255 0 0
0.41519608 0 0
0.47169118 0 0
0.51911765 0 0
0.57683824 0 0
0.62941176 0 0
0.67818627 0 0
0.72671569 0 0
0.77144608 0 0
0.81078431 0 0
0.84313725 0 0
0.87965686 0 0
0.90502451 0 0
0.93235294 0 0
0.95857843 0 0
0.98504902 0.04534314 0
1 0.09142157 0
1 0.12598039 0
1 0.15367647 0
1 0.18039216 0
1 0.20208333 0
1 0.22352941 0
0.01568627 0.02144608 0.01752451
0.02144608 0.02439108 0.01752451
0.03308058 0.02720588 0.01568627
0.0504902 0.02536765 0.0144493
0.07562806 0.03137255 0.01568627
0.10330882 0.03137255 0.01176471
0.13578431 0.03137255 0.01176471
0.16721048 0.03078661 0.01117877
0.21418505 0.02634804 0.00882353
0.26139706 0.01752451 0.00621553
0.31004902 0.00698529 0.00122549
0.36229703 0 0
0.41519608 0 0
0.46963082 0 0
0.51911765 0 0
0.57690334 0 0
0.62941176 0 0
0.67806373 0 0
0.72279412 0 0
0.76789216 0 0
0.807644 0 0
0.83921569 0 0
0.87638634 0 0
0.90416667 0 0
0.93293505 0 0
0.95857843 0.036983 0
0.98186275 0.08208487 0
1 0.11678922 0
1 0.14376532 0
1 0.169964 0
1 0.19044884 0
1 0.21287148 0
1 0.23321078 0
0.01568627 0.03112745 0.01960784
0.01972273 0.03137255 0.01960784
0.0272212 0.03112745 0.01568627
0.04865196 0.03678768 0.01568627
0.07352941 0.0424326 0.01519608
0.10465686 0.04440104 0.01176471
0.13877145 0.04980086 0.01107537
0.16894148 0.04681373 0.00784314
0.21666667 0.04387255 0.00508578
0.26158854 0.03910846 0.00411305
0.31127451 0.03227635 0.00007659
0.3620481 0.0185432 0
0.41519608 0.00275735 0
0.47169118 0 0
0.51533395 0 0
0.57683824 0 0
0.62561275 0 0
0.67426471 0 0
0.72293199 0 0
0.76754749 0 0
0.80686275 0 0
0.83553922 0 0
0.87320772 0 0
0.90416667 0 0
0.93137255 0.04123775 0
0.95593597 0.07965686 0
0.98186275 0.11377145 0
1 0.13823529 0
1 0.16470588 0
1 0.18480392 0
1 0.20392157 0
1 0.22536765 0
1 0.24681373 0
0.01409314 0.04473039 0.02193627
0.0206993 0.04398361 0.02278263
0.02735141 0.0469133 0.01975337
0.04473039 0.05119102 0.01822534
0.0698989 0.05629596 0.0136489
0.10153569 0.06433824 0.01176471
0.13970588 0.0682598 0.01047028
0.17189415 0.06870787 0.00559513
0.21884191 0.06865809 0.00392157
0.2629902 0.06627987 0
0.31214767 0.06410846 0
0.36262255 0.05906863 0
0.41665135 0.04779412 0
0.47147289 0.0320121 0
0.51911765 0.01675092 0
0.57678845 0.00154335 0
0.6254902 0 0
0.67580806 0 0
0.72279412 0 0
0.76608073 0 0
0.80773591 0 0
0.83529412 0.00637255 0
0.87303922 0.03946078 0
0.90183824 0.07132353 0
0.93039216 0.09987745 0
0.9557598 0.12479703 0
0.98112745 0.14583333 0
1 0.16654412 0
1 0.18688725 0
1 0.20646063 0
1 0.22522212 0
1 0.2418007 0
1 0.26041667 0
0.00833333 0.0622549 0.02303922
0.01752451 0.05833333 0.02352941
0.02398897 0.06222426 0.02349877
0.0385723 0.06757047 0.02100184
0.05925245 0.07101716 0.01617647
0.09321385 0.07928922 0.01176471
0.13195466 0.08866422 0.00793505
0.16665135 0.09348958 0.00660233
0.21801471 0.09448529 0
0.26531863 0.09744179 0
0.31363358 0.09705882 0
0.36269914 0.09321385 0
0.41519608 0.09050245 0
0.4685815 0.08524816 0
0.51568627 0.07867647 0
0.57351409 0.06910233 0
0.6254902 0.0625 0
0.67426471 0.0564951 0
0.72129289 0.05658701 0
0.76708027 0.06732537 0
0.80441176 0.0776348 0
0.83186275 0.09215686 0
0.86911765 0.10955882 0
0.89986213 0.12708333 0
0.92647059 0.14497549 0
0.95219056 0.16344975 0
0.97729779 0.18014706 0
0.99882047 0.19799326 0
1 0.21519608 0
1 0.23291973 0
1 0.24632353 0
1 0.26202512 0
1 0.27794118 0
0 0.08370098 0.02352941
0.00984222 0.08312653 0.02552849
0.01809896 0.07977941 0.0250383
0.03161765 0.08762255 0.02505744
0.05274203 0.09154412 0.01977635
0.08281633 0.09985064 0.01568627
0.12267157 0.10832567 0.00857843
0.15845588 0.11617647 0.00354243
0.21173407 0.12291667 0
0.26090686 0.12769608 0
0.31397059 0.12911305 0
0.36479396 0.13210784 0
0.41358762 0.12818627 0
0.46776961 0.12940794 0
0.51519608 0.12673866 0
0.57153033 0.12418428 0
0.62224265 0.1223652 0
0.67414216 0.12422641 0
0.71828278 0.12673866 0
0.76004902 0.13075597 0
0.79901961 0.14180453 0
0.82745098 0.14914216 0
0.86696538 0.16297488 0
0.89527037 0.17438725 0
0.9231924 0.18866422 0
0.94938725 0.20159314 0
0.97585784 0.21838235 0
0.99818857 0.23137255 0
1 0.24615502 0
1 0.2570504 0
1 0.27209712 0
1 0.28578431 0
1 0.29803922 0
0 0.1129902 0.02426471
0 0.11149663 0.02745098
0.00833333 0.10837929 0.03137255
0.02020527 0.10936734 0.02745098
0.03946078 0.11642157 0.0239277
0.06984528 0.12241115 0.01935509
0.10893076 0.13246017 0.01236213
0.14603248 0.13941483 0.00371477
0.20269608 0.15220588 0
0.25412837 0.15931373 0
0.30663297 0.16473652 0
0.35993413 0.16715686 0
0.41519608 0.16942402 0
0.46391697 0.17034314 0
0.51380208 0.17066483 0
0.57291667 0.17046569 0
0.62389706 0.17426471 0
0.67414216 0.17806373 0
0.71928615 0.18210784 0
0.75716146 0.18602941 0
0.79901961 0.19414828 0
0.82671569 0.20098039 0
0.86369485 0.2097886 0
0.89240196 0.22046569 0
0.91881127 0.22990196 0
0.94681373 0.24285386 0
0.97328431 0.25416667 0
0.99546569 0.26567862 0
1 0.27745098 0
1 0.28886336 0
1 0.30053615 0
1 0.31076134 0
1 0.32794118 0
0 0.1377451 0.02855392
0 0.13722809 0.03195849
0 0.13646599 0.03511795
0.01013327 0.13104703 0.03705193
0.02964154 0.14007353 0.03247549
0.05931373 0.14486443 0.02463235
0.09546569 0.15322457 0.01502757
0.13179764 0.16035156 0.00863588
0.19375 0.17558211 0
0.24828814 0.18762255 0
0.29911918 0.19458487 0
0.35411688 0.19955959 0
0.40799632 0.20117953 0
0.46666667 0.20551471 0
0.51519608 0.20895374 0
0.57291667 0.2106273 0
0.62438725 0.21335784 0
0.67022059 0.21719133 0
0.71446844 0.22120098 0
0.75602405 0.22612209 0
0.79223346 0.23120404 0
0.81960784 0.23688725 0
0.85788909 0.24561121 0
0.88761872 0.25477558 0
0.91485907 0.26351103 0
0.94289216 0.275 0
0.96670496 0.28447457 0
0.99227941 0.2932598 0
1 0.30526961 0
1 0.31588925 0
1 0.32494638 0
1 0.33330653 0
1 0.34730392 0
0 0.17843137 0.03137255
0 0.17745098 0.03685662
0 0.17359069 0.03829657
0 0.16960784 0.04375
0.00833333 0.17058824 0.04252451
0.03897059 0.17843137 0.03431373
0.07794118 0.18572304 0.02426471
0.11348039 0.19522059 0.0166973
0.17058824 0.20588235 0.00098039
0.22870711 0.21948529 0
0.2875 0.23241422 0
0.3439951 0.24132966 0
0.40306373 0.24865196 0
0.45726103 0.25321691 0
0.50955882 0.25808824 0
0.5689951 0.25983456 0
0.61911765 0.26372549 0
0.66629902 0.27049632 0
0.70765931 0.27254902 0
0.75104167 0.27852328 0
0.7872549 0.28370098 0
0.8127451 0.28823529 0
0.85018382 0.29577206 0
0.88063725 0.30229779 0
0.91151961 0.31078431 0
0.93685662 0.31933211 0
0.96170343 0.32506127 0
0.98688725 0.33495711 0
1 0.3432598 0
1 0.35232843 0
1 0.35882353 0
1 0.36666667 0
1 0.37843137 0
0 0.21041667 0.03529412
0 0.21348039 0.04150965
0 0.20955882 0.04394148
0 0.20563725 0.05047105
0 0.20058211 0.05490196
0.01561351 0.20870098 0.0485792
0.06025582 0.21596967 0.03937653
0.09657246 0.22242647 0.02610294
0.15306373 0.23538603 0.00882353
0.20716529 0.24877451 0
0.27181373 0.26237745 0
0.33836933 0.27683824 0
0.3935815 0.2868413 0
0.45159314 0.29620098 0
0.50123315 0.30196078 0
0.5612477 0.30759804 0
0.61329657 0.30802696 0
0.66151961 0.3122549 0
0.70490962 0.31581648 0
0.74428232 0.32014017 0
0.77941176 0.32414216 0
0.80784314 0.32806373 0
0.84532016 0.33627451 0
0.87671569 0.34289216 0
0.90370711 0.34757966 0
0.93137255 0.35465686 0
0.95747549 0.36237745 0
0.98161765 0.3689951 0
1 0.37550551 0
1 0.38210784 0
1 0.39014246 0
1 0.396358 0
1 0.40870098 0
0 0.25122549 0.04583333
0 0.25187653 0.04705882
0 0.24852941 0.05098039
0 0.24460784 0.05599724
0 0.2372549 0.0627451
0 0.23891697 0.06151961
0.03161765 0.24829963 0.05099571
0.07843137 0.25553768 0.04362745
0.13786765 0.27015931 0.02328431
0.189928 0.2807598 0.00306373
0.24852941 0.29436275 0
0.31367188 0.30815717 0
0.38673407 0.3254902 0
0.44179688 0.3323606 0
0.49387255 0.34211091 0
0.550697 0.34665288 0
0.60257353 0.3504902 0
0.65183824 0.35441176 0
0.69534314 0.35710784 0
0.73737745 0.36188725 0
0.77202819 0.36372549 0
0.8 0.36887255 0
0.8377451 0.37401961 0
0.86887255 0.38004749 0
0.89865196 0.38578431 0
0.92438725 0.39046415 0
0.94998468 0.39655331 0
0.97731311 0.40366115 0
1 0.40931373 0
1 0.41556373 0
1 0.41992953 0
1 0.42565104 0
1 0.43284314 0
0 0.28811275 0.05098039
0 0.2932981 0.05706572
0 0.28831955 0.05943627
0 0.2875 0.06666667
0 0.28068321 0.07112439
0 0.27552466 0.07843137
0.00268842 0.28284314 0.07070312
0.05311351 0.28860294 0.06071155
0.11801471 0.30174632 0.04344363
0.17389706 0.31433824 0.02267157
0.22708333 0.32506893 0.00019148
0.288017 0.33517157 0
0.35782782 0.35269608 0
0.42825138 0.37016314 0
0.48176317 0.37632506 0
0.54082797 0.38553922 0
0.5935049 0.39142157 0
0.64145987 0.39718137 0
0.68357843 0.39791667 0
0.72769608 0.40091529 0
0.76372549 0.40183824 0
0.79215686 0.4057598 0
0.83198529 0.41279871 0
0.86447227 0.41949678 0
0.89117647 0.42083333 0
0.91892233 0.42713312 0
0.94583333 0.42990962 0
0.97120098 0.43651961 0
0.99656863 0.44085478 0
1 0.44632736 0
1 0.44852941 0
1 0.45428922 0
1 0.46004902 0
0 0.33039216 0.05882353
0 0.33223039 0.06703431
0 0.33054534 0.06911765
0 0.32647059 0.0745098
0 0.32107843 0.08069853
0 0.31420037 0.08711703
0 0.31443015 0.0872549
0.01573223 0.320144 0.07872243
0.09595588 0.33088235 0.06409314
0.15306373 0.34301471 0.04473039
0.20955882 0.3549326 0.01936275
0.27020527 0.36776961 0
0.33131127 0.38229167 0
0.39679841 0.39364277 0
0.46479779 0.41102941 0
0.52977941 0.42071078 0
0.57990196 0.42843137 0
0.62712929 0.43235294 0
0.67074142 0.43627451 0
0.71312806 0.44019608 0
0.75343137 0.44411765 0
0.78186275 0.44411765 0
0.82306985 0.44803922 0
0.85350797 0.45196078 0
0.88370098 0.45588235 0
0.91193321 0.45980392 0
0.93673407 0.46173407 0
0.96335784 0.46764706 0
0.98890931 0.47175245 0
1 0.47449449 0
1 0.47941176 0
0.9988511 0.48218444 0
1 0.48872549 0
0 0.36580882 0.07095588
0 0.37161841 0.07676547
0 0.37306219 0.08247549
0 0.36755132 0.08627451
0 0.36151961 0.09362745
0 0.35269608 0.09816559
0 0.34620098 0.10551471
0.00099954 0.35212163 0.09756817
0.06985294 0.36151961 0.08458946
0.13190487 0.37328431 0.07038526
0.19203431 0.38504902 0.0502451
0.24852941 0.39650352 0.01856235
0.30894608 0.41079963 0
0.37295113 0.42393153 0
0.43259804 0.43594516 0
0.50991498 0.45183824 0
0.56648284 0.46151961 0
0.61496247 0.46740196 0
0.66188725 0.47487745 0
0.70085784 0.47846584 0
0.74116115 0.47916667 0
0.77218137 0.48272059 0
0.81273744 0.48564645 0
0.84575291 0.48692938 0
0.87521446 0.4870098 0
0.90330882 0.49056373 0
0.93081342 0.49478401 0
0.95575597 0.49864813 0
0.98448223 0.50232843 0
1 0.50269608 0
1 0.50681679 0
1 0.51017157 0
1 0.51409314 0
0 0.40318627 0.08284314
0 0.4067402 0.08756893
0 0.40479473 0.09229473
0 0.40159314 0.09562653
0 0.39390319 0.10052083
0 0.38921569 0.10772059
0 0.38178615 0.1138174
0 0.38026961 0.11359528
0.03854167 0.38866422 0.10343137
0.11397825 0.39914982 0.09192708
0.17348346 0.40931373 0.07622549
0.23245251 0.42230392 0.05438879
0.28921569 0.43342525 0.01651348
0.35134804 0.44604013 0
0.40807292 0.45905331 0
0.48014706 0.47114737 0
0.5502451 0.48811275 0
0.60313266 0.49509804 0
0.65 0.50170037 0
0.69252451 0.50821078 0
0.73152574 0.51078431 0
0.7625 0.51470588 0
0.80347733 0.51588542 0
0.83577665 0.5165288 0
0.86642157 0.51862745 0
0.89803156 0.51910999 0
0.92622549 0.52254902 0
0.95271906 0.52571232 0
0.97867647 0.52797181 0
1 0.5301011 0
1 0.53224571 0
1 0.53522518 0
1 0.53995098 0
0 0.44338235 0.09816176
0 0.44730392 0.10386412
0 0.44373468 0.10599724
0 0.43953355 0.1076708
0 0.43933824 0.11715686
0 0.42908241 0.11915594
0 0.42377451 0.12867647
0 0.4148629 0.13063725
0 0.41991422 0.12570466
0.08958333 0.4294807 0.11489737
0.15567555 0.44207261 0.10339308
0.21346124 0.45181909 0.08590686
0.26997549 0.46294424 0.0620864
0.32683824 0.475 0.02708333
0.38387714 0.48480392 0.00016085
0.45110677 0.49828431 0
0.51550245 0.50998775 0
0.58345588 0.52536765 0
0.63639706 0.53517157 0
0.67757353 0.5375 0
0.72038909 0.54526654 0
0.74901961 0.54534314 0
0.7932598 0.55306373 0
0.82561275 0.55315947 0
0.85683211 0.55318627 0
0.8879902 0.55591682 0
0.91519608 0.55392157 0
0.94375 0.55572151 0
0.97291667 0.55698529 0
0.99681373 0.55943627 0
1 0.56091452 0
1 0.56304764 0
1 0.56875 0
0 0.48039216 0.11568627
0 0.48235294 0.11856618
0 0.48026961 0.12144608
0 0.47567402 0.12469363
0 0.47107843 0.12769608
0 0.46666667 0.13272059
0 0.45955882 0.13921569
0 0.45238971 0.1442402
0 0.4504902 0.14705882
0.06354167 0.45729167 0.13878676
0.13553922 0.46801471 0.12806373
0.19595588 0.47677696 0.11507353
0.25171569 0.48627451 0.09632353
0.30894608 0.49822304 0.07377451
0.36139706 0.51004902 0.04191176
0.42591912 0.51973039 0
0.4872549 0.53235294 0
0.54859069 0.54301471 0
0.61360294 0.55747549 0
0.66574755 0.5682598 0
0.70882353 0.57254902 0
0.73921569 0.57647059 0
0.78088235 0.57904412 0
0.81439951 0.58235294 0
0.84852941 0.58431373 0
0.87959559 0.58572304 0
0.90894608 0.58590686 0
0.93651961 0.58627451 0
0.96348039 0.58431373 0
0.99056373 0.58431373 0
1 0.58639706 0
1 0.58927696 0
1 0.59215686 0
0 0.50968137 0.12928922
0 0.51348039 0.13321078
0 0.51348039 0.13689491
0 0.50963159 0.1372549
0 0.50563725 0.14448529
0 0.50171569 0.14640395
0 0.49460784 0.15281863
0 0.48769148 0.15677466
0 0.47533701 0.16467525
0.0375 0.48593367 0.15970818
0.12071078 0.49264706 0.15008425
0.18292739 0.49922641 0.14101562
0.23877145 0.50968137 0.12676164
0.29523208 0.52134651 0.10920267
0.34276961 0.53137255 0.08939185
0.40465303 0.54117264 0.05428156
0.46488971 0.55281863 0.00569853
0.52144608 0.56078048 0
0.58345588 0.57408854 0
0.64203431 0.58786765 0
0.698606 0.59742647 0
0.72941176 0.60367647 0
0.77116268 0.60759804 0
0.80625 0.60864737 0
0.84117647 0.61534926 0
0.87123545 0.6143727 0
0.89889706 0.61164216 0
0.92814415 0.6155216 0
0.95736826 0.61544118 0
0.98509881 0.61544118 0
1 0.61544118 0
1 0.61342295 0
1 0.61556373 0
0 0.54240196 0.14681373
0 0.54681373 0.1537454
0 0.54460784 0.15465686
0 0.54068627 0.15726869
0 0.5372549 0.15879289
0 0.53225337 0.16325827
0 0.52712929 0.16855086
0 0.52266391 0.17303156
0 0.51237745 0.17984069
0.01605392 0.50979626 0.18210784
0.10951287 0.51936275 0.1754902
0.17293964 0.52747396 0.1660769
0.22696078 0.53529412 0.15327819
0.2817402 0.54481464 0.14231771
0.33109681 0.55294118 0.12643995
0.39086244 0.56255362 0.10346967
0.44730392 0.57426471 0.07377451
0.50166207 0.58210784 0.0247549
0.55932904 0.59365809 0
0.61662837 0.60526961 0
0.67101716 0.6151348 0
0.71593137 0.6252451 0
0.76323529 0.63088235 0
0.79790901 0.63652727 0
0.83106618 0.63743873 0
0.86212469 0.64031097 0
0.89166667 0.64085478 0
0.91963082 0.64264706 0
0.94828431 0.64114583 0
0.97618719 0.64162837 0
1 0.63897059 0
1 0.64056373 0
1 0.64093137 0
0 0.57573529 0.1682598
0 0.57757353 0.17198606
0 0.57573529 0.17218137
0 0.57203202 0.17595358
0 0.56838235 0.17610294
0 0.56397059 0.18124617
0 0.56004902 0.18713235
0 0.55502451 0.18913143
0 0.54800858 0.19454657
0.00514706 0.53929611 0.20040977
0.10098039 0.54080882 0.19693627
0.16654412 0.55220588 0.19080882
0.22068015 0.55791973 0.17913603
0.27205882 0.5682598 0.16789216
0.32148438 0.57438725 0.15784314
0.3807598 0.58751149 0.14031863
0.43192402 0.59393382 0.12261029
0.48638557 0.60354243 0.09372702
0.54240196 0.61311275 0.05596661
0.59534314 0.6231273 0.00099954
0.64805453 0.63270527 0
0.69056373 0.64276961 0
0.75183824 0.65808824 0
0.78766468 0.65845588 0
0.82184436 0.66237745 0
0.85306373 0.66629902 0
0.88412224 0.66696538 0
0.91495098 0.66985294 0
0.94203431 0.6694087 0
0.97117417 0.66789216 0
0.9966682 0.666322 0
1 0.66610371 0
1 0.66985294 0
0 0.60294118 0.18578431
0 0.60686275 0.19232537
0 0.60548407 0.19362745
0 0.60294118 0.19522059
0 0.60116422 0.19754902
0 0.59509804 0.20012255
0 0.59191176 0.20539216
0 0.58615196 0.2060815
0 0.57830882 0.21176471
0.00289522 0.57156863 0.21715686
0.10199142 0.5671875 0.21862745
0.16631434 0.5754902 0.2144761
0.21819853 0.58241422 0.20594363
0.2714614 0.58984375 0.19731924
0.31519608 0.5986826 0.18897059
0.37049632 0.60693934 0.1729473
0.42279412 0.61593137 0.15980392
0.47659314 0.62642463 0.1442402
0.52671569 0.63455882 0.11780025
0.5779565 0.64082414 0.08763787
0.62886029 0.65238971 0.040625
0.66911765 0.66029412 0
0.72723652 0.66991422 0
0.77688419 0.68105086 0
0.81262255 0.68480392 0
0.84485294 0.6877451 0
0.87598039 0.69166667 0
0.90614277 0.69263174 0
0.93431373 0.69313725 0
0.96338848 0.69313725 0
0.99240196 0.69543505 0
1 0.69558824 0
1 0.69313725 0
0 0.62745098 0.20784314
0 0.63137255 0.20968137
0 0.62769608 0.20808824
0 0.62745098 0.21176471
0 0.62352941 0.2122549
0 0.61960784 0.21703431
0 0.61960784 0.22279412
0 0.61066176 0.22352941
0 0.60686275 0.23039216
0.00514706 0.6 0.23223039
0.10882353 0.58946078 0.23921569
0.17046569 0.59607843 0.23529412
0.22058824 0.60147059 0.225
0.27132353 0.60784314 0.2192402
0.31519608 0.61617647 0.20955882
0.3689951 0.62745098 0.19987745
0.41764706 0.63333333 0.18823529
0.46642157 0.63933824 0.17267157
0.51887255 0.65098039 0.15514706
0.56752451 0.65882353 0.13406863
0.61617647 0.66813725 0.10686275
0.65490196 0.6745098 0.0745098
0.70955882 0.68627451 0.00269608
0.75514706 0.69019608 0
0.80196078 0.70196078 0
0.83811275 0.70588235 0
0.86813725 0.70661765 0
0.90061275 0.71115196 0
0.92990196 0.71323529 0
0.95919118 0.71372549 0
0.98480392 0.71372549 0
1 0.71372549 0
1 0.71372549 0
0 0.66127451 0.23259804
0 0.66397059 0.23651961
0 0.66380208 0.23904718
0 0.66236979 0.24044118
0 0.66004902 0.24044118
0 0.65520067 0.24343597
0 0.65124081 0.24535846
0 0.64752604 0.24828431
0 0.64166667 0.25220588
0.03772212 0.63747702 0.25708487
0.1291973 0.62905944 0.26043199
0.18345588 0.62640165 0.2650046
0.23164828 0.63158701 0.26004902
0.2769761 0.63799786 0.25220588
0.3196538 0.64469975 0.24543505
0.37018229 0.65347733 0.2377068
0.41764706 0.6620098 0.22928922
0.46237745 0.66776961 0.21695006
0.50931373 0.67573529 0.20465686
0.55820312 0.68332567 0.19080116
0.60217525 0.69142157 0.17429534
0.6379902 0.69803922 0.15539216
0.69142157 0.70710784 0.12363664
0.73615196 0.7146829 0.08321078
0.7778799 0.71985294 0.01629902
0.82367494 0.73063725 0
0.86029412 0.7347886 0
0.89411765 0.73928462 0
0.92254902 0.74004289 0
0.9497549 0.74240196 0
0.97958027 0.74240196 0
1 0.7442402 0
1 0.74632353 0
0 0.68933824 0.25796569
0 0.69285769 0.26332338
0 0.69240196 0.26495098
0 0.68898974 0.26421569
0 0.68848039 0.26570159
0 0.68485371 0.26916743
0 0.6807981 0.26903339
0 0.67805607 0.27303539
0 0.67071078 0.27429534
0.09057138 0.66887255 0.28082491
0.15328585 0.6589231 0.2814951
0.20098039 0.65391008 0.28675322
0.2432598 0.65710784 0.28488051
0.29007353 0.66495098 0.28063725
0.32781863 0.66753217 0.2745098
0.37288986 0.6737477 0.26578202
0.41721814 0.6814951 0.25906863
0.46237745 0.68924249 0.25235524
0.50366881 0.69497549 0.24142157
0.54799709 0.70387944 0.22965686
0.59149816 0.71041667 0.21588542
0.62830882 0.71678922 0.20526961
0.67722886 0.72404259 0.18262102
0.71985294 0.73161765 0.15906863
0.76295956 0.74031863 0.12870711
0.80257353 0.74644225 0.0838197
0.84869026 0.7560049 0.01723346
0.88387331 0.75992647 0
0.91432292 0.76271446 0
0.94276961 0.76384804 0
0.9709712 0.76489737 0
0.99856388 0.76776961 0
1 0.76776961 0
0 0.71960784 0.28921569
0 0.71960784 0.28921569
0 0.71666667 0.28921569
0 0.7174326 0.29255515
0 0.71568627 0.29313725
0 0.71210172 0.29313725
0 0.71096814 0.29607843
0 0.70701593 0.29816176
0.06740196 0.70318627 0.30318627
0.13982843 0.69914216 0.30719975
0.18841912 0.69105392 0.30876225
0.23063725 0.68679534 0.31485907
0.26568627 0.68284314 0.31568627
0.30376838 0.68734681 0.31148897
0.33976716 0.69227941 0.30618873
0.3854473 0.7 0.30085784
0.4245098 0.70539216 0.29656863
0.46338848 0.7106924 0.28541667
0.50582108 0.71697304 0.27965686
0.54534314 0.72352941 0.27086397
0.5872549 0.73137255 0.26029412
0.61960784 0.73529412 0.24803922
0.66617647 0.74313725 0.23314951
0.70438113 0.74957108 0.21360294
0.74485294 0.75490196 0.19289216
0.78520221 0.76191789 0.16776961
0.825 0.76819853 0.13480392
0.86948529 0.78002451 0.0948223
0.90686275 0.78541667 0.07463235
0.9379902 0.78627451 0.01948529
0.96593137 0.79001225 0
0.99430147 0.79019608 0
1 0.79019608 0
0 0.74681373 0.31936275
0 0.74681373 0.32328431
0 0.74663756 0.32328431
0 0.7439951 0.32373238
0 0.74056373 0.32438725
0 0.74007353 0.32758502
0.00458027 0.73897059 0.32949602
0.07513021 0.73584176 0.33112745
0.14558824 0.73195466 0.33195466
0.19080499 0.72806756 0.33676854
0.22865349 0.72328431 0.33897059
0.26220512 0.71605392 0.3435049
0.2939951 0.71151961 0.34750306
0.32522595 0.71262255 0.3439951
0.35907629 0.71654412 0.34130668
0.39914216 0.72331878 0.33777956
0.43615196 0.72971814 0.33394608
0.47043122 0.73231847 0.32447534
0.50931373 0.74130668 0.32046569
0.54791667 0.74654948 0.31178385
0.58507966 0.75289522 0.30326287
0.61568627 0.75857843 0.29583333
0.66127451 0.76642157 0.28284314
0.6971852 0.77058824 0.26899893
0.73529412 0.77818627 0.25343137
0.77536765 0.78400352 0.23498392
0.81115196 0.79105392 0.21393229
0.85161612 0.79497549 0.18836933
0.89276961 0.80462623 0.15602022
0.93080193 0.81021369 0.14620098
0.96230852 0.81458333 0.12351409
0.98848039 0.81458333 0.08446308
1 0.81568627 0.03946078
0 0.77328431 0.35441176
0 0.77328431 0.35475643
0 0.77328431 0.357644
0 0.77009804 0.35644148
0.01623775 0.77000613 0.35824142
0.08160999 0.76727175 0.35942862
0.1282935 0.76344975 0.35952819
0.16421569 0.76433824 0.36315104
0.20416667 0.7591299 0.36617647
0.23848039 0.75690104 0.36952359
0.26960784 0.7504902 0.37009804
0.29743413 0.74656863 0.37451746
0.32720588 0.74264706 0.37794118
0.35122549 0.7379902 0.37801011
0.38169424 0.74231005 0.37794118
0.4165671 0.74656863 0.37392004
0.44938725 0.75208333 0.37169118
0.48213082 0.75759804 0.36311275
0.51715686 0.76193321 0.35874694
0.55220588 0.76936275 0.35441176
0.58606005 0.77401961 0.34583333
0.61568627 0.78112745 0.33946078
0.65712316 0.78555453 0.33016238
0.69240196 0.79040288 0.31678922
0.72689951 0.79699755 0.30655637
0.76458333 0.80355392 0.29240196
0.80073529 0.80857843 0.27598039
0.83651961 0.81323529 0.25526961
0.8747549 0.82083333 0.23382353
0.91432292 0.8287837 0.20526961
0.95269608 0.83607537 0.20127145
0.9841682 0.83806679 0.18909314
1 0.84068627 0.17303922
0.10563725 0.80122549 0.39730392
0.12710248 0.80257353 0.39793581
0.13933824 0.80122549 0.39971661
0.15588235 0.79969746 0.39889706
0.17708333 0.79897365 0.40122549
0.19684053 0.79730392 0.40122549
0.22107077 0.79496017 0.4048943
0.24202282 0.79435126 0.40514706
0.26884191 0.79080882 0.40842525
