Kodak Converted/Kodak Portra 400.cube
# Exported with LUT Lab 1.2.1
# LUTLab.com
TITLE Kodak Portra 400 2
LUT_3D_SIZE 9
0.01568627 0.01568627 0.01568627
0.07352941 0.01911765 0.01568627
0.21372549 0.00882353 0.00882353
0.41519608 0 0
0.62941176 0 0
0.81078431 0 0
0.93235294 0 0
1 0.12598039 0
1 0.22352941 0
0.00833333 0.0622549 0.02303922
0.05925245 0.07101716 0.01617647
0.21801471 0.09448529 0
0.41519608 0.09050245 0
0.6254902 0.0625 0
0.80441176 0.0776348 0
0.92647059 0.14497549 0
1 0.21519608 0
1 0.27794118 0
0 0.17843137 0.03137255
0.00833333 0.17058824 0.04252451
0.17058824 0.20588235 0.00098039
0.40306373 0.24865196 0
0.61911765 0.26372549 0
0.7872549 0.28370098 0
0.91151961 0.31078431 0
1 0.3432598 0
1 0.37843137 0
0 0.33039216 0.05882353
0 0.32107843 0.08069853
0.09595588 0.33088235 0.06409314
0.33131127 0.38229167 0
0.57990196 0.42843137 0
0.75343137 0.44411765 0
0.88370098 0.45588235 0
0.98890931 0.47175245 0
1 0.48872549 0
0 0.48039216 0.11568627
0 0.47107843 0.12769608
0 0.4504902 0.14705882
0.25171569 0.48627451 0.09632353
0.4872549 0.53235294 0
0.70882353 0.57254902 0
0.84852941 0.58431373 0
0.96348039 0.58431373 0
1 0.59215686 0
0 0.60294118 0.18578431
0 0.60116422 0.19754902
0 0.57830882 0.21176471
0.21819853 0.58241422 0.20594363
0.42279412 0.61593137 0.15980392
0.62886029 0.65238971 0.040625
0.81262255 0.68480392 0
0.93431373 0.69313725 0
1 0.69313725 0
0 0.71960784 0.28921569
0 0.71568627 0.29313725
0.06740196 0.70318627 0.30318627
0.26568627 0.68284314 0.31568627
0.4245098 0.70539216 0.29656863
0.5872549 0.73137255 0.26029412
0.74485294 0.75490196 0.19289216
0.90686275 0.78541667 0.07463235
1 0.79019608 0
0.21372549 0.82794118 0.43627451
0.25245098 0.8245098 0.440625
0.31948529 0.81666667 0.44460784
0.40686275 0.80618873 0.45980392
0.49313725 0.80490196 0.46029412
0.60539216 0.82794118 0.44675245
0.72352941 0.84754902 0.42009804
0.85496324 0.86721814 0.37401961
0.99607843 0.8872549 0.31519608
0.5372549 0.94901961 0.65098039
0.54901961 0.94509804 0.65441176
0.57647059 0.94215686 0.65980392
0.62205882 0.94117647 0.6745098
0.6745098 0.93333333 0.69411765
0.72303922 0.94509804 0.6877451
0.78823529 0.95980392 0.68137255
0.86715686 0.97254902 0.66666667
0.96078431 0.98431373 0.64313725
0.01960784 0.01960784 0.07745098
0.09313725 0.01176471 0.08878676
0.22928922 0 0.09693627
0.42824755 0 0.07512255
0.63897059 0 0.06936275
0.81470588 0 0.03235294
0.93431373 0 0
1 0.08039216 0
1 0.20441176 0
0 0.08578431 0.08572304
0.08099724 0.08884038 0.08577665
0.2325674 0.08550858 0.0842065
0.42930453 0.06100643 0.07352941
0.63746936 0.00021446 0.05168505
0.80801164 0.00557598 0.00573683
0.92792586 0.10989583 0
1 0.19302237 0
1 0.26574755 0
0 0.22401961 0.1182598
0.03992034 0.2092065 0.11178002
0.1942402 0.22472426 0.09307598
0.42389706 0.25196078 0.03529412
0.63088235 0.25631127 0
0.79125306 0.27164522 0
0.9125 0.29721201 0
1 0.33452819 0
1 0.36973039 0
0 0.36666667 0.12873775
0 0.35735294 0.14256281
0.13498775 0.34607843 0.14791667
0.34973958 0.39394148 0.09050245
0.59157475 0.43357843 0
0.76072304 0.43990502 0
0.88757659 0.45196078 0
0.99264706 0.46764706 0
1 0.48333333 0
0 0.50735294 0.17352941
0 0.49822304 0.18207721
0.05140931 0.46887255 0.20104167
0.27313113 0.49656863 0.1729473
0.49987745 0.53909314 0.10036765
0.71348039 0.57539828 0
0.85055147 0.58302696 0
0.9658701 0.58235294 0
1 0.58995098 0
0 0.61862745 0.23235294
0 0.61481311 0.241322
0 0.59473039 0.25208333
0.24588695 0.58859528 0.25569087
0.43284314 0.62000613 0.21871936
0.63419884 0.65717678 0.15643382
0.8165288 0.6877451 0.00386029
0.93643536 0.69370404 0
1 0.69185049 0
0 0.7245098 0.32022059
0 0.72352941 0.32679228
0.12711397 0.71155025 0.33458946
0.28633578 0.68828125 0.34568015
0.43302696 0.70759804 0.33143382
0.58880208 0.73279718 0.30056679
0.74715074 0.75873162 0.24886642
0.90686275 0.78509498 0.17539828
1 0.79289216 0.01985294
0.22598039 0.83186275 0.45245098
0.26508119 0.82880668 0.45674786
0.33275123 0.82306985 0.46614583
0.41503523 0.80997243 0.47578125
0.50052083 0.80811887 0.48115809
0.60373775 0.8245098 0.46448376
0.7238511 0.84750306 0.4435815
0.85496324 0.86721048 0.40441942
0.99564951 0.88682598 0.35349265
0.54117647 0.94901961 0.65490196
0.55294118 0.94859069 0.65882353
0.57953431 0.94509804 0.66580882
0.62383578 0.93903186 0.68002451
0.67647059 0.9370098 0.6997549
0.72567402 0.94509804 0.69675245
0.78884804 0.95955882 0.68884804
0.86721814 0.96954657 0.6745098
0.96078431 0.98431373 0.65098039
0 0.01960784 0.22843137
0.10098039 0.00441176 0.24411765
0.28259804 0 0.27377451
0.45723039 0 0.28039216
0.66862745 0 0.27696078
0.83284314 0 0.24375
0.94142157 0 0.24485294
1 0.06323529 0.23137255
1 0.20294118 0.21568627
0 0.10134804 0.21801471
0.0748315 0.09791667 0.23875613
0.27671569 0.08296569 0.26951593
0.45928309 0.00654105 0.27643995
0.66844363 0 0.26262255
0.82714461 0 0.24082414
0.93455882 0.08514093 0.23924632
1 0.1877451 0.22316176
1 0.26605392 0.20821078
0 0.24901961 0.25196078
0 0.25462623 0.25523897
0.24240196 0.26017157 0.26072304
0.45456495 0.25934436 0.25514706
0.65245098 0.25698529 0.24571078
0.80431985 0.26519608 0.22916667
0.91960784 0.29215686 0.21574755
0.99996936 0.32781863 0.19923407
1 0.36642157 0.18406863
0 0.43921569 0.28492647
0 0.4355239 0.29273897
0.21066176 0.40171569 0.28158701
0.39266238 0.42334559 0.2657935
0.61464461 0.44080882 0.21783088
0.77432598 0.43941483 0.18016238
0.89289216 0.44947917 0.16608456
0.99656863 0.46490502 0.1495098
1 0.48039216 0.1377451
0 0.56372549 0.31862745
0 0.55594363 0.30667892
0.15857843 0.52732843 0.30514706
0.3221201 0.51605392 0.30502451
0.52622549 0.55735294 0.27205882
0.72395833 0.58400735 0.21875
0.85808824 0.58357843 0.13860294
0.9723652 0.58082108 0.03363971
1 0.58480392 0.00441176
0 0.6557598 0.33284314
0 0.65191483 0.3393076
0.14549632 0.63238358 0.34378064
0.30473346 0.59993873 0.35297181
0.46029412 0.63112745 0.33284314
0.64525123 0.66485907 0.29747243
0.81963848 0.69166667 0.25045956
0.93805147 0.6948223 0.16332721
1 0.68921569 0
0 0.74632353 0.39411765
0.00955882 0.74185049 0.39767157
0.21286765 0.72984069 0.40373775
0.33639706 0.70867034 0.40882353
0.45196078 0.70833333 0.40416667
0.59690564 0.73566176 0.38501838
0.75098039 0.7625 0.35367647
0.90772059 0.78722426 0.31228554
1 0.79264706 0.24460784
0.26421569 0.84105392 0.49509804
0.29901961 0.83981311 0.50157782
0.36011029 0.83216912 0.50637255
0.4346201 0.81956189 0.51262255
0.51231618 0.80704657 0.5221201
0.61106005 0.82786458 0.51262255
0.72637868 0.84754902 0.4932598
0.85281863 0.86732537 0.46285233
0.99558824 0.88982843 0.43051471
0.54117647 0.95294118 0.66666667
0.55392157 0.95 0.67071078
0.58039216 0.94681373 0.67843137
0.62536765 0.94448529 0.69019608
0.67892157 0.93872549 0.70931373
0.72916667 0.94509804 0.71017157
0.78946078 0.95710784 0.70220588
0.86752451 0.96911765 0.69056373
0.96372549 0.98431373 0.67352941
0 0.01568627 0.41911765
0.05998775 0 0.43694853
0.31801471 0 0.47843137
0.54705882 0 0.51323529
0.68823529 0 0.5002451
0.84699755 0 0.50539216
0.95392157 0 0.46973039
1 0 0.43694853
1 0.14901961 0.41568627
0 0.10753676 0.41127451
0.017019 0.10753676 0.43057598
0.30237439 0.09108456 0.46769301
0.53787531 0 0.50716912
0.68838848 0 0.50039828
0.83988205 0 0.4952742
0.94666054 0 0.46239277
1 0.12075674 0.43324908
1 0.30245098 0.44509804
0 0.24803922 0.38541667
0 0.25635723 0.40030637
0.24874387 0.26626838 0.44895833
0.51671262 0.28227635 0.49995404
0.67843137 0.26354167 0.49540441
0.82124694 0.26288297 0.47401961
0.92818627 0.28606005 0.44702819
1 0.36818321 0.45375306
1 0.4057598 0.44362745
0 0.45196078 0.45496324
0 0.45980392 0.46285233
0.19984681 0.46530331 0.46700368
0.4540671 0.4682598 0.47087929
0.63722426 0.4629902 0.45906863
0.77918199 0.46372549 0.44844516
0.8944087 0.47156863 0.43719363
0.99050245 0.48139553 0.42303922
1 0.49754902 0.41764706
0 0.63382353 0.49166667
0 0.63091299 0.49224877
0.27414216 0.6098652 0.48811275
0.41988358 0.56957721 0.4705576
0.56593137 0.58553922 0.45808824
0.73823529 0.5958027 0.42518382
0.86507353 0.58719363 0.38682598
0.97000613 0.58734681 0.37892157
1 0.59068627 0.36985294
0.17598039 0.70349265 0.5122549
0.26507353 0.70207567 0.5185049
0.31470588 0.68866422 0.49685968
0.39985447 0.65790441 0.48090533
0.50349265 0.6463848 0.47503064
0.66364124 0.67932751 0.45922947
0.8240962 0.69995404 0.43112745
0.94049479 0.69295343 0.37585018
1 0.68382353 0.30692402
0.25196078 0.7745098 0.52745098
0.2667739 0.77296262 0.52037377
0.30530025 0.76228554 0.5049326
0.40519301 0.7416973 0.5060049
0.48743873 0.71415441 0.50392157
0.61060049 0.74073223 0.49497549
0.75689338 0.76838235 0.47827819
0.90782782 0.79116115 0.45519301
1 0.79191176 0.40453431
0.31568627 0.85569853 0.5622549
0.34450061 0.85762868 0.56596201
0.39560355 0.84845282 0.56674326
0.46488205 0.83504902 0.5685049
0.53844975 0.81648284 0.57708333
0.62011336 0.82579657 0.57414982
0.72745098 0.84754902 0.56318934
0.85539216 0.87107843 0.54411765
0.99344363 0.89068627 0.5245098
0.54117647 0.95686275 0.68872549
0.55441176 0.95833333 0.69381127
0.58333333 0.9557598 0.69803922
0.62598039 0.95294118 0.70925245
0.68039216 0.94509804 0.72279412
0.73535539 0.94356618 0.7372549
0.79644608 0.95723039 0.73125
0.87107843 0.97254902 0.7213848
0.96323529 0.98431373 0.70441176
0 0.01372549 0.59607843
0.06544118 0 0.60563725
0.3372549 0 0.63431373
0.5870098 0 0.675
0.77058824 0 0.70098039
0.84852941 0 0.66911765
0.95441176 0 0.66470588
1 0.0122549 0.64264706
1 0.21372549 0.61568627
0 0.125 0.58651961
0.0234375 0.12233456 0.59981618
0.3221201 0.10821078 0.62702206
0.5754902 0.0497549 0.66985294
0.76176471 0 0.69509804
0.84231005 0.00064338 0.66681985
0.94920343 0.09031863 0.66341912
1 0.19754902 0.6372549
1 0.29142157 0.61568627
0 0.27156863 0.56617647
0 0.26764706 0.58394608
0.27389706 0.27794118 0.61188725
0.53829657 0.29883578 0.65447304
0.73455882 0.31593137 0.68553922
0.82408088 0.31029412 0.66109069
0.92941176 0.33125 0.65490196
1 0.3658701 0.63106618
1 0.40882353 0.6127451
0 0.41666667 0.5502451
0 0.42377451 0.55916054
0.19209559 0.43155637 0.56231618
0.45879289 0.46424632 0.61813725
0.68284314 0.50134804 0.66090686
0.79191176 0.49433211 0.65143995
0.89810049 0.49901961 0.63529412
0.98970588 0.50750613 0.61632966
1 0.53357843 0.61421569
0 0.61862745 0.61764706
0 0.62144608 0.61960784
0.21470588 0.62058824 0.62058824
0.44754902 0.62316176 0.62352941
0.61911765 0.62303922 0.62794118
0.75 0.61997549 0.62058824
0.8629902 0.61568627 0.61004902
0.96237745 0.61642157 0.59889706
1 0.61568627 0.58921569
0 0.75955882 0.64632353
0.16626838 0.75775123 0.64764093
0.34742647 0.74601716 0.64258578
0.50171569 0.72772672 0.63697917
0.58321078 0.68995098 0.61568627
0.69258578 0.70116422 0.60784314
0.83063725 0.70900735 0.58455882
0.94558824 0.69304534 0.54623162
1 0.69044118 0.54044118
0.34558824 0.81323529 0.64852941
0.38676471 0.81164216 0.65012255
0.45698529 0.80404412 0.6495098
0.51470588 0.78621324 0.63566176
0.55955882 0.75735294 0.61348039
0.63676471 0.74877451 0.60514706
0.76973039 0.77953431 0.60098039
0.9096201 0.796875 0.58351716
1 0.79166667 0.54264706
0.475 0.87916667 0.67892157
0.48321078 0.87742034 0.67693015
0.49362745 0.87297794 0.66666667
0.50851716 0.86161152 0.64705882
0.57389706 0.84276961 0.64509804
0.63710172 0.82420343 0.64175858
0.73676471 0.8495098 0.63921569
0.86130515 0.87328431 0.63143382
0.99558824 0.89460784 0.62205882
0.56862745 0.96666667 0.73333333
0.57622549 0.96862745 0.73529412
0.58627451 0.96519608 0.72990196
0.6247549 0.9620098 0.73455882
0.68039216 0.95490196 0.74705882
0.74264706 0.94632353 0.76470588
0.80098039 0.95686275 0.76519608
0.875 0.97254902 0.75857843
0.96470588 0.98431373 0.74313725
0.00588235 0.03529412 0.72303922
0.19178922 0.01531863 0.72873775
0.3810049 0 0.74473039
0.5877451 0 0.77101716
0.77573529 0 0.80147059
0.89705882 0 0.80931373
0.95061275 0.06911765 0.77794118
1 0.18823529 0.76813725
1 0.28921569 0.75980392
0 0.14803922 0.71881127
0.1817019 0.147572 0.72696078
0.37371324 0.13713235 0.74264706
0.57689951 0.12629442 0.76617647
0.76593137 0.15661765 0.79568015
0.88903952 0.19932598 0.80657169
0.94497549 0.22495404 0.77794118
1 0.27987898 0.76795343
1 0.35 0.75588235
0 0.28125 0.70637255
0.0841299 0.28445159 0.71335784
0.33275123 0.29491422 0.73033088
0.54538909 0.31401654 0.75372243
0.73609069 0.35637255 0.78339461
0.86444547 0.38999694 0.79823836
0.92693015 0.39433211 0.77340686
1 0.41813725 0.76714154
1 0.45269608 0.75343137
0 0.42359069 0.66176471
0 0.43216146 0.67432598
0.26190257 0.44742647 0.69931066
0.48203125 0.46485141 0.72678462
0.68578431 0.5127451 0.76222426
0.82834712 0.54720435 0.7848652
0.89823836 0.53993566 0.76548713
0.98982843 0.54846814 0.76452972
1 0.56323529 0.75012255
0 0.57107843 0.67843137
0 0.57276348 0.67809436
0.20398284 0.57334559 0.6786152
0.39969363 0.57377451 0.67720588
0.61666667 0.61531863 0.72696078
0.7872549 0.65882353 0.76672794
0.87254902 0.65098039 0.75906863
0.96544118 0.6479473 0.7481924
1 0.6497549 0.73823529
0 0.73088235 0.72604167
0.1490962 0.73175551 0.72843137
0.32032782 0.73129596 0.73036152
0.47401961 0.7314568 0.73122702
0.6129902 0.73088235 0.73311887
0.73815104 0.73443627 0.73872549
0.84370404 0.73088235 0.73198529
0.9407935 0.72707567 0.72432598
1 0.7245098 0.71758578
0.30061275 0.86017157 0.76041667
0.34932598 0.85819547 0.76041667
0.43572304 0.85315564 0.75860907
0.53875613 0.83992034 0.75196078
0.64160539 0.81844363 0.74148284
0.70075061 0.78261336 0.72017463
0.79185049 0.79595588 0.71712623
0.91524203 0.80196078 0.69839154
1 0.78982843 0.66960784
0.4596201 0.91158088 0.75618873
0.48155637 0.91047794 0.7562117
0.53053002 0.9060815 0.75767463
0.59431679 0.89589461 0.75540748
0.65064338 0.88020833 0.7466299
0.68363205 0.85439645 0.72315411
0.75258885 0.85050551 0.7191636
0.86921722 0.87867647 0.71914062
0.9973652 0.8963848 0.71305147
0.59852941 0.98186275 0.79754902
0.60765931 0.98039216 0.79754902
0.63884804 0.97794118 0.80147059
0.66476716 0.97310049 0.79810049
0.6877451 0.96936275 0.78651961
0.74656863 0.96170343 0.79454657
0.80992647 0.95686275 0.80931373
0.87892157 0.97254902 0.8036152
0.96862745 0.98578431 0.79362745
0.26078431 0.10784314 0.82843137
0.32610294 0.10306373 0.83235294
0.45220588 0.09117647 0.83995098
0.60098039 0.08431373 0.85196078
0.75245098 0.12990196 0.87107843
0.89215686 0.23198529 0.89227941
0.98210784 0.28897059 0.89583333
1 0.30833333 0.86544118
1 0.37745098 0.85588235
0.24509804 0.19215686 0.82401961
0.31856618 0.19477635 0.82800245
0.44280025 0.19280025 0.83627451
0.59486826 0.20269608 0.84977022
0.74417892 0.24099265 0.86764706
0.88425245 0.32164522 0.89031863
0.97411152 0.36148897 0.89175858
1 0.36999081 0.86421569
1 0.42279412 0.85551471
0.19019608 0.3125 0.81348039
0.27432598 0.31758578 0.81734069
0.41213235 0.32561275 0.8247549
0.57003676 0.34623162 0.83936887
0.72205882 0.38860294 0.85980392
0.86124387 0.45416667 0.88097426
0.9567402 0.48376225 0.88946078
1 0.47977941 0.86001838
1 0.50906863 0.85490196
0.04044118 0.45232843 0.78566176
0.18578431 0.45454963 0.79341299
0.33838848 0.45615809 0.8051777
0.5216299 0.48048407 0.82058824
0.68382353 0.51936275 0.84093137
0.82942708 0.57647059 0.86704963
0.93066789 0.6018076 0.87941176
0.98258272 0.59157475 0.85647978
1 0.60245098 0.85367647
0 0.55147059 0.74068627
0 0.55533088 0.74509804
0.2192402 0.56446078 0.76004902
0.44313725 0.58155637 0.78590686
0.62794118 0.61470588 0.81617647
0.79227941 0.66654412 0.85165441
0.90502451 0.69227941 0.86862745
0.96476716 0.68284314 0.85281863
1 0.68627451 0.85539216
0 0.68639706 0.775
0.05505515 0.68831189 0.77530637
0.25612745 0.6875 0.77637868
0.40409007 0.68137255 0.77346814
0.53970588 0.67714461 0.76838235
0.73336397 0.72552083 0.81873468
0.87928922 0.77025123 0.85897672
0.9495098 0.76262255 0.85021446
0.99963235 0.7622549 0.84473039
0.26151961 0.82230392 0.81838235
0.31164216 0.82313113 0.81997549
0.4 0.82395833 0.8213848
0.50490196 0.82120098 0.82120098
0.61703431 0.82156863 0.82193627
0.72987132 0.82322304 0.82686887
0.83645833 0.83063725 0.83272059
0.92634804 0.82545956 0.82558211
1 0.8254902 0.82156863
0.44460784 0.94558824 0.85588235
0.46878064 0.94280025 0.85631127
0.51737132 0.94188113 0.85392157
0.58970588 0.93739277 0.8520527
0.67254902 0.92640931 0.84846814
0.75344669 0.90735294 0.83762255
0.79739583 0.87215074 0.81222426
0.88682598 0.88988971 0.81286765
1 0.89852941 0.80232843
0.55588235 1 0.85490196
0.57120098 0.99963235 0.85588235
0.60367647 0.99705882 0.85588235
0.65698529 0.99276961 0.85833333
0.71911765 0.98627451 0.85980392
0.78137255 0.98039216 0.86041667
0.81985294 0.96862745 0.85196078
0.88676471 0.97267157 0.85894608
0.97941176 0.99215686 0.85490196
0.41617647 0.22794118 0.92156863
0.44797794 0.22493873 0.91856618
0.52879902 0.23235294 0.92585784
0.63382353 0.24785539 0.93204657
0.74509804 0.28137255 0.93946078
0.85784314 0.33970588 0.9473652
0.96911765 0.42107843 0.96078431
1 0.45202206 0.96127451
1 0.46372549 0.94607843
0.40496324 0.28284314 0.91470588
0.4471201 0.28939185 0.91819853
0.52371324 0.29330576 0.92205882
0.62644761 0.30851716 0.92657016
0.74056373 0.34273897 0.93688725
0.85203738 0.3959329 0.94574908
0.96171875 0.46796875 0.95778186
1 0.4911152 0.95772825
1 0.49852941 0.94258578
0.3817402 0.38321078 0.9067402
0.42176777 0.38832721 0.91066176
0.50539216 0.39852941 0.91495098
0.61113664 0.41429228 0.92201287
0.72377451 0.44558824 0.93118873
0.83681066 0.49203431 0.94166667
0.94641544 0.55217525 0.95364583
1 0.5685049 0.95445772
1 0.56617647 0.93811275
0.30667892 0.48560049 0.89491422
0.3625 0.49317555 0.89826134
0.45637255 0.50393689 0.90249694
0.5775046 0.52292433 0.90948989
0.69929534 0.5510723 0.91930147
0.81581648 0.59186581 0.93382353
0.92760417 0.63949142 0.94672181
1 0.65373775 0.9530867
1 0.64215686 0.93167892
0.19852941 0.59607843 0.86911765
0.26963848 0.59632353 0.87303922
0.38339461 0.59846814 0.87738971
0.50808824 0.60098039 0.89083946
0.65698529 0.6314951 0.90355392
0.78863358 0.66878064 0.92089461
0.90686275 0.7122549 0.9377451
0.99068627 0.72987132 0.94754902
1 0.71813725 0.92990196
0 0.67775735 0.84932598
0.00080423 0.67818627 0.84959406
0.20681679 0.67513787 0.84754902
0.38157169 0.67243413 0.85228248
0.57671569 0.69010417 0.87573529
0.73995098 0.72481618 0.90196844
0.8803462 0.77495404 0.92810968
0.97285539 0.80381434 0.9435432
1 0.79362745 0.92990196
0.19607843 0.79031863 0.87610294
0.2471201 0.79019608 0.87630208
0.33458946 0.78988971 0.87662377
0.43788297 0.78507966 0.87412684
0.54436275 0.77886029 0.86985294
0.64708946 0.77098652 0.8618413
0.82622549 0.81764706 0.90309436
0.954519 0.86884191 0.93806679
1 0.86115196 0.93125
0.38523284 0.91072304 0.91029412
0.41176471 0.91072304 0.90948223
0.46568627 0.90997243 0.90981924
0.54175092 0.90841759 0.90814951
0.63357843 0.90857843 0.90879289
0.7307981 0.9103171 0.91160386
0.82918199 0.91185662 0.91410846
0.92205882 0.91813725 0.9212546
1 0.9151348 0.91464461
0.53284314 1 0.92990196
0.55153186 1 0.93290441
0.58811275 1 0.93026961
0.64375 1 0.93363971
0.70637255 1 0.93210784
0.78026961 0.99871324 0.93223039
0.85208333 0.99215686 0.92990196
0.90245098 0.98039216 0.91856618
0.9877451 0.99215686 0.92205882
0.55686275 0.43529412 1
0.57647059 0.43578431 1
0.61568627 0.43921569 1
0.68333333 0.4495098 1
0.76078431 0.46666667 1
0.84852941 0.49019608 1
0.93431373 0.52254902 1
1 0.56911765 1
1 0.58039216 1
0.55294118 0.46617647 1
0.57261029 0.46973039 1
0.61605392 0.47401961 1
0.67959559 0.48088235 1
0.75539216 0.49583333 1
0.84430147 0.52107843 1
0.93137255 0.55257353 1
1 0.59215686 1
1 0.60343137 1
0.55196078 0.53431373 0.99607843
0.56862745 0.53541667 0.99620098
0.61151961 0.53921569 0.99681373
0.67303922 0.54705882 1
0.75098039 0.55882353 1
0.83676471 0.57941176 1
0.92573529 0.60686275 1
1 0.64215686 1
1 0.64509804 1
0.53088235 0.60245098 0.98823529
0.55422794 0.60667892 0.99215686
0.59656863 0.61139706 0.99215686
0.66127451 0.61813725 0.99215686
0.73995098 0.62990196 0.99607843
0.82555147 0.64613971 0.99754902
0.91470588 0.66948529 1
1 0.7004902 1
1 0.70441176 1
0.51568627 0.68235294 0.98431373
0.53480392 0.68235294 0.98431373
0.56127451 0.67254902 0.98578431
0.63382353 0.68039216 0.98823529
0.71862745 0.69117647 0.99117647
0.81127451 0.70784314 0.99411765
0.90294118 0.72990196 0.99803922
0.98872549 0.75906863 1
1 0.76666667 1
0.44019608 0.74264706 0.97254902
0.46501225 0.7463848 0.97285539
0.51519608 0.74656863 0.97647059
0.58829657 0.74564951 0.97947304
0.67303922 0.74313725 0.98553922
0.78094363 0.7622549 0.98823529
0.88578431 0.78860294 0.99607843
0.97303922 0.81844363 0.9973652
1 0.83039216 1
0.42156863 0.82156863 0.97647059
0.43970588 0.82414216 0.97647059
0.47230392 0.81838235 0.97647059
0.52647059 0.81666667 0.97352941
0.60294118 0.81323529 0.97647059
0.72352941 0.81666667 0.98333333
0.8497549 0.8372549 0.98921569
0.95735294 0.87463235 0.99607843
1 0.89117647 1
0.45539216 0.91029412 0.98872549
0.47316176 0.9098652 0.99123775
0.50625 0.90772059 0.98909314
0.56060049 0.90765931 0.98823529
0.62598039 0.90514706 0.98676471
0.70606618 0.90508578 0.98823529
0.78186275 0.89509804 0.98431373
0.92506127 0.91764706 0.99215686
1 0.9495098 1
0.49019608 0.99607843 0.99607843
0.50588235 0.99607843 0.99607843
0.54117647 1 0.99607843
0.59852941 0.99754902 0.99607843
0.66862745 0.99803922 0.99607843
0.74656863 0.99607843 0.99607843
0.82941176 0.99607843 0.99607843
0.91470588 1 0.99656863
1 1 1
