Kodak Converted/Kodak Portra 160 ++.cube
# Exported with LUT Lab 1.2.1
# LUTLab.com
TITLE Kodak Portra 160 4 ++
LUT_3D_SIZE 5
0.1254902 0.0745098 0.06666667
0.25 0.06666667 0.0627451
0.58431373 0 0.03529412
0.85686275 0.03823529 0
1 0.20392157 0
0.11470588 0.22058824 0.05980392
0.23039216 0.2372549 0.04803922
0.60882353 0.28529412 0
0.85269608 0.29901961 0
1 0.34411765 0
0.07254902 0.50784314 0
0.23333333 0.49215686 0
0.52254902 0.54803922 0
0.82303922 0.58529412 0
1 0.57058824 0
0.28823529 0.72745098 0.12352941
0.35220588 0.71813725 0.10392157
0.51960784 0.72303922 0.09166667
0.74705882 0.76960784 0.13137255
1 0.82058824 0.00196078
0.56078431 0.96862745 0.47843137
0.58921569 0.96470588 0.4754902
0.67058824 0.96470588 0.47843137
0.8127451 0.97941176 0.50882353
0.97254902 0.99215686 0.54117647
0.11372549 0.07843137 0.24509804
0.26470588 0.0745098 0.24901961
0.62303922 0 0.26764706
0.85514706 0 0.24411765
1 0.1872549 0.23627451
0.05098039 0.2754902 0.25220588
0.28088235 0.27420343 0.26035539
0.61911765 0.26776961 0.2442402
0.85349265 0.27965686 0.2213848
1 0.33529412 0.21348039
0.17254902 0.56176471 0.2754902
0.29448529 0.53921569 0.25686275
0.54607843 0.56348039 0.25710784
0.83186275 0.57377451 0.16703431
1 0.56176471 0.09656863
0.3372549 0.74632353 0.31985294
0.38670343 0.73615196 0.30098039
0.52365196 0.72561275 0.27708333
0.75091912 0.77352941 0.32855392
1 0.81691176 0.2872549
0.56862745 0.96862745 0.53627451
0.59509804 0.96470588 0.53235294
0.67254902 0.96470588 0.52843137
0.80906863 0.97671569 0.55
0.97254902 0.99509804 0.58431373
0 0.11176471 0.61568627
0.31568627 0.12107843 0.62352941
0.64411765 0.16372549 0.63823529
0.8877451 0.2995098 0.62156863
1 0.36470588 0.59803922
0.04215686 0.32058824 0.60735294
0.33308824 0.33909314 0.61960784
0.63529412 0.38357843 0.63210784
0.86654412 0.4439951 0.62340686
1 0.44215686 0.59411765
0.14607843 0.63137255 0.60784314
0.3627451 0.62598039 0.60857843
0.60735294 0.60833333 0.60441176
0.81985294 0.5879902 0.57622549
1 0.58235294 0.55392157
0.43578431 0.80098039 0.59362745
0.48872549 0.79509804 0.59534314
0.58063725 0.75759804 0.56372549
0.76544118 0.78541667 0.58431373
1 0.80686275 0.54362745
0.59607843 0.97647059 0.66862745
0.61568627 0.97303922 0.66127451
0.68137255 0.97254902 0.64901961
0.80882353 0.97696078 0.65
0.97254902 0.99215686 0.68431373
0.29215686 0.25588235 0.84411765
0.4254902 0.27769608 0.84387255
0.64509804 0.3504902 0.84607843
0.85588235 0.44901961 0.84901961
1 0.55 0.84117647
0.34877451 0.42230392 0.83308824
0.45465686 0.4375 0.83443627
0.65085784 0.4875 0.84056373
0.84767157 0.5497549 0.846875
1 0.61862745 0.84411765
0.3504902 0.60882353 0.80735294
0.45882353 0.62156863 0.81237745
0.6504902 0.65465686 0.82303922
0.83651961 0.69987745 0.83872549
1 0.74264706 0.85098039
0.47254902 0.84583333 0.82230392
0.52947304 0.84675245 0.8245098
0.66004902 0.83762255 0.82340686
0.82058824 0.8252451 0.82150735
1 0.80196078 0.79411765
0.65588235 0.99215686 0.8245098
0.67622549 0.98995098 0.82622549
0.73039216 0.98872549 0.825
0.81691176 0.98357843 0.80490196
0.98431373 0.99607843 0.82843137
0.56470588 0.54509804 1
0.60784314 0.55392157 1
0.71960784 0.59215686 1
0.85588235 0.64705882 0.99607843
1 0.69019608 0.99607843
0.58823529 0.61568627 1
0.62745098 0.62426471 0.99779412
0.72892157 0.65 0.99607843
0.8627451 0.69313725 0.99534314
0.99607843 0.7254902 0.99313725
0.61764706 0.73137255 0.99607843
0.64803922 0.73284314 0.99558824
0.74215686 0.75 0.99509804
0.86715686 0.77794118 0.99362745
0.99411765 0.80588235 0.99411765
0.59607843 0.85294118 0.99215686
0.62647059 0.85196078 0.99215686
0.71470588 0.84803922 0.99607843
0.86838235 0.87156863 0.99313725
0.99313725 0.90294118 0.99313725
0.68235294 1 0.99215686
0.70882353 1 0.99215686
0.77647059 1 0.99411765
0.88333333 1 0.99607843
1 1 1
