Kodak Converted/Kodak E-100 GX Ektachrome 100.cube
# Exported with LUT Lab 1.2.1
# LUTLab.com
TITLE Kodak E-100 GX Ektachrome 100
LUT_3D_SIZE 9
0 0 0
0.05833333 0 0
0.15490196 0 0
0.26372549 0 0
0.39215686 0 0
0.52058824 0 0
0.64509804 0.00392157 0
0.76127451 0.00784314 0
0.84705882 0.00784314 0
0.05441176 0.09313725 0.01960784
0.10925245 0.08229167 0.01519608
0.20159314 0.07095588 0.01127451
0.3026348 0.05784314 0.00392157
0.41936275 0.03455882 0
0.53216912 0.00765931 0
0.64509804 0.00392157 0
0.75784314 0.00441176 0
0.84313725 0.00392157 0
0.12941176 0.21764706 0.07745098
0.16813725 0.20992647 0.07352941
0.24436275 0.1997549 0.06568627
0.34901961 0.18235294 0.05392157
0.45784314 0.15294118 0.03823529
0.56666667 0.1067402 0.0192402
0.66764706 0.05367647 0.00759804
0.76127451 0.00392157 0
0.84313725 0.00392157 0
0.175 0.35784314 0.13578431
0.21764706 0.35392157 0.13333333
0.29669118 0.34669118 0.12794118
0.40006127 0.33431373 0.12009804
0.50514706 0.31004902 0.10710784
0.61323529 0.27009804 0.09209559
0.71139706 0.21421569 0.06911765
0.79901961 0.121875 0.04166667
0.85882353 0.03235294 0.01813725
0.26666667 0.5 0.19411765
0.30147059 0.49803922 0.19019608
0.36960784 0.49411765 0.18627451
0.45539216 0.4870098 0.17843137
0.55686275 0.4745098 0.16666667
0.6622549 0.45220588 0.15808824
0.76029412 0.41715686 0.14313725
0.85343137 0.3502451 0.12745098
0.91372549 0.25490196 0.10392157
0.37401961 0.64215686 0.26029412
0.39491422 0.63854167 0.26029412
0.44362745 0.63823529 0.25637255
0.52009804 0.63431373 0.24908088
0.6125 0.62647059 0.24068627
0.70790441 0.61323529 0.22892157
0.80134804 0.59056373 0.21715686
0.89607843 0.55147059 0.19883578
0.96470588 0.49460784 0.18186275
0.47254902 0.76568627 0.34215686
0.49080882 0.76568627 0.33835784
0.53039216 0.7627451 0.33823529
0.59558824 0.7627451 0.3307598
0.66960784 0.75833333 0.32647059
0.75441176 0.75098039 0.31531863
0.84044118 0.73823529 0.30686275
0.93088235 0.71531863 0.29117647
0.99607843 0.68137255 0.2754902
0.58921569 0.88284314 0.42009804
0.60091912 0.88284314 0.42009804
0.6310049 0.88284314 0.42009804
0.67745098 0.88284314 0.41617647
0.73578431 0.87941176 0.40882353
0.80588235 0.8754902 0.40441176
0.88382353 0.87156863 0.39571078
0.96519608 0.85980392 0.384375
1 0.84019608 0.36960784
0.72156863 0.98039216 0.51372549
0.72941176 0.98039216 0.51372549
0.74803922 0.98039216 0.50980392
0.77892157 0.98039216 0.50980392
0.82156863 0.98039216 0.50588235
0.87598039 0.98039216 0.50196078
0.93431373 0.98039216 0.49803922
0.99607843 0.98039216 0.49019608
1 0.97254902 0.47843137
0 0 0.05441176
0.04264706 0 0.04264706
0.13921569 0 0.03872549
0.24981618 0 0.02696078
0.38063725 0 0.01544118
0.5127451 0 0.00765931
0.63627451 0.00392157 0
0.75042892 0.00392157 0
0.83921569 0.00392157 0
0.04656863 0.10447304 0.10490196
0.09357384 0.09313725 0.0974954
0.1897212 0.07869179 0.08932292
0.29460784 0.06338082 0.07745098
0.41151961 0.03872549 0.06176471
0.52665441 0.01127451 0.04242494
0.6372549 0.00392157 0.02336091
0.75 0.00392157 0.01170343
0.83921569 0.00392157 0.00392157
0.11764706 0.22242647 0.14852941
0.15637255 0.21764706 0.14492953
0.23259804 0.20588235 0.13970588
0.33933824 0.1899663 0.12794118
0.4504902 0.16053922 0.1122549
0.56164216 0.11421569 0.09264706
0.6629902 0.05686275 0.06985294
0.75392157 0.00392157 0.04558824
0.83921569 0.00392157 0.02990196
0.15931373 0.36176471 0.19411765
0.20199908 0.35784314 0.19166667
0.2877451 0.35254289 0.18627451
0.39221814 0.33903952 0.17843137
0.49926471 0.31470588 0.16666667
0.60839461 0.27627911 0.15098039
0.70597426 0.21960784 0.13247549
0.79322151 0.12579657 0.10735294
0.85343137 0.03235294 0.08039216
0.25490196 0.50196078 0.24828431
0.29016544 0.50196078 0.24460784
0.36176471 0.49803922 0.24068627
0.44754902 0.49019608 0.23284314
0.55098039 0.47830882 0.22193627
0.65710784 0.45612745 0.20931373
0.75588235 0.42101716 0.19491422
0.8495098 0.35591299 0.17766544
0.91004902 0.25882353 0.15833333
0.36372549 0.64215686 0.31421569
0.38551624 0.64215686 0.31078431
0.43578431 0.63823529 0.31029412
0.51243873 0.63431373 0.30294118
0.60670956 0.62647059 0.29509804
0.70189951 0.61470588 0.28333333
0.79710478 0.59227941 0.27156863
0.8908701 0.55320925 0.25588235
0.95863971 0.49852941 0.23988971
0.46470588 0.76666667 0.38480392
0.48301164 0.76666667 0.38137255
0.5254902 0.76568627 0.38088235
0.58786765 0.7627451 0.37352941
0.66568627 0.75882353 0.36911765
0.74865196 0.75098039 0.36127451
0.83651961 0.73921569 0.3495098
0.92696078 0.71568627 0.33742341
0.99313725 0.68431373 0.32205882
0.58480392 0.88333333 0.45490196
0.59662224 0.88333333 0.45189951
0.62472426 0.88284314 0.45098039
0.67352941 0.88284314 0.4471201
0.73186275 0.87941176 0.44313725
0.80196078 0.87892157 0.43621324
0.87990196 0.87156863 0.42815564
0.96127451 0.85980392 0.41923254
1 0.84019608 0.40784314
0.71764706 0.98039216 0.54068627
0.7254902 0.98039216 0.54068627
0.74509804 0.98039216 0.54068627
0.77647059 0.98039216 0.5372549
0.81960784 0.98039216 0.53676471
0.87205882 0.98039216 0.53284314
0.93431373 0.98039216 0.5254902
0.99264706 0.98039216 0.51764706
1 0.97647059 0.50931373
0 0 0.14313725
0.03088235 0 0.13235294
0.12377451 0 0.12745098
0.2372549 0 0.11605392
0.37254902 0 0.10392157
0.50098039 0 0.08884804
0.6254902 0 0.07254902
0.74301471 0.00392157 0.05379902
0.83137255 0.00392157 0.0372549
0.03872549 0.1127451 0.19509804
0.08272059 0.10098039 0.19105392
0.17536765 0.08633578 0.18293505
0.28302696 0.06974571 0.1712163
0.40214461 0.04436275 0.15557598
0.51720282 0.01390931 0.13783701
0.62867647 0 0.1192402
0.74215686 0.00392157 0.10321691
0.82745098 0.00392157 0.08786765
0.09803922 0.22941176 0.2379902
0.14068627 0.2254902 0.23406863
0.21709559 0.21372549 0.22867647
0.32803309 0.19803922 0.2171875
0.44227941 0.16862745 0.20379902
0.55352328 0.12205882 0.18599877
0.65514706 0.06372549 0.16642157
0.74598652 0.00392157 0.14237132
0.83063725 0.00392157 0.12671569
0.13247549 0.36960784 0.28676471
0.17843137 0.36568627 0.2839614
0.26887255 0.35857843 0.27928922
0.37875306 0.34607843 0.27107843
0.48872549 0.32377451 0.25949755
0.60013787 0.28472733 0.2442402
0.69834559 0.22745098 0.22720588
0.7872549 0.13324142 0.20404412
0.84595588 0.03627451 0.18088235
0.22990196 0.50980392 0.34215686
0.26862745 0.50588235 0.34117647
0.34215686 0.50232843 0.33615196
0.43339461 0.4966299 0.33008578
0.53921569 0.48235294 0.32083333
0.64675245 0.4620098 0.30870098
0.74656863 0.42696078 0.29485294
0.84166667 0.3622549 0.2754902
0.90392157 0.26666667 0.25539216
0.34411765 0.64607843 0.39840686
0.36799939 0.64607843 0.39656863
0.42009804 0.64215686 0.39448529
0.498269 0.63823529 0.38872549
0.59558824 0.63039216 0.38088235
0.69221814 0.61862745 0.37244179
0.78737745 0.59620098 0.36102941
0.88302696 0.55716912 0.34558824
0.95110294 0.50245098 0.32990196
0.45220588 0.76960784 0.45490196
0.46853554 0.7669424 0.45490196
0.51151961 0.76666667 0.45318627
0.57769608 0.76568627 0.44705882
0.65588235 0.76176471 0.44313725
0.73970588 0.75490196 0.43529412
0.82867647 0.74270833 0.42720588
0.91911765 0.71951593 0.41556373
0.98529412 0.68529412 0.40294118
0.57316176 0.88333333 0.52107843
0.58523284 0.88333333 0.52107843
0.61531863 0.88333333 0.51715686
0.66181066 0.88333333 0.51622243
0.72401961 0.88284314 0.51231618
0.79411765 0.87941176 0.50539216
0.87205882 0.87349877 0.49782475
0.95343137 0.86205576 0.48970588
1 0.84019608 0.47794118
0.70980392 0.98039216 0.59901961
0.71764706 0.98039216 0.59901961
0.7372549 0.98039216 0.59901961
0.76862745 0.98039216 0.59509804
0.81372549 0.98431373 0.59509804
0.86666667 0.98431373 0.59117647
0.92647059 0.98431373 0.58333333
0.98823529 0.98039216 0.57941176
1 0.97647059 0.56862745
0 0 0.24019608
0.01911765 0 0.23235294
0.1060049 0 0.22487745
0.22297794 0 0.21666667
0.35833333 0 0.20490196
0.48921569 0 0.19068627
0.61482843 0 0.17745098
0.73382353 0 0.16176471
0.82352941 0.00392157 0.14754902
0.02696078 0.12107843 0.29871324
0.06963082 0.11161918 0.29479167
0.15677083 0.09705882 0.28694853
0.2681296 0.07756587 0.27758119
0.39059436 0.0515625 0.26332721
0.507644 0.01911765 0.24674479
0.61666667 0 0.228125
0.73039216 0 0.21387102
0.81715686 0 0.20067402
0.07892157 0.23823529 0.34546569
0.11715686 0.23340993 0.3432598
0.19393382 0.22328431 0.3372549
0.31119792 0.20588235 0.32719056
0.42947304 0.17843137 0.31390931
0.54244792 0.12990196 0.29803922
0.64439338 0.06862745 0.27870711
0.73681066 0.0064951 0.25677083
0.81715686 0 0.24313725
0.09509804 0.37745098 0.39405637
0.14613971 0.37352941 0.39221814
0.2439951 0.3685049 0.3877451
0.36050092 0.35634957 0.37894455
0.4745098 0.33357843 0.36841299
0.5884421 0.29550398 0.3535769
0.68855699 0.2377451 0.33717831
0.77807138 0.14374234 0.31685049
0.8377451 0.04172794 0.29362745
0.19362745 0.51372549 0.44289216
0.2375 0.51372549 0.44093137
0.31862745 0.50980392 0.4370098
0.41525735 0.50196078 0.43112745
0.52487745 0.49019608 0.42254902
0.63403799 0.46911765 0.41124387
0.73535539 0.43572304 0.39901961
0.83088235 0.3739277 0.38302696
0.89485294 0.27769608 0.36372549
0.31758578 0.65 0.49356618
0.34293811 0.65 0.49264706
0.3971201 0.64607843 0.49019608
0.48143382 0.64215686 0.48572304
0.57990196 0.63507966 0.47843137
0.6785769 0.62254902 0.47038143
0.77561275 0.6027114 0.45997243
0.87266391 0.56470588 0.446875
0.94264706 0.50974265 0.43382353
0.42941176 0.77058824 0.54852941
0.44813113 0.77058824 0.54852941
0.49273897 0.77058824 0.54644608
0.56029412 0.767356 0.54252451
0.64093137 0.76421569 0.53676471
0.72594975 0.75845588 0.5307598
0.81675858 0.74607843 0.52245711
0.90772059 0.72352941 0.51168811
0.97647059 0.68921569 0.5
0.55520833 0.88676471 0.60686275
0.56901042 0.88676471 0.60667892
0.59977022 0.88676471 0.60294118
0.64865962 0.88333333 0.60147059
0.70851716 0.88333333 0.5981924
0.78235294 0.87941176 0.59117647
0.86029412 0.8754902 0.58578431
0.94215686 0.86372549 0.57736673
1 0.84411765 0.56764706
0.70196078 0.98039216 0.66911765
0.70949755 0.98039216 0.66911765
0.72843137 0.98039216 0.66911765
0.7598652 0.98431373 0.66519608
0.80392157 0.98431373 0.66519608
0.85729167 0.98431373 0.66127451
0.91862745 0.98431373 0.65735294
0.98039216 0.98039216 0.6495098
1 0.97647059 0.64166667
0 0.00392157 0.35294118
0.00735294 0 0.34901961
0.08676471 0 0.34117647
0.20294118 0 0.33333333
0.34117647 0 0.32156863
0.47352941 0 0.30980392
0.60147059 0 0.29803922
0.71862745 0 0.28406863
0.80784314 0 0.27058824
0.01519608 0.13627451 0.41151961
0.05395221 0.1245098 0.4078125
0.13357843 0.1088848 0.40171569
0.25039828 0.08921569 0.39175858
0.37634804 0.06090686 0.37818627
0.49528186 0.02303922 0.3625
0.60196078 0 0.34479167
0.71642157 0 0.3330576
0.80392157 0 0.32132353
0.06568627 0.25294118 0.45637255
0.09136029 0.24754902 0.45392157
0.16911765 0.23615196 0.44705882
0.29068627 0.21856618 0.43841912
0.41495098 0.19215686 0.42647059
0.53026961 0.14613971 0.41078431
0.63308824 0.07977941 0.39313725
0.72598039 0.01029412 0.37199755
0.80392157 0 0.35980392
0.02794118 0.38602941 0.50318627
0.10220588 0.38529412 0.50058211
0.21029412 0.3776348 0.49656863
0.33704044 0.36838235 0.48872549
0.45772059 0.34669118 0.47830882
0.57447917 0.31023284 0.46519608
0.678125 0.25343137 0.4495098
0.76773897 0.16127451 0.42965686
0.82745098 0.05196078 0.40710784
0.13333333 0.52254902 0.55098039
0.18970588 0.52156863 0.54901961
0.28676471 0.51764706 0.54534314
0.39154412 0.51311275 0.53921569
0.50588235 0.49852941 0.53137255
0.61887255 0.47904412 0.52058824
0.72303922 0.44632353 0.50955882
0.82120098 0.38664216 0.49387255
0.88431373 0.29313725 0.4745098
0.27941176 0.65514706 0.59877451
0.30784314 0.65392157 0.59681373
0.36911765 0.65392157 0.59485294
0.45808824 0.65 0.58970588
0.56127451 0.64215686 0.58308824
0.66268382 0.63039216 0.5752451
0.76213235 0.61047794 0.56544118
0.86109069 0.57270221 0.55245098
0.93210784 0.51813725 0.53872549
0.40196078 0.7745098 0.64558824
0.42132353 0.7745098 0.64558824
0.46911765 0.7745098 0.64215686
0.54068627 0.77261029 0.63823529
0.62254902 0.76887255 0.63382353
0.71194853 0.7627451 0.62647059
0.80269608 0.75098039 0.61862745
0.89724265 0.72745098 0.60876225
0.96519608 0.69607843 0.59901961
0.53431373 0.8872549 0.69264706
0.5497549 0.8872549 0.69240196
0.58082108 0.8872549 0.69044118
0.63072917 0.8872549 0.68848039
0.69485294 0.88676471 0.68468137
0.76740196 0.88333333 0.67990196
0.84852941 0.87910539 0.67303922
0.9323223 0.86764706 0.66519608
0.99215686 0.84803922 0.65710784
0.69019608 0.98431373 0.74705882
0.69779412 0.98431373 0.74705882
0.71715686 0.98431373 0.74313725
0.74901961 0.98431373 0.74313725
0.79411765 0.98431373 0.73921569
0.84852941 0.98431373 0.73921569
0.90833333 0.98431373 0.73529412
0.96911765 0.98431373 0.72745098
1 0.98039216 0.72156863
0 0.00784314 0.46960784
0 0 0.46421569
0.06360294 0 0.45784314
0.18045343 0 0.44852941
0.32156863 0 0.43823529
0.45784314 0 0.42647059
0.58590686 0 0.41470588
0.70508578 0 0.40294118
0.79607843 0 0.39362745
0.00606618 0.15214461 0.52794118
0.03491115 0.14224112 0.52401961
0.10856311 0.12843137 0.51706495
0.22805607 0.10729167 0.50833333
0.3604473 0.07573529 0.49411765
0.48118873 0.03549326 0.47959559
0.59007353 0.00289522 0.46158088
0.70245098 0 0.44977788
0.7908701 0 0.4403799
0.05 0.26862745 0.57058824
0.07567402 0.26470588 0.56727941
0.13599877 0.25294118 0.56191789
0.26335784 0.2372549 0.55379902
0.39589461 0.20980392 0.54074755
0.51629902 0.16574755 0.52621017
0.62132353 0.09840686 0.5083027
0.71619179 0.01813725 0.48877145
0.79215686 0 0.47352941
0 0.39944853 0.61415441
0.02077206 0.39705882 0.61231618
0.16764706 0.39198836 0.607981
0.30784314 0.38137255 0.6002068
0.43728554 0.36222426 0.58924632
0.55890778 0.32926624 0.57681526
0.66640625 0.27303922 0.56119792
0.75980392 0.18284314 0.54165901
0.81813725 0.06464461 0.52003676
0.05465686 0.53333333 0.65710784
0.12417279 0.53333333 0.65514706
0.24166667 0.52941176 0.65122549
0.36253064 0.52257966 0.64534314
0.48431373 0.51053922 0.63590686
0.60174632 0.49142157 0.62573529
0.7091299 0.46029412 0.61488971
0.8104473 0.40392157 0.59935662
0.87647059 0.31372549 0.58137255
0.22892157 0.66176471 0.69705882
0.26372549 0.66176471 0.69613971
0.33428309 0.66084559 0.69313725
0.43082108 0.65726869 0.68829657
0.53995098 0.65 0.68137255
0.64573376 0.63823529 0.67352941
0.74816176 0.61862745 0.66476716
0.84932598 0.5835095 0.65274203
0.92248775 0.52990196 0.63915441
0.36666667 0.78137255 0.73872549
0.38961397 0.77953431 0.73688725
0.44203431 0.77843137 0.73517157
0.51715686 0.77843137 0.73125
0.60294118 0.7745098 0.72604167
0.69512868 0.76666667 0.71986826
0.78946078 0.75710784 0.7122549
0.88419118 0.73529412 0.70191483
0.9557598 0.70392157 0.69264706
0.51078431 0.89068627 0.77843137
0.52628676 0.89068627 0.77843137
0.55968137 0.89068627 0.77798713
0.61115962 0.89068627 0.7745098
0.67696078 0.89068627 0.77058824
0.75343137 0.88714001 0.76666667
0.83662684 0.88284314 0.76011029
0.9209329 0.87156863 0.75430453
0.98431373 0.85196078 0.74675245
0.6745098 0.98431373 0.825
0.68235294 0.98431373 0.825
0.70379902 0.98431373 0.825
0.73670343 0.98578431 0.82107843
0.78235294 0.98823529 0.82107843
0.83676471 0.98823529 0.81715686
0.89901961 0.98823529 0.81323529
0.96109069 0.98823529 0.80931373
1 0.98039216 0.80294118
0 0.01568627 0.58529412
0 0.00784314 0.58137255
0.03406863 0.00392157 0.5745098
0.15784314 0 0.56568627
0.29803922 0 0.55098039
0.43823529 0 0.53921569
0.56666667 0 0.53039216
0.68982843 0 0.51862745
0.78039216 0 0.50784314
0 0.17291667 0.63982843
0.01868873 0.16475184 0.63676471
0.08719363 0.15199142 0.62996324
0.19986213 0.13235294 0.62054228
0.34117647 0.09908088 0.6057598
0.46564032 0.05303309 0.59007353
0.57830882 0.00839461 0.57408088
0.6872549 0 0.55859375
0.77647059 0 0.54963235
0.01372549 0.29215686 0.67867647
0.04264706 0.28630515 0.67622549
0.11102941 0.27653186 0.67083333
0.22971814 0.26078431 0.66136642
0.37585784 0.23223039 0.64840686
0.50235907 0.19080882 0.63308824
0.61194853 0.12346814 0.61648284
0.70664828 0.03054534 0.59629289
0.77647059 0 0.58063725
0 0.41421569 0.71752451
0 0.4127451 0.71531863
0.10257353 0.40882353 0.71139706
0.26934743 0.39845282 0.70248162
0.41360294 0.38137255 0.69178922
0.54134498 0.35199142 0.67961091
0.6546875 0.29865196 0.66571691
0.75196078 0.20868566 0.64633885
0.81176471 0.08786765 0.62401961
0 0.54558824 0.75637255
0.02965686 0.54509804 0.75441176
0.17745098 0.54215686 0.7504902
0.3245098 0.5372549 0.74430147
0.45833333 0.5254902 0.73553922
0.58229167 0.50759804 0.725
0.6939951 0.47757353 0.71360294
0.79877451 0.42352941 0.69932598
0.87009804 0.33970588 0.68235294
0.15 0.67022059 0.7935049
0.19693627 0.67022059 0.79129902
0.28688725 0.66960784 0.78958333
0.39754902 0.66568627 0.78345588
0.51452206 0.66066176 0.77781863
0.6251685 0.65 0.76997549
0.73204657 0.63112745 0.75992647
0.83716299 0.59852941 0.74816176
0.91127451 0.54558824 0.73639706
0.31862745 0.78627451 0.83014706
0.34561887 0.78627451 0.82941176
0.40392157 0.78627451 0.82677696
0.48624387 0.78529412 0.82313113
0.57892157 0.78198529 0.81801471
0.67414216 0.7745098 0.8129902
0.77316176 0.76531863 0.80514706
0.8721201 0.7439951 0.79485294
0.94509804 0.71176471 0.78627451
0.47941176 0.89460784 0.86776961
0.49497549 0.89460784 0.86764706
0.53207721 0.89460784 0.86421569
0.58685662 0.89460784 0.86372549
0.6564951 0.89460784 0.85980392
0.73529412 0.89117647 0.85491728
0.82098652 0.88716299 0.84852941
0.90718444 0.87624081 0.84143689
0.97254902 0.85686275 0.83370098
0.65882353 0.98823529 0.90294118
0.66666667 0.98823529 0.90294118
0.68627451 0.98823529 0.90294118
0.72120098 0.98823529 0.90294118
0.76813725 0.98823529 0.89901961
0.825 0.99215686 0.89607843
0.8872549 0.99215686 0.89509804
0.9495098 0.99215686 0.89117647
1 0.98431373 0.88333333
0 0.03578431 0.69117647
0 0.02009804 0.69068627
0.00784314 0.01176471 0.68333333
0.13039216 0.00392157 0.675
0.27843137 0 0.65931373
0.41470588 0 0.64411765
0.55085784 0 0.63492647
0.67542892 0 0.62401961
0.76862745 0 0.61617647
0 0.20300245 0.74515931
0.00654871 0.19247089 0.74209559
0.06116728 0.1810815 0.73731618
0.16476716 0.16374847 0.72614124
0.32086397 0.13259804 0.71072304
0.45187653 0.08384651 0.69487592
0.56665135 0.02598039 0.67849265
0.67156863 0 0.65974265
0.76470588 0 0.65189951
0.00392157 0.31703431 0.78125
0.01153493 0.31343444 0.78002451
0.05021446 0.30462623 0.77405025
0.17843137 0.29054841 0.76502757
0.34889706 0.26495098 0.75257353
0.48484988 0.22401961 0.73711703
0.60153186 0.16204044 0.72117034
0.69852941 0.0598652 0.69889706
0.76470588 0 0.68198529
0 0.4341299 0.81881127
0 0.43253676 0.81648284
0.02731311 0.42847733 0.81256127
0.21292892 0.42065717 0.80452665
0.38137255 0.40514706 0.79295343
0.52040441 0.38008578 0.78118873
0.64059436 0.33363971 0.76778493
0.74411765 0.24581036 0.74820006
0.80765931 0.1254902 0.72843137
0 0.5629902 0.85563725
0 0.56106005 0.85367647
0.08688725 0.56078431 0.8497549
0.26911765 0.55579044 0.84255515
0.42328431 0.54509804 0.83406863
0.55759804 0.52941176 0.82426471
0.67640931 0.50104167 0.8125
0.7870098 0.44877451 0.79874387
0.8627451 0.3745098 0.78308824
0.04166667 0.68382353 0.88854167
0.08190104 0.68167892 0.88823529
0.20730699 0.68137255 0.8846201
0.34705882 0.67856158 0.87958793
0.47876838 0.67352941 0.87270221
0.59970895 0.66520374 0.86489737
0.71265319 0.64644608 0.85557598
0.821875 0.61626072 0.84493719
0.90196078 0.56783088 0.83333333
0.2377451 0.79448529 0.92218137
0.27287071 0.79448529 0.92205882
0.34558824 0.79411765 0.91847426
0.44281556 0.79411765 0.91433824
0.54583333 0.7903799 0.91029412
0.64862132 0.78627451 0.90343137
0.75171569 0.77689951 0.89558824
0.85658701 0.75839461 0.88688725
0.93296569 0.72745098 0.87892157
0.43186275 0.89852941 0.95343137
0.44797794 0.89852941 0.95042892
0.4897212 0.89852941 0.94957108
0.55169271 0.89852941 0.94607843
0.62598039 0.89852941 0.94215686
0.71127451 0.89852941 0.93823529
0.80110294 0.89460784 0.93382353
0.89423254 0.88633578 0.92603401
0.96078431 0.86764706 0.91862745
0.63137255 0.98823529 0.97696078
0.64264706 0.98823529 0.97696078
0.6627451 0.98860294 0.97696078
0.70018382 0.99215686 0.9745098
0.7504902 0.99215686 0.97303922
0.8091299 0.99607843 0.96911765
0.87414216 0.99607843 0.96519608
0.9377451 0.99607843 0.96127451
1 0.99215686 0.95735294
0 0.05098039 0.73333333
0 0.03137255 0.72941176
0.00392157 0.01960784 0.7254902
0.11862745 0.01176471 0.71372549
0.27058824 0 0.69803922
0.40686275 0 0.68235294
0.54313725 0 0.6745098
0.66764706 0 0.6627451
0.76078431 0 0.65490196
0 0.21470588 0.78431373
0 0.20686275 0.78082108
0.04865196 0.19509804 0.77647059
0.15343137 0.17726716 0.76599265
0.30980392 0.14803922 0.75245098
0.44558824 0.0995098 0.73547794
0.56262255 0.0372549 0.71764706
0.66715686 0 0.69803922
0.75686275 0 0.69019608
0.00392157 0.33137255 0.82254902
0.00784314 0.32745098 0.81960784
0.03112745 0.31960784 0.81470588
0.14852941 0.30392157 0.80502451
0.33676471 0.28039216 0.79166667
0.47708333 0.23970588 0.77647059
0.59632353 0.17745098 0.75980392
0.69497549 0.0754902 0.73982843
0.76372549 0 0.72058824
0 0.44411765 0.85882353
0 0.44166667 0.85735294
0 0.4377451 0.85098039
0.17935049 0.43082108 0.84313725
0.36593137 0.41666667 0.83137255
0.50882353 0.39166667 0.81960784
0.63333333 0.34901961 0.80637255
0.7403799 0.26519608 0.78676471
0.80637255 0.14705882 0.76715686
0 0.57058824 0.89411765
0 0.56862745 0.89215686
0.04215686 0.56862745 0.88823529
0.24068627 0.56470588 0.88039216
0.40588235 0.55294118 0.87156863
0.54607843 0.5372549 0.86078431
0.66813725 0.51127451 0.84901961
0.78112745 0.4622549 0.8370098
0.86078431 0.39019608 0.82156863
0 0.68921569 0.9254902
0.02518382 0.68921569 0.92334559
0.1504902 0.6877451 0.92156863
0.32009804 0.68529412 0.91519608
0.46029412 0.68063725 0.90735294
0.58633578 0.67113971 0.8995098
0.70330882 0.6557598 0.89129902
0.81636029 0.62598039 0.87990196
0.89803922 0.57941176 0.86813725
0.1872549 0.80098039 0.95686275
0.22990196 0.80098039 0.95392157
0.31397059 0.79803922 0.95294118
0.41973039 0.79803922 0.94901961
0.52843137 0.79705882 0.94215686
0.63529412 0.79203431 0.93615196
0.74240196 0.78235294 0.92941176
0.84889706 0.76531863 0.91862745
0.92647059 0.73529412 0.91078431
0.40147059 0.90245098 0.98431373
0.42101716 0.90245098 0.98088235
0.46666667 0.90245098 0.98039216
0.53235294 0.90245098 0.97665441
0.61029412 0.90245098 0.97279412
0.69754902 0.89901961 0.96862745
0.79056373 0.89852941 0.96127451
0.88682598 0.89068627 0.95686275
0.95686275 0.87156863 0.9495098
0.61568627 0.98823529 1
0.62352941 0.98823529 1
0.64705882 0.99215686 1
0.68480392 0.99215686 1
0.73529412 0.99215686 1
0.79754902 0.99607843 1
0.86372549 0.99607843 1
0.92990196 1 1
1 0.99607843 1
