Kodak Converted/Kodak Elite Chrome 200.cube
# Exported with LUT Lab 1.2.1
# LUTLab.com
TITLE Kodak Elite Chrome 200
LUT_3D_SIZE 9
0 0 0
0.05833333 0 0
0.15098039 0 0
0.26764706 0 0
0.40784314 0 0
0.55196078 0 0
0.68039216 0 0
0.80833333 0 0
0.9254902 0 0
0.05833333 0.09754902 0.01960784
0.10533088 0.08921569 0.01176471
0.19767157 0.07487745 0.00392157
0.30814951 0.0596201 0
0.44264706 0.03651961 0
0.57107843 0.01158088 0
0.68688725 0 0
0.79705882 0 0
0.91029412 0 0
0.1254902 0.22941176 0.08137255
0.16029412 0.22156863 0.07352941
0.24803922 0.21078431 0.05784314
0.35894608 0.19411765 0.03431373
0.48921569 0.17058824 0.00931373
0.61372549 0.13713235 0
0.72328431 0.09117647 0
0.82794118 0.03296569 0
0.91764706 0 0
0.17352941 0.38137255 0.13578431
0.21979167 0.37745098 0.13186275
0.3067402 0.36960784 0.12009804
0.42303922 0.35784314 0.1004902
0.55147059 0.3375 0.075
0.67205882 0.30931373 0.04558824
0.78382353 0.27120098 0.01813725
0.88547794 0.21648284 0.00245098
0.97107843 0.13284314 0
0.26078431 0.5254902 0.18627451
0.29779412 0.5254902 0.18063725
0.37892157 0.52156863 0.16911765
0.49313725 0.51372549 0.15171569
0.61372549 0.50098039 0.13529412
0.73039216 0.48357843 0.11568627
0.84460784 0.4622549 0.09509804
0.95147059 0.42916667 0.07230392
1 0.3745098 0.04509804
0.36617647 0.66960784 0.24068627
0.39852941 0.66568627 0.23676471
0.46862745 0.66237745 0.225
0.56715686 0.65784314 0.20931373
0.6752451 0.65 0.18970588
0.78633578 0.63823529 0.16470588
0.89754902 0.62254902 0.14227941
1 0.59901961 0.12696078
1 0.56372549 0.11519608
0.4872549 0.78921569 0.2872549
0.51041667 0.78921569 0.28333333
0.56470588 0.78627451 0.2754902
0.64546569 0.78235294 0.26372549
0.74019608 0.77745098 0.24754902
0.84313725 0.77022059 0.22806373
0.9502451 0.75882353 0.20710784
1 0.74656863 0.18529412
1 0.72352941 0.16568627
0.60098039 0.89509804 0.33333333
0.62052696 0.89509804 0.32990196
0.6622549 0.89460784 0.32291667
0.72843137 0.89117647 0.31421569
0.81029412 0.8872549 0.30245098
0.9036152 0.88333333 0.28676471
0.99705882 0.8754902 0.27107843
1 0.86764706 0.25882353
1 0.85196078 0.24362745
0.7254902 0.99215686 0.34901961
0.74068627 0.99215686 0.34901961
0.77254902 0.99215686 0.34509804
0.82598039 0.99215686 0.3372549
0.89607843 0.98823529 0.32745098
0.9754902 0.98823529 0.31764706
1 0.98431373 0.30588235
1 0.98039216 0.29411765
1 0.97254902 0.28235294
0 0 0.04264706
0.03480392 0 0.02696078
0.13235294 0 0.01262255
0.24981618 0 0.0036152
0.39215686 0 0
0.52843137 0 0
0.65686275 0 0
0.78137255 0 0
0.89460784 0 0
0.03480392 0.08921569 0.08970588
0.08137255 0.08137255 0.08137255
0.17817096 0.06703431 0.06176471
0.28880974 0.05065104 0.03609069
0.42003676 0.02870711 0.01170343
0.5464614 0.00998775 0
0.66099877 0 0
0.77003676 0 0
0.88627451 0 0
0.10980392 0.22156863 0.13970588
0.1477788 0.21764706 0.13284314
0.22876838 0.20588235 0.11789216
0.34122243 0.19019608 0.09656863
0.47052696 0.16488971 0.065625
0.59108456 0.13003983 0.03272059
0.70199142 0.08333333 0.00772059
0.80370711 0.02904412 0
0.89313725 0 0
0.14785539 0.37745098 0.19019608
0.19460784 0.37352941 0.18386183
0.28720895 0.36629902 0.17290135
0.40520833 0.35484069 0.15490196
0.53299632 0.33553922 0.12965686
0.65245098 0.30784314 0.10392157
0.76433824 0.26911765 0.07452512
0.86574755 0.21470588 0.04070925
0.94754902 0.12892157 0.01029412
0.23357843 0.52745098 0.24068627
0.27601103 0.5254902 0.23676471
0.36133578 0.52156863 0.225
0.47530637 0.51372549 0.20539216
0.59632353 0.50098039 0.18186275
0.7140625 0.48357843 0.15965074
0.8276348 0.4622549 0.13890931
0.93578431 0.42892157 0.11890319
1 0.37058824 0.09387255
0.34675245 0.66960784 0.29099265
0.38155637 0.66599265 0.28707108
0.45165441 0.66568627 0.2754902
0.54932598 0.65784314 0.26060815
0.65857843 0.65 0.24206495
0.76942402 0.63823529 0.22058824
0.88209252 0.62254902 0.19705882
0.98687194 0.60030637 0.17653186
1 0.56372549 0.15392157
0.46776961 0.79019608 0.33676471
0.49237132 0.79008885 0.33382353
0.54644608 0.78627451 0.32598039
0.62726716 0.78235294 0.31421569
0.72279412 0.77843137 0.3
0.82616422 0.77058824 0.28284314
0.93213848 0.76102941 0.26323529
1 0.74705882 0.24754902
1 0.72352941 0.23186275
0.58180147 0.89852941 0.38039216
0.60092678 0.89852941 0.37947304
0.64292279 0.89509804 0.37254902
0.70886183 0.89433977 0.36466759
0.79093137 0.89068627 0.35294118
0.88449755 0.88333333 0.33939951
0.98196998 0.87892157 0.3254902
1 0.87064951 0.30980392
1 0.85588235 0.29803922
0.70588235 0.99607843 0.40343137
0.71807598 0.99607843 0.3995098
0.75208333 0.99558824 0.39558824
0.80637255 0.99215686 0.3877451
0.87647059 0.99215686 0.37990196
0.95833333 0.98823529 0.36813725
1 0.98431373 0.35931373
1 0.98039216 0.34852941
1 0.97647059 0.33676471
0 0 0.12352941
0.01519608 0 0.10796569
0.1120098 0 0.09240196
0.22941176 0 0.06960784
0.36862745 0 0.04215686
0.50490196 0 0.01862745
0.63259804 0 0.00392157
0.75477941 0 0
0.86764706 0 0
0.01519608 0.08272059 0.175
0.05490196 0.07401961 0.16361826
0.15248162 0.06176471 0.14690564
0.2638174 0.04607843 0.12401961
0.39571078 0.0247549 0.09283088
0.51920956 0.00735294 0.06150429
0.63293505 0 0.0296875
0.74571078 0 0.00784314
0.85882353 0 0.00257353
0.08627451 0.21764706 0.22230392
0.12598039 0.20980392 0.21446078
0.19938725 0.19828431 0.19938725
0.31626838 0.18235294 0.17797181
0.44497549 0.15845588 0.14901961
0.56289828 0.12233456 0.11813725
0.67175245 0.0754902 0.0841299
0.77377451 0.02254902 0.0518076
0.86176471 0 0.02083333
0.10392157 0.37352941 0.27536765
0.1558364 0.37205882 0.26951593
0.25563725 0.36283701 0.25793505
0.37990196 0.35 0.23786765
0.50594363 0.32984069 0.21292892
0.62389706 0.30147059 0.18578431
0.73455882 0.26127451 0.15833333
0.83443627 0.20686275 0.12953431
0.91507353 0.11715686 0.0935049
0.18676471 0.5254902 0.32941176
0.23382353 0.5254902 0.3254902
0.32843137 0.52156863 0.31433824
0.44644608 0.5125 0.29803922
0.56715686 0.5 0.27696078
0.68363971 0.48265931 0.25520833
0.79693627 0.46029412 0.23137255
0.903125 0.42530637 0.20784314
0.99411765 0.36862745 0.18137255
0.30551471 0.66960784 0.38051471
0.34091605 0.66960784 0.37663909
0.41700368 0.66568627 0.36829044
0.51654412 0.65784314 0.35568321
0.62579657 0.65 0.33866422
0.73835784 0.63823529 0.32066483
0.85067402 0.62254902 0.30073529
0.95556066 0.60030637 0.2814951
1 0.56372549 0.25931373
0.42622549 0.79313725 0.42965686
0.45189951 0.79019608 0.4265625
0.50759804 0.78939951 0.41942402
0.59181985 0.78566176 0.40867034
0.6877451 0.77953431 0.39595588
0.79276961 0.77325368 0.38002451
0.89963235 0.7627451 0.36354167
0.99742647 0.74705882 0.34509804
1 0.72352941 0.32843137
0.54178922 0.89901961 0.47267157
0.56107537 0.89901961 0.46997549
0.60477941 0.89852941 0.46605392
0.67256434 0.89509804 0.45744485
0.75655637 0.89117647 0.44583333
0.85110294 0.8872549 0.43249081
0.95021446 0.87941176 0.41868873
1 0.87156863 0.40341605
1 0.85588235 0.3877451
0.66764706 0.99901961 0.49313725
0.68198529 0.99607843 0.49215686
0.71666667 0.99607843 0.48823529
0.77107843 0.99607843 0.48137255
0.84215686 0.99215686 0.47254902
0.92401961 0.99215686 0.46078431
1 0.98823529 0.44901961
1 0.98431373 0.4372549
1 0.97941176 0.42254902
0 0 0.21421569
0.00343137 0 0.19883578
0.08823529 0 0.18284314
0.20545343 0 0.16415441
0.34509804 0 0.13823529
0.47745098 0 0.11378676
0.60306373 0 0.09117647
0.72616422 0 0.06764706
0.83676471 0 0.05196078
0.00128676 0.07530637 0.26734069
0.02824755 0.06633732 0.25690104
0.12147672 0.05418199 0.2402114
0.23596814 0.03830423 0.21875766
0.36439951 0.01911765 0.19142157
0.48498775 0.00392157 0.16245404
0.59715074 0 0.13328738
0.71207108 0 0.10814951
0.82352941 0 0.09117647
0.06090686 0.20735294 0.31801471
0.10160846 0.20196078 0.3113511
0.17058824 0.19019608 0.29813113
0.28405331 0.17182904 0.27689951
0.4098652 0.14705882 0.25116422
0.52538297 0.10991115 0.22261029
0.63400735 0.06372549 0.1924326
0.73492647 0.01470588 0.161106
0.82009804 0 0.12757353
0.03670343 0.36868873 0.37745098
0.09822304 0.36568627 0.37352941
0.21239277 0.35784314 0.36237745
0.34365043 0.34365043 0.34307598
0.46939338 0.32254902 0.31985294
0.58612898 0.29270833 0.29454657
0.69571078 0.25159314 0.26686581
0.79375766 0.19509804 0.23609069
0.87303922 0.10238971 0.1995098
0.11127451 0.5254902 0.43578431
0.17328431 0.52352941 0.43186275
0.28382353 0.51764706 0.4216299
0.40609681 0.50980392 0.40609681
0.52818627 0.49803922 0.3872549
0.6453125 0.4799326 0.36596201
0.76017157 0.45637255 0.3435049
0.86528799 0.42117034 0.31795343
0.95637255 0.36078431 0.28995098
0.24754902 0.66960784 0.48780637
0.29019608 0.66960784 0.48399969
0.37035846 0.66568627 0.47627145
0.47393536 0.65784314 0.46331955
0.58651961 0.65 0.44705882
0.6997932 0.63823529 0.42955729
0.81237745 0.62254902 0.40968137
0.91734835 0.59882812 0.38823529
1 0.56035539 0.36715686
0.37598039 0.79411765 0.53468137
0.40284926 0.79313725 0.53151042
0.46311275 0.79019608 0.52472426
0.54944853 0.78627451 0.51507353
0.64877451 0.78186275 0.50128676
0.75542279 0.7745098 0.48564645
0.86243873 0.7627451 0.46862745
0.96395527 0.7504902 0.45209865
1 0.72352941 0.43272059
0.49656863 0.90294118 0.57371324
0.51615349 0.90245098 0.5713848
0.56207108 0.89955576 0.56619179
0.63186275 0.89852941 0.55802696
0.71887255 0.89500613 0.54626225
0.81427696 0.89068627 0.53228401
0.91260723 0.88333333 0.51881127
1 0.87526808 0.504519
1 0.85980392 0.48743873
0.625 1 0.59313725
0.64050245 1 0.59068627
0.675 1 0.58676471
0.73186275 1 0.58137255
0.80343137 0.99607843 0.57107843
0.88621324 0.99607843 0.56084559
0.97389706 0.99215686 0.54938725
1 0.98823529 0.53578431
1 0.98039216 0.52254902
0 0 0.31960784
0 0 0.30588235
0.05539216 0 0.29068627
0.17745098 0 0.27132353
0.3127451 0 0.24901961
0.44338235 0 0.22671569
0.56862745 0 0.20392157
0.68897059 0 0.18406863
0.80196078 0 0.16470588
0 0.06397059 0.37230392
0.00735294 0.05462623 0.36228554
0.08259804 0.04246324 0.3466299
0.20147059 0.02696078 0.32573529
0.32720588 0.01139706 0.29877451
0.44690564 0 0.27132353
0.55833333 0 0.24240196
0.67570466 0 0.22110907
0.78823529 0 0.20367647
0.03823529 0.19411765 0.42303922
0.07647059 0.18645833 0.4153799
0.13921569 0.175 0.40183824
0.25006127 0.15710784 0.38137255
0.37254902 0.12990196 0.35490196
0.48572304 0.09197304 0.32677696
0.59313725 0.04816176 0.29705882
0.69411765 0.00686275 0.26740196
0.78039216 0 0.23480392
0.03431373 0.35784314 0.48161765
0.05278799 0.35392157 0.47696078
0.16985294 0.34479167 0.4653799
0.30854779 0.3299326 0.44632353
0.43223039 0.30772059 0.42401961
0.54779412 0.27674632 0.39779412
0.65655637 0.23431373 0.37058824
0.75220588 0.1754902 0.33946078
0.82794118 0.07794118 0.3004902
0.02254902 0.52058824 0.53921569
0.10710784 0.51764706 0.53443627
0.24313725 0.51372549 0.5247549
0.36801471 0.50428922 0.50980392
0.49117647 0.49068627 0.49117647
0.60906863 0.47316176 0.46985294
0.72230392 0.44852941 0.44705882
0.82610294 0.41151961 0.42144608
0.91470588 0.34509804 0.39215686
0.19313725 0.66568627 0.58897059
0.23970588 0.66568627 0.58504902
0.32745098 0.66176471 0.57769608
0.43455882 0.65784314 0.56571691
0.54914216 0.64644608 0.55012255
0.66372549 0.63431373 0.53210784
0.7754902 0.61862745 0.51219363
0.87990196 0.59479167 0.49142157
0.97794118 0.55343137 0.46813725
0.32696078 0.79411765 0.63382353
0.35655637 0.79313725 0.63039216
0.42009804 0.79019608 0.6245098
0.50906863 0.78627451 0.61470588
0.61151961 0.78186275 0.60245098
0.71887255 0.7745098 0.58621324
0.8254902 0.7627451 0.56948529
0.92671569 0.74705882 0.55196078
1 0.72352941 0.53235294
0.45196078 0.90637255 0.67254902
0.47303922 0.90294118 0.66911765
0.51985294 0.90294118 0.66495098
0.59249387 0.89901961 0.65710784
0.68002451 0.89681373 0.64546569
0.77720588 0.89117647 0.63293505
0.87444853 0.88676471 0.61942402
0.97331495 0.8754902 0.60416667
1 0.85980392 0.58676471
0.58431373 1 0.69411765
0.59803922 1 0.69215686
0.63480392 1 0.68823529
0.69068627 1 0.68235294
0.76470588 1 0.67352941
0.84656863 1 0.6627451
0.93431373 0.99607843 0.65098039
1 0.99215686 0.63921569
1 0.98627451 0.62352941
0 0 0.42892157
0 0 0.41109069
0.02830882 0 0.39754902
0.15091912 0 0.37794118
0.28480392 0 0.35514706
0.41231618 0 0.33235294
0.53713235 0 0.31127451
0.65569853 0 0.29136029
0.76715686 0 0.27352941
0 0.04656863 0.47334559
0 0.03854167 0.46158088
0.04941789 0.02696078 0.44643076
0.17175245 0.01519608 0.42457874
0.29234069 0.00358456 0.3997549
0.40813419 0 0.37272518
0.52536765 0 0.34785539
0.64234069 0 0.3280867
0.75294118 0 0.31096814
0.01715686 0.17022059 0.5185049
0.04526654 0.1627451 0.51237745
0.10968137 0.15070466 0.49852941
0.2189185 0.1299326 0.47601103
0.33553922 0.10269608 0.45165441
0.44708946 0.06738664 0.42424939
0.55401348 0.02775735 0.39610907
0.65133272 0 0.36551777
0.74509804 0 0.33982843
0.03866422 0.33768382 0.57647059
0.05331648 0.33376225 0.57254902
0.13843444 0.32431066 0.56078431
0.27736673 0.30873928 0.54117647
0.39779412 0.28504902 0.51838235
0.51072304 0.25236673 0.49411765
0.61580882 0.20960478 0.46605392
0.70901501 0.14748775 0.43491881
0.78529412 0.04957108 0.39607843
0.00073529 0.50980392 0.63357843
0.05431985 0.50784314 0.62965686
0.20784314 0.50196078 0.61930147
0.33507966 0.49411765 0.60658701
0.45747549 0.48002451 0.5877451
0.57506127 0.46155025 0.56721814
0.68590686 0.43572304 0.5439951
0.78691789 0.39509804 0.51844363
0.87377451 0.32156863 0.48651961
0.14810049 0.66176471 0.684375
0.19313725 0.66176471 0.68137255
0.2870864 0.65784314 0.67352941
0.39944853 0.65 0.66176471
0.51446078 0.64215686 0.64653799
0.62889859 0.62947304 0.62947304
0.74031863 0.61147365 0.61017157
0.84282322 0.58694853 0.58854167
0.94117647 0.54319853 0.56372549
0.27892157 0.79313725 0.72904412
0.3111826 0.79019608 0.72732843
0.37928922 0.79019608 0.72120098
0.4716299 0.78627451 0.71187194
0.5747549 0.77843137 0.69877451
0.68336397 0.77058824 0.68350184
0.78900123 0.7625 0.66657475
0.89033395 0.746875 0.6495098
0.99276961 0.71960784 0.62990196
0.40863971 0.90637255 0.76795343
0.43057598 0.90637255 0.76636029
0.48057598 0.90294118 0.76230086
0.55452665 0.90245098 0.7544807
0.64420956 0.89852941 0.74283088
0.7401348 0.89460784 0.73019301
0.83730086 0.8872549 0.71568627
0.9346201 0.87849265 0.70112592
1 0.85980392 0.68400735
0.54509804 1 0.79362745
0.56060049 1 0.79362745
0.59754902 1 0.78970588
0.65343137 1 0.78186275
0.72598039 1 0.77401961
0.80784314 1 0.76317402
0.89509804 1 0.75159314
0.98903186 0.99607843 0.73872549
1 0.99215686 0.72303922
0 0 0.53039216
0 0 0.51090686
0.01470588 0 0.49681373
0.13370098 0 0.47757353
0.25882353 0 0.45637255
0.38333333 0 0.43517157
0.50612745 0 0.41348039
0.62316176 0 0.3939951
0.73333333 0 0.37745098
0 0.02598039 0.56531863
0 0.01911765 0.55344669
0.02447917 0.01127451 0.53795956
0.14304534 0.00343137 0.5165288
0.25747549 0 0.49289216
0.3754902 0 0.47018995
0.49583333 0 0.4486826
0.60914522 0 0.42928922
0.71801471 0 0.41237745
0.00367647 0.13504902 0.60784314
0.01862745 0.12772672 0.6
0.08259804 0.11488971 0.58492647
0.19154412 0.09537377 0.56479779
0.30098039 0.07009804 0.54129902
0.40998775 0.03697917 0.51681985
0.51446078 0.00759804 0.48927696
0.60811887 0 0.45903799
0.7127451 0 0.43946078
0.03823529 0.30833333 0.66323529
0.06178002 0.30441176 0.65833333
0.12990196 0.29316789 0.64656863
0.2504902 0.27709865 0.62904412
0.36636029 0.25196078 0.60735294
0.47389706 0.21875 0.58272059
0.57671569 0.17417279 0.55539216
0.66470588 0.1067402 0.52107843
0.73872549 0.01997549 0.48578431
0.02156863 0.49411765 0.72107843
0.05686275 0.49215686 0.71715686
0.18039216 0.48664216 0.70882353
0.30710784 0.47794118 0.69613971
0.42892157 0.46323529 0.67745098
0.54307598 0.44209559 0.65784314
0.65183824 0.41348039 0.63431373
0.74791667 0.36960784 0.60686275
0.83088235 0.28578431 0.57205882
0.11666667 0.65330882 0.77169118
0.16055453 0.65 0.76997549
0.25514706 0.64635417 0.76323529
0.3682598 0.6417739 0.75147059
0.48474265 0.63094363 0.73609069
0.59840686 0.61839767 0.71968444
0.70759804 0.59984681 0.6997549
0.80785846 0.57285539 0.67749694
0.90343137 0.52598039 0.65343137
0.24117647 0.78921569 0.81764706
0.27625613 0.78627451 0.81473652
0.34828431 0.78609069 0.80980392
0.44227941 0.78219975 0.8010723
0.54595588 0.7745098 0.7877451
0.65281863 0.76666667 0.77285539
0.75747549 0.75490196 0.75545343
0.85643382 0.73921569 0.73912377
0.96004902 0.71176471 0.71568627
0.37732843 0.90637255 0.8560049
0.39931066 0.90637255 0.85330882
0.45058211 0.90294118 0.84852941
0.52473958 0.90245098 0.84100797
0.61421569 0.89852941 0.83235294
0.70894608 0.89117647 0.81769301
0.80530025 0.88713235 0.80530025
0.90208333 0.8754902 0.78970588
1 0.85980392 0.77009804
0.51764706 1 0.88333333
0.53321078 1 0.88333333
0.56838235 1 0.87941176
0.62536765 1 0.87193627
0.69607843 1 0.86372549
0.77512255 1 0.85477941
0.85980392 1 0.84411765
0.95379902 1 0.82928922
1 0.99313725 0.8127451
0 0 0.6245098
0 0 0.60447304
0.00686275 0 0.59007353
0.11862745 0 0.57303922
0.23897059 0 0.55343137
0.35980392 0 0.53253676
0.47990196 0 0.51066176
0.59221814 0 0.4911152
0.70147059 0 0.475
0 0.00392157 0.64797794
0 0.00300245 0.63921569
0.01078431 0 0.62352941
0.11991422 0 0.60206801
0.23504902 0 0.58458946
0.35196078 0 0.56503523
0.46894914 0 0.54439338
0.58131127 0 0.52554381
0.68970588 0 0.50637255
0 0.09166667 0.68578431
0.00681679 0.08394608 0.67817096
0.06271446 0.07208946 0.66397059
0.16671262 0.05379902 0.64656863
0.27132353 0.03161765 0.62352941
0.37490809 0.01041667 0.5995098
0.47444853 0 0.57141544
0.57738971 0 0.54940257
0.68235294 0 0.53026961
0.06341912 0.26568627 0.74019608
0.08302696 0.25988817 0.73366268
0.13627451 0.25 0.72095588
0.23216912 0.23197763 0.70490196
0.3375 0.20686275 0.68529412
0.44050245 0.17108609 0.66029412
0.5363511 0.11960784 0.63039216
0.61862745 0.0536152 0.59901961
0.69393382 0 0.56372549
0.06102941 0.47034314 0.79852941
0.09041054 0.46816789 0.79460784
0.17261029 0.46078431 0.78676471
0.29175858 0.45137868 0.775
0.4067402 0.43419118 0.75539216
0.51700368 0.41194853 0.73578431
0.61948529 0.37959559 0.71176471
0.71004902 0.32821691 0.68431373
0.78578431 0.23088235 0.64558824
0.11011029 0.63560049 0.84901961
0.15410539 0.63431373 0.84754902
0.24362745 0.63039216 0.84117647
0.35294118 0.62303156 0.82941176
0.46608456 0.61332721 0.81495098
0.57617953 0.59890472 0.79803922
0.67950368 0.57910539 0.77843137
0.77477788 0.54944853 0.75833333
0.86813725 0.49852941 0.72922794
0.22990196 0.77843137 0.89558824
0.26458333 0.77843137 0.89460784
0.33428309 0.77708333 0.8877451
0.42696078 0.77155331 0.87928922
0.52775735 0.76666667 0.86721814
0.62990196 0.75863971 0.85245098
0.73033088 0.74693627 0.83676471
0.82768076 0.72745098 0.81973039
0.92647059 0.69693627 0.79754902
0.36219363 0.90294118 0.93431373
0.38523284 0.90245098 0.93382353
0.43529412 0.89901961 0.92990196
0.50882353 0.89852941 0.9220818
0.59460784 0.89503676 0.91078431
0.68543964 0.88913143 0.89928768
0.77789522 0.88331801 0.8872549
0.87194393 0.87156863 0.87156863
0.98039216 0.85196078 0.85196078
0.50196078 1 0.96911765
0.51764706 1 0.96568627
0.55196078 1 0.96519608
0.60637255 1 0.95735294
0.67254902 1 0.9495098
0.75018382 1 0.94166667
0.83235294 1 0.92990196
0.92248775 1 0.91813725
1 0.99607843 0.90245098
0 0 0.71372549
0 0 0.69019608
0.00686275 0 0.6745098
0.11078431 0 0.65882353
0.22352941 0 0.63921569
0.34264706 0 0.61960784
0.45686275 0 0.6
0.56568627 0 0.58039216
0.6745098 0 0.56078431
0 0 0.7254902
0 0 0.71715686
0.01470588 0 0.70196078
0.11617647 0 0.68596814
0.22352941 0 0.66838235
0.33872549 0 0.64920343
0.45196078 0 0.63002451
0.55741422 0 0.61127451
0.6627451 0 0.59215686
0 0.0372549 0.75196078
0.00379902 0.03333333 0.74509804
0.05686275 0.02254902 0.73235294
0.14901961 0.01078431 0.71311275
0.24264706 0 0.69313725
0.34264706 0 0.67022059
0.45196078 0 0.65098039
0.55392157 0 0.63394608
0.65882353 0 0.61568627
0.07058824 0.1995098 0.79852941
0.09871324 0.19558824 0.79460784
0.14718137 0.18382353 0.78284314
0.21911765 0.16421569 0.76715686
0.31151961 0.13284314 0.74754902
0.40484069 0.09215686 0.72101716
0.49362745 0.04705882 0.69558824
0.5754902 0.00606618 0.66519608
0.65882353 0 0.63921569
0.09411765 0.4254902 0.8627451
0.12303922 0.42181373 0.86078431
0.19264706 0.41764706 0.85294118
0.29068627 0.40269608 0.83872549
0.39411765 0.38333333 0.82156863
0.49436275 0.35539216 0.8004902
0.5872549 0.3127451 0.77598039
0.66519608 0.24852941 0.74656863
0.73333333 0.14313725 0.70588235
0.14264706 0.60686275 0.91911765
0.18155637 0.60441176 0.91519608
0.25931373 0.6004902 0.90980392
0.35539216 0.59264706 0.8995098
0.45833333 0.58088235 0.88382353
0.55980392 0.56464461 0.86813725
0.65404412 0.54166667 0.84852941
0.74313725 0.50980392 0.82843137
0.82892157 0.44754902 0.79754902
0.25686275 0.7627451 0.96862745
0.28419118 0.75931373 0.96568627
0.34509804 0.75882353 0.96102941
0.42757353 0.75490196 0.95294118
0.52058824 0.74705882 0.94166667
0.61531863 0.73590686 0.92647059
0.70784314 0.72352941 0.91372549
0.79791667 0.70355392 0.89509804
0.89509804 0.66568627 0.87156863
0.38137255 0.89117647 1
0.4004902 0.89117647 1
0.4439951 0.89117647 1
0.50882353 0.8872549 0.99656863
0.58676471 0.88333333 0.99215686
0.66862745 0.87922794 0.98088235
0.75441176 0.87156863 0.96911765
0.84454657 0.85980392 0.95686275
0.94558824 0.83627451 0.9377451
0.51764706 1 1
0.52941176 1 1
0.55980392 1 1
0.60637255 1 1
0.66470588 1 1
0.73480392 1 1
0.8127451 1 1
0.89852941 1 1
1 1 1
