Kodak Converted/Kodak Elite Color 400.cube
# Exported with LUT Lab 1.2.1
# LUTLab.com
TITLE Kodak Elite Color 400
LUT_3D_SIZE 33
0 0 0
0.00968137 0 0
0.02328431 0 0
0.04473039 0 0
0.06568627 0 0
0.08762255 0 0
0.10514706 0 0
0.12487745 0 0
0.15490196 0 0
0.17818627 0 0
0.20539216 0 0
0.22867647 0 0
0.25588235 0 0
0.28272059 0 0
0.30686275 0 0
0.34142157 0 0
0.37254902 0 0
0.40759804 0 0
0.44264706 0 0
0.48161765 0 0
0.51666667 0 0
0.54509804 0 0
0.5879902 0 0
0.62573529 0 0
0.66078431 0 0
0.69583333 0 0
0.73406863 0 0
0.76593137 0.00392157 0.00392157
0.80098039 0 0.00392157
0.83370098 0 0.00392157
0.86715686 0 0.00392157
0.89828431 0.00392157 0.00392157
0.92941176 0.00392157 0.00392157
0.0057598 0.01360294 0
0.02328431 0.00968137 0
0.04080882 0.00784314 0
0.0622549 0.0057598 0
0.0834712 0.00392157 0
0.10394072 0.00392157 0
0.12436428 0.00183824 0
0.14448529 0.00132123 0
0.1729473 0 0
0.19693627 0 0
0.21964614 0 0
0.24403722 0 0
0.2683364 0 0
0.29465763 0 0
0.32034314 0 0
0.35318627 0 0
0.38615196 0 0
0.41942019 0 0
0.45441176 0 0
0.48946078 0 0
0.5245098 0 0
0.55294118 0 0
0.59644608 0 0
0.63357843 0 0
0.66862745 0 0
0.70367647 0 0
0.73872549 0 0
0.77048483 0.00392157 0.00392157
0.80490196 0 0.00392157
0.83677619 0 0.00392157
0.86888021 0 0.00392157
0.90012255 0.00392157 0.00392157
0.93333333 0.00392157 0.00392157
0.01568627 0.02720588 0
0.03296569 0.02328431 0
0.0504902 0.02328431 0
0.06975337 0.01936275 0
0.09292279 0.01568627 0
0.11115196 0.01544118 0
0.13259804 0.01156556 0
0.15232843 0.01151961 0
0.17941176 0.00784314 0
0.20458793 0.00679381 0
0.22622549 0.00392157 0
0.25138634 0.00367647 0
0.27533701 0 0
0.30210631 0 0
0.32633272 0 0
0.36066942 0 0
0.39215686 0 0
0.42696078 0 0
0.45833333 0 0
0.49338235 0 0
0.52843137 0 0
0.55686275 0 0
0.60220588 0 0
0.63744638 0 0
0.67254902 0 0
0.70759804 0 0
0.74171262 0 0
0.77377451 0.00392157 0.00392157
0.80811887 0 0.00392157
0.83995098 0 0.00392157
0.87107843 0 0.00392157
0.90220588 0.00392157 0.00392157
0.93333333 0.00392157 0.00392157
0.02904412 0.0502451 0.00392157
0.04264706 0.04632353 0.00392157
0.05857843 0.04254749 0.00392157
0.078642 0.04080882 0.00392157
0.09914216 0.03688725 0.00392157
0.12058824 0.03296569 0.00392157
0.1417356 0.02934283 0.00392157
0.16176471 0.02794118 0.00392157
0.18844975 0.02337623 0.00392157
0.21080346 0.02120098 0.00392157
0.23406863 0.01727941 0.00392157
0.25747166 0.01335784 0.00392157
0.28187806 0.01030944 0.00392157
0.30806143 0.00928692 0.00392157
0.33300398 0.00653339 0.00392157
0.36495098 0.00384881 0.00392157
0.39767157 0 0.00392157
0.43112745 0 0.00392157
0.46384804 0 0.00392157
0.49889706 0 0.00392157
0.53394608 0 0.00304841
0.56237745 0 0
0.60404412 0 0
0.64142157 0 0
0.67647059 0 0
0.70919118 0 0
0.74264706 0 0
0.77769608 0.00392157 0.00392157
0.80882353 0 0.00392157
0.83995098 0 0.00392157
0.87107843 0 0.00392157
0.90220588 0.00392157 0.00392157
0.93333333 0 0.00392157
0.04656863 0.07401961 0.00735294
0.05651042 0.07009804 0.00735294
0.06985294 0.06960784 0.00735294
0.08757659 0.06568627 0.00735294
0.10882353 0.06182598 0.00735294
0.12683824 0.05816483 0.00735294
0.14828431 0.05441176 0.00784314
0.170481 0.05035233 0.00784314
0.19497549 0.04620098 0.00784314
0.21729473 0.04140625 0.00784314
0.24034926 0.03587623 0.00784314
0.263894 0.03088235 0.00784314
0.28854167 0.02696078 0.00784314
0.31441483 0.02303922 0.00784314
0.33973652 0.01911765 0.00784314
0.3727788 0.01174939 0.00784314
0.40392157 0.00759804 0.00784314
0.43515625 0.00392157 0.00784314
0.47009804 0.00193015 0.00784314
0.50465686 0 0.0073989
0.53970588 0 0.00735294
0.56470588 0 0.00392157
0.60980392 0 0.00392157
0.64485294 0 0.00392157
0.67990196 0 0.00343137
0.71151961 0 0
0.74656863 0 0.00073529
0.77769608 0.00392157 0.00392157
0.81268382 0 0.00392157
0.84387255 0 0.00392157
0.875 0 0.00392157
0.90612745 0.00392157 0.00392157
0.9372549 0 0.00392157
0.06409314 0.09681373 0.01311275
0.07193627 0.09546569 0.01311275
0.0821921 0.09162837 0.01311275
0.09705882 0.08897059 0.01311275
0.11683517 0.08504902 0.01311275
0.13514476 0.08112745 0.01311275
0.15722273 0.07768842 0.01311275
0.17682675 0.07513404 0.01311275
0.20229779 0.06936275 0.01568627
0.22438725 0.06409314 0.01568627
0.24583333 0.06017157 0.01568627
0.26902956 0.05584789 0.01568627
0.29509804 0.04891238 0.01407782
0.31960401 0.04424403 0.01568627
0.3466682 0.03835784 0.01568627
0.3780216 0.02879902 0.01568627
0.41047794 0.02095588 0.01311275
0.44289216 0.01703431 0.01311275
0.47477788 0.01063879 0.01423866
0.50906863 0.00404795 0.01311275
0.54411765 0 0.01176471
0.56997549 0 0.01176471
0.61164216 0 0.00919118
0.64669118 0 0.00813802
0.68039216 0 0.00784314
0.71544118 0 0.0043007
0.7504902 0 0.00392157
0.78161765 0.00392157 0.00392157
0.8127451 0 0.00392157
0.84546569 0 0.00392157
0.87626379 0.0002451 0.00392157
0.90612745 0.00392157 0.00392157
0.9372549 0.00392157 0.00392157
0.08161765 0.12401961 0.01960784
0.08946078 0.12083333 0.01960784
0.09730392 0.12009804 0.01960784
0.11066176 0.11661305 0.01960784
0.12426471 0.1129902 0.01960784
0.14361979 0.11115962 0.01960784
0.16655944 0.10574449 0.01960784
0.18349418 0.10351562 0.02279412
0.20925245 0.09675245 0.02279412
0.2314951 0.09264706 0.02279412
0.25344669 0.08653493 0.02279412
0.2756204 0.08088235 0.02352941
0.30248162 0.07496936 0.02279412
0.32911305 0.06911765 0.02279412
0.35350797 0.0629902 0.02279412
0.38455882 0.0533318 0.02279412
0.41727941 0.0439951 0.02279412
0.45 0.03465839 0.02279412
0.48186275 0.02671569 0.02140012
0.51617647 0.01887255 0.01960784
0.54803922 0.00983456 0.01960784
0.57647059 0.00392157 0.01887255
0.61813725 0 0.01568627
0.65245098 0 0.01511183
0.68431373 0 0.01176471
0.71936275 0 0.01123621
0.75307904 0 0.00784314
0.78553922 0.00134804 0.00501685
0.81666667 0 0.00392157
0.84779412 0 0.00392157
0.87892157 0.0002451 0.00392157
0.91004902 0.00392157 0.00392157
0.94117647 0.00392157 0.00392157
0.09632353 0.14448529 0.02463235
0.10468367 0.14448529 0.02745098
0.1120098 0.14056373 0.02745098
0.12144608 0.14056373 0.02855392
0.13408395 0.13664216 0.02855392
0.15147059 0.13272059 0.02855392
0.17291667 0.12879902 0.02855392
0.19154412 0.12567019 0.02855392
0.21580882 0.12095588 0.02855392
0.2372549 0.11641774 0.02855392
0.25870098 0.10953585 0.02855392
0.28406863 0.1048292 0.02855392
0.30796569 0.09742647 0.02855392
0.33480392 0.09058287 0.02855392
0.36066176 0.08345588 0.02855392
0.39347044 0.07389706 0.02855392
0.42463235 0.06605392 0.02855392
0.4557598 0.05441176 0.02855392
0.48688725 0.04473039 0.02745098
0.52193627 0.03494562 0.02463235
0.55482537 0.02426471 0.02463235
0.5814951 0.01397059 0.02352941
0.62316176 0.00806526 0.02071078
0.65710784 0.00110294 0.02071078
0.68933824 0 0.01678922
0.72328431 0 0.01568627
0.75551471 0 0.01266085
0.78761106 0 0.00894608
0.82058824 0 0.00502451
0.85171569 0 0.00392157
0.88266697 0.0002451 0.00392157
0.91115196 0.00392157 0.00392157
0.94117647 0.00392157 0.00392157
0.12058824 0.1754902 0.03529412
0.12791054 0.1745098 0.03529412
0.13235294 0.17156863 0.03529412
0.14178922 0.17117034 0.03823529
0.15147059 0.16764706 0.03823529
0.16507353 0.16565564 0.03823529
0.18357843 0.1627451 0.03823529
0.19911152 0.15952819 0.03823529
0.22254902 0.15490196 0.03823529
0.24463848 0.15033701 0.03823529
0.26838235 0.14344363 0.03823529
0.29126838 0.13875613 0.03823529
0.31801471 0.1317402 0.03823529
0.34457721 0.12441789 0.03823529
0.37034314 0.11740196 0.03823529
0.40309436 0.10775123 0.03823529
0.43284314 0.09852941 0.03823529
0.46544118 0.08826593 0.03823529
0.49754902 0.07573529 0.03529412
0.52895221 0.06479779 0.03440564
0.56372549 0.05183824 0.03321078
0.59117647 0.04117647 0.03137255
0.62990196 0.0252451 0.02745098
0.66397059 0.01556373 0.02745098
0.69607843 0.00612745 0.02573529
0.72803309 0 0.02282475
0.76072304 0 0.01960784
0.79338235 0 0.01568627
0.82438725 0 0.01176471
0.85563725 0 0.00784314
0.88560049 0.00392157 0.00392157
0.91534926 0.00392157 0.00392157
0.94509804 0.00098039 0.00392157
0.13811275 0.20171569 0.04313725
0.14347044 0.20085784 0.04313725
0.14982384 0.20085784 0.0439951
0.15772059 0.19779412 0.0439951
0.1689951 0.19693627 0.0439951
0.18068704 0.19357767 0.04705882
0.19285386 0.18995098 0.04705882
0.21004902 0.18823146 0.04705882
0.23125 0.18287377 0.04705882
0.25336627 0.18057981 0.04705882
0.27624847 0.17426471 0.04705882
0.29998851 0.16973039 0.04705882
0.32679228 0.1636489 0.04705882
0.35367647 0.15743336 0.04705882
0.3796492 0.14852941 0.04705882
0.4120098 0.13897059 0.0439951
0.44160539 0.13069853 0.0439951
0.47426471 0.11948529 0.0439951
0.50587469 0.10588235 0.04313725
0.53766468 0.09505591 0.04313725
0.57156863 0.07982537 0.04007353
0.6 0.06838235 0.03921569
0.63833487 0.05147059 0.03615196
0.67040058 0.03767999 0.03529412
0.70392157 0.02340686 0.03137255
0.73504902 0.00980392 0.02830882
0.76617647 0.00461857 0.02687653
0.79730392 0 0.02151884
0.82843137 0 0.01654412
0.85955882 0 0.0121132
0.88756893 0.00392157 0.00784314
0.91789216 0.00392157 0.00392157
0.94901961 0 0.00392157
0.14387255 0.22892157 0.05367647
0.14901961 0.22892157 0.05367647
0.15661765 0.22622549 0.05367647
0.16470588 0.225 0.05367647
0.17598039 0.22264093 0.05367647
0.18566176 0.22107843 0.05367647
0.20318627 0.21838235 0.05367647
0.21865043 0.21639859 0.05367647
0.24185049 0.21323529 0.05367647
0.26264553 0.20931373 0.05490196
0.28690257 0.20539216 0.05490196
0.31083793 0.19858303 0.05490196
0.3370098 0.19408701 0.05490196
0.36396293 0.18933824 0.05490196
0.38970588 0.1823989 0.05490196
0.42246477 0.17389706 0.05367647
0.45098039 0.16421569 0.05367647
0.48210784 0.15441176 0.05106464
0.51475184 0.14093137 0.05098039
0.54717371 0.12732843 0.0497549
0.57941176 0.11372549 0.04705882
0.60661765 0.10343137 0.04705882
0.64558824 0.08259804 0.04313725
0.67941176 0.0689951 0.04191176
0.71053922 0.05147059 0.03921569
0.74201134 0.03394608 0.03529412
0.77279412 0.01764706 0.03356311
0.80215227 0.00661765 0.02837776
0.83235294 0 0.02352941
0.86348039 0 0.01888021
0.89321385 0.00392157 0.01176471
0.92181373 0.00392157 0.00784314
0.95294118 0 0.00392157
0.14901961 0.25612745 0.0627451
0.15510493 0.25612745 0.0627451
0.16135876 0.25551471 0.0627451
0.17058441 0.25220588 0.0627451
0.18092831 0.25220588 0.0627451
0.19803922 0.24828431 0.0627451
0.21495098 0.24778646 0.0627451
0.2298292 0.24436275 0.0627451
0.25309436 0.24044118 0.0627451
0.27278263 0.23651961 0.0627451
0.29723499 0.23363205 0.0627451
0.32227711 0.22867647 0.0627451
0.34669118 0.2247549 0.0627451
0.37383961 0.21991039 0.0627451
0.39938725 0.21264553 0.05943627
0.43151425 0.20512791 0.05943627
0.46109069 0.19699755 0.05943627
0.49387255 0.18566176 0.05943627
0.525 0.17598039 0.05882353
0.5567402 0.16593137 0.05882353
0.58993566 0.15062806 0.05528493
0.61629902 0.13848039 0.05490196
0.65404412 0.1182598 0.05140165
0.68589537 0.1014591 0.04767157
0.71878064 0.08259804 0.04705882
0.74835708 0.06507353 0.04313725
0.77855392 0.04631587 0.03921569
0.80927926 0.0254902 0.03529412
0.83978248 0.00796569 0.03095895
0.86765089 0 0.02548637
0.89828431 0.00392157 0.01940104
0.92573529 0.00359605 0.01205193
0.95686275 0 0.00784314
0.15931373 0.2872549 0.06911765
0.16585478 0.2872549 0.06911765
0.17107843 0.28480392 0.06911765
0.18138787 0.28333333 0.06911765
0.19411765 0.28333333 0.07040441
0.20868566 0.27941176 0.07058824
0.2252451 0.27941176 0.07058824
0.24036458 0.2754902 0.07058824
0.26421569 0.27193627 0.07058824
0.28566176 0.26764706 0.07058824
0.30811887 0.26418505 0.07058824
0.33270527 0.25980392 0.07058824
0.35876225 0.25588235 0.07058824
0.38491115 0.25159314 0.06911765
0.40989583 0.24583333 0.06911765
0.44191176 0.23627451 0.06904105
0.47181373 0.22916667 0.06666667
0.50179228 0.22063419 0.06524203
0.53422181 0.21102941 0.06519608
0.56642157 0.20098039 0.0627451
0.59901961 0.1877451 0.0627451
0.62598039 0.17745098 0.06127451
0.66372549 0.15906863 0.05882353
0.69517463 0.14154412 0.05543811
0.72708333 0.12156863 0.05343137
0.75710784 0.10012255 0.04992341
0.78777574 0.07867647 0.04558824
0.81691176 0.05465686 0.04166667
0.84626225 0.03186275 0.03529412
0.87437194 0.01188725 0.03137255
0.90235907 0.00392157 0.02582721
0.93080576 0 0.01683517
0.96078431 0 0.01176471
0.17291667 0.31838235 0.07487745
0.17850414 0.31838235 0.07487745
0.18468137 0.31838235 0.07487745
0.19411765 0.31838235 0.07487745
0.2073989 0.31446078 0.07487745
0.22119715 0.31446078 0.07487745
0.23848039 0.31053922 0.07487745
0.25328968 0.31053922 0.07487745
0.2765625 0.30661765 0.07487745
0.29897748 0.30269608 0.07487745
0.32071078 0.29877451 0.07487745
0.34607843 0.29485294 0.07487745
0.37130821 0.29093137 0.07487745
0.39714691 0.28308824 0.07487745
0.42230392 0.27932751 0.07487745
0.45159314 0.27132353 0.07487745
0.48272059 0.26348039 0.0745098
0.51384804 0.25563725 0.0745098
0.54497549 0.24607843 0.07095588
0.57610294 0.23606388 0.07058824
0.60945159 0.22426471 0.06703431
0.63529412 0.21286765 0.06666667
0.67303922 0.1995098 0.06555607
0.70424709 0.18235294 0.0627451
0.73529412 0.16473652 0.05909926
0.76642157 0.14338235 0.05626915
0.79392616 0.12090227 0.05127911
0.8247549 0.09386872 0.0471852
0.85228248 0.06723346 0.04269301
0.88097809 0.04154412 0.03544347
0.90671722 0.01615349 0.03115043
0.93561198 0.00392157 0.02352941
0.96470588 0.00392157 0.01568627
0.18480392 0.35 0.08235294
0.19147518 0.35 0.08235294
0.19817708 0.35 0.08235294
0.20702359 0.35 0.08235294
0.21960784 0.34607843 0.08235294
0.23321078 0.34607843 0.08235294
0.24852941 0.34257047 0.08235294
0.26544118 0.34215686 0.08235294
0.2875 0.33823529 0.08235294
0.30942862 0.33431373 0.08455882
0.33259804 0.33259804 0.08455882
0.35610447 0.3283318 0.08235294
0.38112745 0.32337623 0.08063725
0.40686275 0.31846661 0.08063725
0.43235294 0.3125 0.08063725
0.46341146 0.30507812 0.08063725
0.4935049 0.29816176 0.07843137
0.52352941 0.2895144 0.07843137
0.55465686 0.28065257 0.07671569
0.58599112 0.27001379 0.07671569
0.61829044 0.25916054 0.07279412
0.64534314 0.2502451 0.07279412
0.68186275 0.23386949 0.06887255
0.71115196 0.21973039 0.06666667
0.74142157 0.20220588 0.06439951
0.77254902 0.18468137 0.06151195
0.80294118 0.1629136 0.05710784
0.83088235 0.1375 0.05318627
0.85808824 0.11029412 0.04684436
0.88688725 0.07928922 0.04142157
0.91410846 0.04754902 0.03518689
0.94154412 0.01733303 0.02745098
0.97083333 0.00392157 0.01960784
0.20404412 0.38848039 0.09019608
0.20980392 0.38848039 0.09019608
0.21580882 0.38848039 0.09019608
0.2252451 0.38848039 0.09019608
0.23541667 0.38848039 0.09019608
0.25102252 0.38455882 0.09019608
0.26605392 0.38455882 0.09019608
0.2807598 0.38345588 0.09019608
0.30502451 0.38063725 0.09019608
0.32647059 0.37671569 0.09019608
0.34791667 0.37283241 0.09019608
0.36997549 0.36897595 0.08639706
0.39473039 0.36499694 0.08639706
0.4204542 0.36102941 0.08639706
0.44590227 0.35716146 0.08627451
0.47487745 0.34926471 0.08627451
0.5060049 0.34344363 0.08627451
0.53713235 0.3338197 0.08259421
0.56820619 0.32580423 0.08242187
0.59938725 0.31790365 0.08235294
0.63046875 0.30620404 0.07843137
0.65502451 0.29828431 0.07843137
0.69273131 0.28141085 0.0745098
0.72377451 0.26786535 0.0745098
0.75110294 0.2513174 0.07058824
0.78214231 0.23664216 0.06666667
0.80943627 0.21531863 0.0627451
0.84044118 0.19387255 0.05882353
0.86764706 0.16801471 0.05442708
0.89490273 0.1353439 0.04710861
0.92217371 0.09791667 0.03933058
0.94932215 0.06280254 0.03321078
0.97659314 0.02377451 0.02352941
0.2254902 0.42745098 0.09411765
0.22941176 0.42745098 0.09411765
0.2370098 0.42561275 0.09411765
0.24509804 0.42352941 0.09411765
0.25637255 0.42352941 0.09411765
0.26997549 0.42352941 0.09411765
0.28357843 0.41997549 0.09411765
0.29828431 0.41960784 0.09411765
0.32254902 0.41617647 0.09411765
0.34050245 0.41568627 0.09411765
0.36151961 0.41176471 0.09411765
0.38523284 0.40784314 0.09411765
0.40833333 0.40465686 0.09411765
0.43406863 0.4 0.09197304
0.45955882 0.39693627 0.09019608
0.48848039 0.3901348 0.09019608
0.51960784 0.38431373 0.09019608
0.54883578 0.37653186 0.08823529
0.57904412 0.36973039 0.08627451
0.61102941 0.36096814 0.08627451
0.64019608 0.3502451 0.08235294
0.66470588 0.34313725 0.08235294
0.70183824 0.32818627 0.07977941
0.73161765 0.31415441 0.07689951
0.76029412 0.29901961 0.0745098
0.78995098 0.2814951 0.07058824
0.81875 0.26397059 0.06666667
0.84699755 0.24252451 0.0627451
0.8752451 0.22058824 0.05661765
0.90269608 0.19178922 0.05098039
0.92977941 0.15821078 0.04497549
0.95710784 0.11636029 0.03713235
0.98431373 0.07254902 0.02745098
0.24693627 0.4625 0.09803922
0.25085784 0.4625 0.09803922
0.25845588 0.4625 0.09803922
0.26647135 0.4625 0.09803922
0.27781863 0.46239277 0.09803922
0.28999311 0.45857843 0.09803922
0.30502451 0.45857843 0.09803922
0.31853937 0.45854396 0.09803922
0.33909314 0.45465686 0.09803922
0.35759804 0.45370328 0.09803922
0.37904412 0.45073529 0.09803922
0.4004902 0.44681373 0.09803922
0.42201287 0.44289216 0.09803922
0.44767157 0.43897059 0.09802773
0.47316176 0.43671109 0.09577972
0.50220205 0.43112362 0.09411765
0.53321078 0.42518382 0.09411765
0.56065794 0.41924403 0.0939951
0.59154412 0.41146599 0.09019608
0.62267157 0.40367647 0.09019608
0.65237439 0.39436275 0.0886489
0.6745098 0.38786765 0.08627451
0.71094516 0.37491575 0.08235294
0.73946078 0.36137025 0.08223039
0.76951593 0.34770221 0.07843137
0.79770604 0.33406863 0.0745098
0.825 0.31272212 0.07056526
0.8535118 0.29509804 0.06666667
0.88273591 0.26973039 0.06214767
0.90821078 0.24595588 0.05490196
0.93738511 0.21482843 0.04705882
0.96488588 0.17763863 0.04105392
0.99215686 0.12904412 0.03137255
0.27009804 0.50147059 0.10196078
0.27622549 0.50147059 0.10196078
0.28014706 0.50147059 0.10196078
0.2879902 0.50057445 0.10196078
0.29733456 0.49754902 0.10196078
0.30894608 0.49754902 0.10196078
0.32254902 0.49754902 0.10196078
0.33615196 0.4948606 0.10196078
0.35367647 0.49362745 0.10196078
0.37378217 0.49104626 0.10196078
0.39264706 0.48970588 0.10196078
0.41443781 0.48578431 0.10196078
0.4388174 0.48250613 0.10196078
0.46482843 0.47794118 0.09803922
0.48676471 0.47573529 0.09803922
0.51782322 0.47009804 0.09803922
0.54681373 0.46507353 0.09803922
0.57414216 0.45838695 0.09583333
0.60439645 0.45344669 0.09411765
0.63255974 0.44656863 0.09411765
0.66283701 0.43789828 0.09019608
0.68627451 0.43088235 0.09019608
0.7194087 0.41960784 0.08627451
0.74767923 0.40821078 0.08627451
0.77579657 0.39632353 0.08235294
0.80405178 0.38272059 0.07843137
0.83242953 0.36519608 0.0745098
0.86063879 0.34767157 0.07058824
0.8872549 0.32573529 0.06617647
0.91515778 0.29852941 0.05882353
0.94327512 0.26925551 0.05258885
0.97162224 0.23627451 0.04394148
0.99607843 0.19338235 0.03529412
0.29375 0.53651961 0.10551471
0.29767157 0.53651961 0.10551471
0.30159314 0.53651961 0.10551471
0.30943627 0.53651961 0.10551471
0.31727941 0.53651961 0.10551471
0.32904412 0.53651961 0.10551471
0.34073989 0.5332644 0.10551471
0.35367647 0.53259804 0.10551471
0.37120098 0.53259804 0.10551471
0.38872549 0.52867647 0.10551471
0.41017157 0.52842371 0.10196078
0.43161765 0.5247549 0.10196078
0.4532935 0.52083333 0.10196078
0.47879902 0.51691176 0.10196078
0.50428922 0.51470588 0.10196078
0.53309972 0.50906863 0.10196078
0.56041667 0.50514706 0.10159314
0.5877451 0.50086933 0.09803922
0.61703431 0.49338235 0.09803922
0.64595588 0.4858724 0.09803922
0.67316176 0.47991728 0.09411765
0.69411765 0.47377451 0.09411765
0.72782629 0.46189491 0.09019608
0.75592448 0.45387944 0.08705193
0.78501838 0.44114583 0.08529412
0.81066176 0.42781863 0.08208869
0.83965227 0.41384804 0.07806373
0.86765089 0.39632353 0.07426854
0.89428615 0.37879902 0.06666667
0.92208563 0.35343137 0.0627451
0.94948683 0.32745098 0.05490196
0.97671569 0.29276961 0.04872472
1 0.25343137 0.03921569
0.31666667 0.5754902 0.10588235
0.31980699 0.5754902 0.10588235
0.32441789 0.5754902 0.10588235
0.33147978 0.5754902 0.10588235
0.33872549 0.5754902 0.10588235
0.34888174 0.57156863 0.10588235
0.36151961 0.57156863 0.10588235
0.37230392 0.57156863 0.10588235
0.39264706 0.56801471 0.10588235
0.41017157 0.56764706 0.10588235
0.42769608 0.56596201 0.10588235
0.44914216 0.56372549 0.10588235
0.47150735 0.55980392 0.10588235
0.49595588 0.55721507 0.10588235
0.51789216 0.55450368 0.10588235
0.54681373 0.54946385 0.10196078
0.57401961 0.54485294 0.10196078
0.60130208 0.54024203 0.10196078
0.62843137 0.53520221 0.0995098
0.65586703 0.52856924 0.09803922
0.68284314 0.52359069 0.09803922
0.70588235 0.51666667 0.09411765
0.73679534 0.50591299 0.09411765
0.76499694 0.49738051 0.09019608
0.79129902 0.48639706 0.08627451
0.81781556 0.47568934 0.08345588
0.84460784 0.4625 0.07962623
0.87231924 0.44497549 0.07585784
0.89901961 0.42745098 0.07058824
0.92682292 0.40759804 0.0652114
0.95343137 0.38431373 0.05857843
0.98247549 0.35073529 0.05098039
1 0.31421569 0.03921569
0.3372549 0.60392157 0.10588235
0.34117647 0.60392157 0.10588235
0.34509804 0.60392157 0.10588235
0.34901961 0.60392157 0.10588235
0.35686275 0.60392157 0.10980392
0.36862745 0.60392157 0.10588235
0.37965686 0.6 0.10588235
0.39044118 0.6 0.10588235
0.40686275 0.6 0.10588235
0.42438725 0.59607843 0.10588235
0.44460784 0.59607843 0.10588235
0.46335784 0.59215686 0.10588235
0.4872549 0.59215686 0.10588235
0.51017157 0.58823529 0.10588235
0.53210784 0.58602941 0.10588235
0.56090686 0.58039216 0.10588235
0.58627451 0.57647059 0.10196078
0.61164216 0.57267157 0.10196078
0.63872549 0.56862745 0.10196078
0.66593137 0.56470588 0.09803922
0.69166667 0.55686275 0.09803922
0.71372549 0.55294118 0.09803922
0.74362745 0.54117647 0.09411765
0.77083333 0.53419118 0.09105392
0.79705882 0.5245098 0.08921569
0.82242647 0.51372549 0.08627451
0.85171569 0.50122549 0.08235294
0.87708333 0.48627451 0.07585784
0.90294118 0.47009804 0.07401961
0.93014706 0.44865196 0.06666667
0.95735294 0.42696078 0.05882353
0.98639706 0.3997549 0.05098039
1 0.36470588 0.04313725
0.36715686 0.64558824 0.10588235
0.37107843 0.64558824 0.10588235
0.37492341 0.64558824 0.10588235
0.38001685 0.64558824 0.10588235
0.38661152 0.64558824 0.10588235
0.39553462 0.64558824 0.10588235
0.40833333 0.64558824 0.10588235
0.41835938 0.64166667 0.10588235
0.43553922 0.64166667 0.10588235
0.45306373 0.64166667 0.10588235
0.47058824 0.6377451 0.10588235
0.4897595 0.6377451 0.10588235
0.51032475 0.63382353 0.10511642
0.53492647 0.63357077 0.10465686
0.55465686 0.62990196 0.10196078
0.5817402 0.62598039 0.10196078
0.60514706 0.62267157 0.10196078
0.62855392 0.619447 0.10196078
0.65392157 0.61490502 0.10196078
0.67917433 0.61040901 0.09803922
0.70389093 0.60637255 0.09803922
0.7254902 0.60245098 0.09681373
0.75454963 0.59376532 0.09411765
0.78049173 0.58465839 0.09105392
0.80520833 0.57794118 0.08988971
0.83115043 0.56750153 0.08627451
0.85637255 0.55588235 0.08235294
0.88357843 0.54227941 0.07762714
0.91029412 0.52867647 0.07058824
0.9363894 0.51115196 0.06666667
0.96495098 0.48970588 0.05882353
0.99031863 0.46433824 0.05098039
1 0.43235294 0.04313725
0.39828431 0.68063725 0.10196078
0.39914216 0.68063725 0.10196078
0.40301011 0.68063725 0.10196078
0.40822993 0.68063725 0.10196078
0.4147212 0.68063725 0.10196078
0.42372472 0.68063725 0.10196078
0.43427543 0.67671569 0.10196078
0.44424403 0.67671569 0.10196078
0.46090686 0.67671569 0.10196078
0.47757353 0.67671569 0.10196078
0.49509804 0.67279412 0.10196078
0.51348039 0.67279412 0.10196078
0.53291973 0.67034314 0.10196078
0.5527382 0.66887255 0.10196078
0.57390472 0.66666667 0.10196078
0.59926471 0.66492417 0.10196078
0.62071078 0.66102941 0.10042892
0.6429879 0.65710784 0.09889706
0.66752451 0.65318627 0.09803922
0.68974801 0.64926471 0.09803922
0.71465993 0.64534314 0.09411765
0.73333333 0.64142157 0.09411765
0.76296722 0.63357843 0.09316023
0.7871898 0.62898667 0.09019608
0.81210172 0.62018995 0.08627451
0.83787148 0.61091069 0.08407246
0.86278339 0.60204504 0.07912837
0.88855316 0.59093137 0.0745098
0.91421569 0.57732843 0.07058824
0.93958333 0.56015242 0.06484758
0.96806832 0.54227941 0.05882353
0.9942402 0.51875 0.05098039
1 0.49068627 0.04313725
0.42941176 0.71470588 0.09803922
0.42941176 0.71470588 0.09803922
0.43333333 0.71176471 0.09803922
