Kodak Converted/Kodak Kodachrome 64 Generic.cube
# Exported with LUT Lab 1.2.1
# LUTLab.com
TITLE Kodak Kodachrome 64 Generic
LUT_3D_SIZE 5
0 0 0
0.17058824 0 0
0.52745098 0 0
0.9 0.00392157 0
1 0.00784314 0
0.05 0.15196078 0.01470588
0.15882353 0.15882353 0.01568627
0.52745098 0.17058824 0.01960784
0.88921569 0.18235294 0.02671569
1 0.19019608 0.03137255
0 0.48823529 0.0627451
0.04656863 0.49215686 0.0627451
0.50784314 0.50196078 0.06764706
0.85686275 0.51176471 0.0745098
1 0.51960784 0.0745098
0 0.79313725 0.05490196
0 0.79411765 0.05392157
0.48431373 0.80196078 0.05490196
0.80980392 0.80980392 0.05098039
0.99607843 0.81666667 0.05
0 1 0.03529412
0.13235294 1 0.03921569
0.52941176 1 0.04705882
0.78921569 1 0.05882353
1 1 0.06666667
0 0 0.14019608
0.17058824 0 0.14411765
0.52745098 0 0.15196078
0.9 0.00392157 0.15882353
1 0.00784314 0.16372549
0.04705882 0.15098039 0.15882353
0.1627451 0.15490196 0.1620098
0.52745098 0.16666667 0.16740196
0.88921569 0.17941176 0.1745098
1 0.1872549 0.17916667
0 0.48627451 0.17843137
0.05637255 0.49019608 0.18235294
0.51078431 0.5 0.18627451
0.85686275 0.50980392 0.19252451
1 0.51568627 0.19754902
0 0.79019608 0.20098039
0 0.79411765 0.20122549
0.48468137 0.80098039 0.20514706
0.8127451 0.80882353 0.21053922
0.99607843 0.81372549 0.21372549
0 0.99705882 0.24803922
0.14338235 1 0.24877451
0.52941176 1 0.25245098
0.79019608 1 0.25686275
1 1 0.26372549
0 0 0.46078431
0.17058824 0 0.46470588
0.52745098 0 0.47058824
0.90098039 0 0.47843137
1 0.00392157 0.48235294
0.05 0.14313725 0.47843137
0.1627451 0.14705882 0.47990196
0.52745098 0.15882353 0.48627451
0.89215686 0.17156863 0.49362745
1 0.17941176 0.49754902
0 0.47941176 0.50588235
0.07426471 0.48406863 0.50882353
0.5127451 0.49215686 0.51372549
0.85882353 0.50392157 0.51862745
1 0.50980392 0.52254902
0 0.78529412 0.53578431
0 0.78627451 0.5372549
0.49019608 0.79411765 0.54117647
0.81372549 0.80196078 0.54509804
0.99901961 0.80882353 0.54754902
0 0.99215686 0.56470588
0.16470588 0.99607843 0.56470588
0.53333333 1 0.56862745
0.79019608 1 0.57254902
1 1 0.57647059
0 0 0.74313725
0.17058824 0 0.74681373
0.52941176 0 0.75245098
0.90098039 0 0.75882353
1 0 0.7627451
0.05 0.13529412 0.75882353
0.16666667 0.13995098 0.76102941
0.52941176 0.15183824 0.76666667
0.89215686 0.16666667 0.77352941
1 0.1745098 0.77745098
0 0.47254902 0.78382353
0.08823529 0.47647059 0.78578431
0.51568627 0.48627451 0.79019608
0.86078431 0.49803922 0.79705882
1 0.50392157 0.7995098
0 0.77843137 0.80882353
0 0.78235294 0.80980392
0.49607843 0.78921569 0.81335784
0.81764706 0.79785539 0.81764706
1 0.80196078 0.82058824
0 0.98823529 0.82843137
0.18529412 0.98823529 0.82941176
0.5372549 0.99362745 0.83235294
0.79313725 1 0.83627451
1 1 0.8372549
0 0 0.90588235
0.17058824 0 0.90980392
0.52941176 0 0.91372549
0.90098039 0 0.92156863
1 0 0.9254902
0.05 0.13137255 0.92156863
0.16764706 0.13529412 0.92156863
0.52941176 0.14754902 0.92941176
0.89215686 0.1627451 0.93333333
1 0.17058824 0.9372549
0 0.46862745 0.94509804
0.0995098 0.47401961 0.94901961
0.51764706 0.48235294 0.95294118
0.86078431 0.49411765 0.95686275
1 0.5 0.96078431
0 0.7745098 0.97254902
0.00220588 0.77843137 0.97254902
0.49803922 0.78627451 0.97647059
0.81985294 0.79411765 0.98039216
1 0.79803922 0.98431373
0 0.98431373 0.99215686
0.19607843 0.98431373 0.99215686
0.54117647 0.99215686 0.99607843
0.79411765 0.99607843 1
1 1 1
