Kodak Converted/Kodak Kodachrome 64 Generic.cube
# Exported with LUT Lab 1.2.1
# LUTLab.com
TITLE Kodak Kodachrome 64 Generic
LUT_3D_SIZE 33
0 0 0
0.00968137 0 0
0.02720588 0 0
0.04865196 0 0
0.07009804 0 0
0.09546569 0 0
0.11617647 0 0
0.13664216 0 0
0.17058824 0 0
0.20171569 0 0
0.23946078 0 0
0.28357843 0 0
0.33284314 0 0
0.38933824 0 0
0.43455882 0 0
0.48272059 0 0
0.52745098 0 0
0.57610294 0 0
0.62867647 0 0
0.67732843 0 0
0.72598039 0.00147059 0
0.76078431 0.00392157 0
0.81544118 0.00392157 0
0.86017157 0.00392157 0
0.9 0.00392157 0
0.94178922 0.00392157 0
0.97794118 0.00784314 0
1 0.00784314 0
1 0.00784314 0
1 0.00784314 0
1 0.00784314 0
1 0.00784314 0
1 0.00784314 0
0 0.00968137 0
0.00968137 0.00968137 0
0.02328431 0.00968137 0
0.04240196 0.00968137 0
0.06617647 0.00968137 0
0.08762255 0.00968137 0
0.10906863 0.00968137 0
0.13272059 0.01176471 0
0.16528799 0.01176471 0
0.19779412 0.01360294 0
0.23427543 0.01360294 0
0.27965686 0.01392846 0
0.32892157 0.01752451 0
0.38541667 0.01752451 0
0.42983303 0.01752451 0
0.47879902 0.02144608 0
0.52352941 0.02144608 0
0.57218137 0.02144608 0
0.6247549 0.02536765 0
0.67340686 0.02536765 0
0.72136949 0.02536765 0
0.75686275 0.02928922 0
0.81151961 0.02928922 0
0.85318627 0.03275506 0
0.89607843 0.03321078 0
0.93504902 0.03453202 0
0.97401961 0.03713235 0
1 0.03713235 0.00320542
1 0.03897059 0.00392157
1 0.04105392 0.00392157
1 0.04105392 0.00392157
1 0.04105392 0.00392157
1 0.04105392 0.00392157
0.00392157 0.01960784 0
0.01176471 0.01960784 0
0.02328431 0.02328431 0
0.04080882 0.02328431 0
0.0622549 0.02328431 0
0.08520987 0.02328431 0
0.10906863 0.02328431 0
0.13272059 0.02335325 0
0.1627451 0.02352941 0
0.19779412 0.02720588 0
0.23284314 0.02720588 0
0.27634804 0.03112745 0
0.32892157 0.03112745 0
0.38541667 0.03112745 0
0.42892157 0.03504902 0
0.47867647 0.03504902 0
0.52352941 0.03897059 0
0.57218137 0.03897059 0
0.62083333 0.04289216 0
0.67340686 0.04289216 0
0.71829044 0.04436275 0
0.75686275 0.04681373 0
0.81029412 0.0504902 0.00367647
0.85318627 0.05073529 0.00386795
0.89607843 0.05465686 0.00392157
0.93504902 0.05465686 0.00392157
0.97401961 0.05465686 0.00392157
1 0.05857843 0.00392157
1 0.05857843 0.00392157
1 0.05857843 0.00392157
1 0.0625 0.00392157
1 0.0625 0.00392157
1 0.0625 0.00392157
0.00784314 0.03688725 0
0.01568627 0.03688725 0
0.02352941 0.03848039 0
0.04080882 0.04080882 0
0.0622549 0.04080882 0
0.08370098 0.04080882 0
0.10703891 0.04080882 0
0.12879902 0.04080882 0
0.1627451 0.04473039 0
0.19387255 0.04473039 0
0.23284314 0.04473039 0
0.27769225 0.04865196 0
0.32892157 0.04964767 0
0.38541667 0.05257353 0
0.42892157 0.05257353 0.00089614
0.47867647 0.0564951 0.00384881
0.52156863 0.0564951 0.00392157
0.57218137 0.05803845 0.00392157
0.62083333 0.06041667 0.00392157
0.66985294 0.06186045 0.00392157
0.71813725 0.06433824 0.00392157
0.75686275 0.06593137 0.00392157
0.80759804 0.0682598 0.00392157
0.85232843 0.0682598 0.00392157
0.89313725 0.07218137 0.00392157
0.93394608 0.07218137 0.00392157
0.97053462 0.07610294 0.00392157
0.99865196 0.07610294 0.00392157
1 0.07610294 0.00551471
1 0.08002451 0.00551471
1 0.08002451 0.00551471
1 0.08002451 0.00784314
1 0.08002451 0.00784314
0.01176471 0.05833333 0
0.0212163 0.05833333 0
0.03066789 0.05833333 0
0.04453125 0.05833333 0
0.06176471 0.05833333 0
0.07994792 0.0622549 0
0.10514706 0.0622549 0
0.12879902 0.0622549 0.00096507
0.1627451 0.0622549 0.00343137
0.19387255 0.06300551 0.00343137
0.23520221 0.06617647 0.00392157
0.28026961 0.06678922 0.00392157
0.33284314 0.07009804 0.00392157
0.38541667 0.07009804 0.00392157
0.42892157 0.07380515 0.00392157
0.47867647 0.07401961 0.00392157
0.52156863 0.07769608 0.00392157
0.57218137 0.07794118 0.00392157
0.62083333 0.08158701 0.00392157
0.66985294 0.08186275 0.00392157
0.71813725 0.08314951 0.00735294
0.75686275 0.08578431 0.00735294
0.80759804 0.08685662 0.00784314
0.85232843 0.08970588 0.00784314
0.89215686 0.09056373 0.00784314
0.93112745 0.09362745 0.00784314
0.97009804 0.09362745 0.00784314
0.99865196 0.09587929 0.00784314
1 0.09754902 0.00784314
1 0.09754902 0.00784314
1 0.09754902 0.00784314
1 0.10147059 0.01127451
1 0.10147059 0.01127451
0.01960784 0.07720588 0.00392157
0.02808287 0.07720588 0.00392157
0.0365579 0.07977941 0.00392157
0.04945236 0.07977941 0.00392157
0.06392463 0.07977941 0.00392157
0.07977941 0.07977941 0.00392157
0.10514706 0.07977941 0.00392157
0.12879902 0.08015855 0.00392157
0.1627451 0.0830576 0.00392157
0.19779412 0.08370098 0.00392157
0.23676471 0.08370098 0.00526961
0.28140702 0.08762255 0.00526961
0.33579963 0.08846507 0.00526961
0.38897059 0.09154412 0.00784314
0.43063725 0.09154412 0.00784314
0.47867647 0.09289216 0.00784314
0.52352941 0.09546569 0.00784314
0.57218137 0.0967716 0.00784314
0.62159161 0.09938725 0.00860141
0.67340686 0.09938725 0.00919118
0.71813725 0.10330882 0.01176471
0.75686275 0.10330882 0.01176471
0.80759804 0.10723039 0.01176471
0.84926471 0.10723039 0.01176471
0.89215686 0.11115196 0.01176471
0.93112745 0.11115196 0.01176471
0.97009804 0.11115196 0.01311275
0.99865196 0.11507353 0.01311275
1 0.11507353 0.01536458
1 0.11507353 0.01568627
1 0.1189951 0.01327359
1 0.1189951 0.01568627
1 0.1189951 0.01568627
0.02745098 0.10122549 0.00784314
0.03678768 0.10122549 0.00784314
0.0430913 0.10122549 0.00784314
0.05619638 0.10122549 0.00784314
0.06945466 0.10122549 0.00784314
0.08370098 0.10232077 0.00784314
0.10514706 0.10441176 0.00784314
0.12508425 0.10461857 0.00784314
0.1627451 0.10514706 0.00784314
0.19779412 0.10514706 0.00784314
0.23676471 0.10833333 0.00784314
0.28419118 0.10906863 0.00784314
0.33676471 0.1122549 0.01102941
0.38933824 0.1129902 0.01109835
0.43063725 0.1129902 0.01176471
0.47879902 0.11617647 0.01176471
0.52352941 0.11691176 0.01176471
0.57218137 0.12009804 0.01176471
0.62443321 0.12083333 0.01176471
0.67340686 0.12401961 0.01176471
0.71813725 0.1247549 0.01495098
0.75686275 0.1247549 0.01568627
0.80759804 0.12867647 0.01568627
0.84926471 0.12867647 0.01568627
0.89215686 0.13186275 0.01568627
0.93112745 0.13259804 0.01887255
0.97009804 0.13319547 0.01901042
0.99865196 0.13626685 0.01960784
1 0.13651961 0.01960784
1 0.13970588 0.01960784
1 0.13975184 0.01960784
1 0.14044118 0.01960784
1 0.14044118 0.01960784
0.03639706 0.12095588 0.00894608
0.0442402 0.12095588 0.00894608
0.05183824 0.12095588 0.00894608
0.06151961 0.12095588 0.00894608
0.07415748 0.12095588 0.00894608
0.08872549 0.12377451 0.00894608
0.10906863 0.12487745 0.00894608
0.12567019 0.12487745 0.01176471
0.1627451 0.12487745 0.01176471
0.19779412 0.12487745 0.01176471
0.23946078 0.12879902 0.01176471
0.28811275 0.12879902 0.01176471
0.34137561 0.13230699 0.01245404
0.39299556 0.13272059 0.01286765
0.4317402 0.13272059 0.01286765
0.47879902 0.13664216 0.01568627
0.5254902 0.13664216 0.01568627
0.57610294 0.14052926 0.01568627
0.6247549 0.14056373 0.01678922
0.67340686 0.14311811 0.01678922
0.71813725 0.14448529 0.01678922
0.75686275 0.14448529 0.01960784
0.80759804 0.14840686 0.01960784
0.84926471 0.14840686 0.02071078
0.89215686 0.15150123 0.02071078
0.93112745 0.15232843 0.02071078
0.96617647 0.15232843 0.02123928
0.99865196 0.15625 0.02352941
1 0.15625 0.02352941
1 0.15625 0.02352941
1 0.15913756 0.02359835
1 0.16017157 0.02463235
1 0.16017157 0.02463235
0.05 0.15196078 0.01470588
0.05438113 0.15490196 0.01470588
0.06158088 0.15490196 0.01470588
0.07000613 0.15490196 0.01568627
0.08186275 0.15490196 0.01568627
0.09840686 0.15490196 0.01568627
0.1153799 0.15490196 0.01568627
0.13244485 0.15588235 0.01568627
0.15882353 0.15882353 0.01568627
0.19779412 0.15882353 0.01568627
0.24338235 0.15882353 0.01568627
0.29203431 0.1627451 0.01862745
0.34460784 0.1627451 0.01862745
0.3932598 0.16372549 0.01960784
0.43455882 0.16666667 0.01960784
0.47879902 0.1666973 0.01960784
0.52745098 0.17058824 0.01960784
0.57610294 0.17058824 0.02254902
0.6247549 0.17285539 0.02297794
0.67340686 0.1745098 0.02352941
0.71813725 0.1754902 0.02352941
0.75686275 0.17843137 0.02352941
0.80637255 0.17941176 0.02444853
0.84926471 0.18235294 0.02647059
0.88921569 0.18235294 0.02671569
0.92720588 0.18333333 0.02745098
0.96617647 0.18627451 0.02745098
0.99473039 0.18627451 0.02938113
1 0.1872549 0.03039216
1 0.19019608 0.03039216
1 0.19019608 0.03137255
1 0.19019608 0.03137255
1 0.19019608 0.03137255
0.05490196 0.18602941 0.01960784
0.06188725 0.18602941 0.01960784
0.06666667 0.18688725 0.01960784
0.07610294 0.18688725 0.01960784
0.08970588 0.18995098 0.01960784
0.10330882 0.18995098 0.01960784
0.12083333 0.18995098 0.01960784
0.13884421 0.18995098 0.01984911
0.16666667 0.19059436 0.02046569
0.19779412 0.19387255 0.02352941
0.24338235 0.19387255 0.02352941
0.29595588 0.19400659 0.02352941
0.34852941 0.19779412 0.02352941
0.3932598 0.19779412 0.02352941
0.43455882 0.19827665 0.02352941
0.47879902 0.20171569 0.02355622
0.52745098 0.20214461 0.02438725
0.57610294 0.20563725 0.02745098
0.6247549 0.20563725 0.02745098
0.67340686 0.2092716 0.02745098
0.71813725 0.20955882 0.02830882
0.75294118 0.20955882 0.02830882
0.80637255 0.21348039 0.03137255
0.84773667 0.21348039 0.03137255
0.88823529 0.21510417 0.03223039
0.92720588 0.21740196 0.03223039
0.9622549 0.21740196 0.03223039
0.99473039 0.22132353 0.03529412
1 0.22132353 0.03529412
1 0.22132353 0.03615196
1 0.22218137 0.03615196
1 0.2252451 0.03921569
1 0.2252451 0.03921569
0.04313725 0.22769608 0.02352941
0.04763327 0.22892157 0.02352941
0.05220588 0.22892157 0.02352941
0.06164216 0.22892157 0.02352941
0.07132353 0.22892157 0.02352941
0.08223039 0.22892157 0.02622549
0.10344669 0.23111213 0.02622549
0.12306219 0.23161765 0.02622549
0.15612745 0.23253676 0.02622549
0.19080882 0.23284314 0.02745098
0.23984375 0.23553922 0.02745098
0.29595588 0.2357307 0.02745098
0.34684436 0.23676471 0.03014706
0.39300705 0.23946078 0.03014706
0.43063725 0.24015012 0.03137255
0.47871477 0.24077053 0.03137255
0.5254902 0.24338235 0.03137255
0.57610294 0.24460784 0.03406863
0.6247549 0.24730392 0.03460478
0.66985294 0.24841452 0.03529412
0.71666667 0.24954044 0.03529412
0.75294118 0.25122549 0.0379902
0.80245098 0.25245098 0.0379902
0.84475337 0.25514706 0.03921569
0.88431373 0.25545343 0.03921569
0.92328431 0.25637255 0.04115349
0.95955882 0.25906863 0.04191176
0.99338235 0.26029412 0.04191176
1 0.26029412 0.04313725
1 0.2629902 0.04313725
1 0.2629902 0.04313725
1 0.26421569 0.04313725
1 0.26421569 0.04313725
0.0497549 0.27634804 0.03137255
0.05335095 0.27634804 0.03198529
0.05755974 0.27634804 0.03198529
0.06286382 0.27634804 0.03198529
0.07225797 0.27634804 0.03198529
0.08464691 0.27634804 0.03198529
0.1 0.27634804 0.03529412
0.11139706 0.27965686 0.03529412
0.13814338 0.28026961 0.03529412
0.17843137 0.28026961 0.03529412
0.23534773 0.28254442 0.03529412
0.29151731 0.28419118 0.03529412
0.34068627 0.28419118 0.03590686
0.38541667 0.2875 0.03590686
0.42637102 0.28811275 0.03776808
0.4747549 0.28811275 0.03921569
0.52322304 0.29172794 0.03921569
0.57218137 0.29203431 0.03980928
0.62083333 0.29534314 0.03982843
0.66593137 0.29595588 0.04313725
0.71236213 0.29595588 0.04313725
0.74840686 0.29926471 0.04375
0.79852941 0.29987745 0.04375
0.84008502 0.30246247 0.04705882
0.88039216 0.30379902 0.04705882
0.91875 0.30379902 0.04749923
0.95441176 0.30710784 0.04767157
0.98905867 0.30772059 0.04767157
1 0.30772059 0.05098039
1 0.30772059 0.05098039
1 0.31102941 0.05098039
1 0.31164216 0.05098039
1 0.31164216 0.05098039
0.01960784 0.32107843 0.0377451
0.02075674 0.32107843 0.0377451
0.02352941 0.32107843 0.03921569
0.02745098 0.32254902 0.03921569
0.03265931 0.32254902 0.03921569
0.04119179 0.32254902 0.03921569
0.05119485 0.32254902 0.03921569
0.06654412 0.32323836 0.03921569
0.10196078 0.325 0.04105392
0.16536458 0.32647059 0.04166667
0.22870711 0.32647059 0.0426777
0.28566176 0.32915135 0.04313725
0.33523284 0.33039216 0.04313725
0.38112745 0.33284314 0.04558824
0.41887255 0.33284314 0.04558824
0.47087929 0.33431373 0.04705882
0.51960784 0.33553922 0.04705882
0.5682598 0.33823529 0.04943321
0.61691176 0.33823529 0.0495098
0.66334252 0.34068627 0.05084252
0.70882353 0.34215686 0.05098039
0.74264706 0.34215686 0.05098039
0.79460784 0.34607843 0.05098039
0.83472733 0.34607843 0.05098039
0.87463235 0.34852941 0.05343137
0.91257659 0.35 0.05448836
0.9504902 0.35 0.05490196
0.98308824 0.35245098 0.05490196
1 0.35392157 0.05490196
1 0.35392157 0.05490196
1 0.35392157 0.05490196
1 0.35637255 0.05735294
1 0.35637255 0.05735294
0 0.36151961 0.0435049
0.00355392 0.36151961 0.0435049
0.00355392 0.36151961 0.0435049
0.00355392 0.36151961 0.0435049
0.00742953 0.36151961 0.0435049
0.01495098 0.36188725 0.04705882
0.02272518 0.36477482 0.04705882
0.03539752 0.36544118 0.04705882
0.08627451 0.36544118 0.04705882
0.16029412 0.3655216 0.04742647
0.22621783 0.36936275 0.04742647
0.28382353 0.36936275 0.05098039
0.33039216 0.36936275 0.05098039
0.3768727 0.37328431 0.05098039
0.41495098 0.37328431 0.05098039
0.46703431 0.37328431 0.05134804
0.51764706 0.37720588 0.05134804
0.5682598 0.37720588 0.05490196
0.61519608 0.37757353 0.05490196
0.66164216 0.38112745 0.05490196
0.70490196 0.38112745 0.05526961
0.74117647 0.38504902 0.05882353
0.79068627 0.38504902 0.05882353
0.83243336 0.38504902 0.05882353
0.87227328 0.38897059 0.05919118
0.90759804 0.38897059 0.05919118
0.94620098 0.38897059 0.0627451
0.97769608 0.39289216 0.0627451
1 0.39289216 0.0627451
1 0.39289216 0.0627451
1 0.39291513 0.0627451
1 0.39681373 0.0627451
1 0.39681373 0.0627451
0 0.39705882 0.05098039
0 0.39705882 0.05098039
0 0.39705882 0.05098039
0 0.39705882 0.05098039
0 0.39705882 0.05098039
0 0.39705882 0.05098039
0 0.39926471 0.05098039
0.00503217 0.39926471 0.05098039
0.0870098 0.40098039 0.05318627
0.1616345 0.40098039 0.05318627
0.22308517 0.40318627 0.05490196
0.27806373 0.40490196 0.05490196
0.32671569 0.40490196 0.05490196
0.37128523 0.40710784 0.05510876
0.41199449 0.40710784 0.05710784
0.46703431 0.40882353 0.05710784
0.51568627 0.41102941 0.05710784
0.56612286 0.4127451 0.05882353
0.6129902 0.4127451 0.06102941
0.65808824 0.41495098 0.06102941
0.70352328 0.41666667 0.06102941
0.7372549 0.41666667 0.06102941
0.78730086 0.41887255 0.0627451
0.82917433 0.42058824 0.0627451
0.86697304 0.42279412 0.06495098
0.90539216 0.42402727 0.06495098
0.94044118 0.4245098 0.06495098
0.97377451 0.42595741 0.06495098
0.99806985 0.42671569 0.06666667
1 0.42843137 0.06887255
1 0.42843137 0.06887255
1 0.42843137 0.06887255
1 0.42843137 0.06887255
0 0.44338235 0.05502451
0 0.44338235 0.05502451
0 0.4435049 0.05502451
0 0.4435049 0.05502451
0 0.4435049 0.05882353
0 0.4435049 0.05882353
0.00009957 0.4435049 0.05882353
0.0252451 0.44730392 0.05882353
0.09497549 0.44730392 0.05882353
0.14754902 0.44742647 0.05882353
0.21188725 0.44742647 0.05894608
0.26838235 0.45122549 0.05894608
0.31708027 0.45134804 0.0627451
0.36533012 0.45134804 0.0627451
0.40705423 0.45514706 0.0627451
0.46311275 0.45526961 0.0627451
0.51366422 0.45526961 0.06280637
0.56421952 0.45906863 0.06286765
0.60906863 0.45919118 0.06666667
0.65415518 0.46263404 0.06666667
0.69852941 0.4629902 0.06666667
0.73333333 0.46311275 0.06666667
0.78284314 0.46691176 0.06670496
0.82181373 0.46691176 0.0697572
0.86173407 0.46703431 0.07058824
0.8997549 0.47083333 0.07058824
0.93480392 0.47083333 0.07058824
0.96723729 0.47095588 0.07071078
0.99644608 0.47095588 0.07071078
1 0.4747549 0.07296645
1 0.4747549 0.0745098
1 0.4747549 0.0745098
1 0.4747549 0.0745098
0 0.48823529 0.0627451
0 0.48823529 0.0627451
0 0.48823529 0.0627451
0 0.48823529 0.0627451
0 0.48823529 0.0627451
0 0.49019608 0.0627451
0.00159314 0.49019608 0.0627451
0.00808824 0.49215686 0.0627451
0.04656863 0.49215686 0.0627451
0.11409314 0.49411765 0.0627451
0.19313725 0.49411765 0.06605392
0.25085784 0.49607843 0.06666667
0.30343137 0.49607843 0.06666667
0.35404412 0.49803922 0.06666667
0.3995098 0.49914216 0.06666667
0.45723039 0.5 0.06666667
0.50784314 0.50196078 0.06764706
0.55655637 0.50386029 0.07052696
0.60428922 0.50392157 0.07058824
0.64987745 0.50588235 0.07058824
0.69313725 0.50784314 0.07058824
0.72745098 0.50784314 0.07058824
0.77757353 0.50980392 0.07254902
0.81746324 0.51176471 0.07254902
0.85686275 0.51176471 0.0745098
0.89191176 0.51372549 0.0745098
0.92696078 0.51568627 0.0745098
0.96004902 0.51568627 0.0745098
0.98897059 0.51764706 0.0745098
1 0.51764706 0.0745098
1 0.51764706 0.0745098
1 0.51960784 0.0745098
1 0.51960784 0.0745098
0 0.53296569 0.06666667
0 0.53296569 0.06666667
0 0.53296569 0.06666667
0 0.53296569 0.06666667
0 0.53308824 0.06666667
0 0.53308824 0.06666667
0 0.53308824 0.06666667
0 0.53415671 0.06666667
0.01452206 0.53688725 0.06666667
0.10899969 0.5370098 0.07046569
0.17552849 0.5370098 0.07046569
0.23392693 0.5370098 0.07046569
0.28982843 0.54080882 0.07046569
0.34240196 0.54093137 0.07058824
0.39362745 0.54093137 0.07058824
0.45147059 0.54473039 0.07058824
0.50392157 0.54485294 0.07058824
0.55257353 0.54485294 0.07058824
0.59956342 0.54865196 0.07225031
0.64595588 0.54877451 0.07438725
0.6868413 0.54877451 0.0745098
0.72156863 0.55257353 0.0745098
0.77111673 0.55269608 0.0745098
0.81017157 0.55269608 0.0745098
0.84905025 0.5564951 0.0745098
0.8879902 0.55658318 0.0745098
0.9192402 0.55661765 0.07453278
0.95167356 0.55911075 0.07843137
0.98089767 0.56041667 0.07843137
1 0.56053922 0.07843137
1 0.56053922 0.07843137
1 0.56053922 0.07843137
1 0.56053922 0.07843137
0 0.57377451 0.07058824
0 0.57377451 0.07058824
0 0.57377451 0.07058824
0 0.57377451 0.07058824
0 0.57570466 0.07058824
0 0.57598039 0.07058824
0 0.57598039 0.07058824
0.00048254 0.57598039 0.07058824
0.03474265 0.57769608 0.07058824
0.09460018 0.57769608 0.07058824
0.14529718 0.57990196 0.07058824
0.21642157 0.57990196 0.07058824
0.27729779 0.57990196 0.07058824
0.336803 0.58161765 0.07058824
0.3879902 0.58382353 0.07058824
0.44742647 0.58382353 0.0745098
0.5 0.58553922 0.0745098
0.54865196 0.5877451 0.0745098
0.59338235 0.5877451 0.0745098
0.63831955 0.58946078 0.0745098
0.68219975 0.59166667 0.0745098
0.71764706 0.59166667 0.07843137
0.76715686 0.59338235 0.07843137
0.80612745 0.59558824 0.07843137
0.84381127 0.59558824 0.07843137
0.88014706 0.59682138 0.07843137
0.91348039 0.5995098 0.07843137
0.94519761 0.5995098 0.07843137
0.97331495 0.5995098 0.08014706
0.99669118 0.60052849 0.08014706
1 0.60122549 0.08014706
1 0.60343137 0.08014706
1 0.60343137 0.08014706
0 0.61458333 0.07058824
0 0.61458333 0.07058824
0 0.61495098 0.07058824
0 0.61495098 0.07058824
0 0.61495098 0.07058824
0 0.61495098 0.07058824
0 0.61495098 0.07058824
0.0002068 0.61495098 0.07058824
0.00530025 0.6185049 0.07058824
0.02708333 0.61887255 0.0745098
0.11936275 0.61887255 0.0745098
0.19889706 0.61887255 0.0745098
0.26640625 0.62109375 0.0745098
0.33054917 0.62279412 0.0745098
0.38406863 0.62279412 0.0745098
0.4435049 0.62290518 0.0745098
0.49607843 0.62653186 0.0745098
0.54473039 0.62671569 0.07806373
0.58946078 0.62671569 0.07806373
0.63455882 0.63026961 0.07806373
0.67758885 0.63063725 0.07806373
0.71372549 0.63063725 0.07843137
0.76079197 0.63419118 0.07843137
0.80142846 0.63455882 0.07843137
0.83734681 0.63455882 0.07843137
0.87267157 0.6371132 0.07843137
0.90735294 0.63848039 0.07843137
0.93848039 0.63848039 0.07843137
0.96524203 0.63848039 0.07843137
0.98911994 0.63848039 0.07843137
1 0.64203431 0.07843137
1 0.64240196 0.07843137
1 0.64240196 0.07843137
0 0.65392157 0.07205882
0 0.65392157 0.07205882
0 0.65392157 0.07058824
0 0.65392157 0.07205882
0 0.65392157 0.07205882
0 0.65392157 0.07205882
0 0.65392157 0.07205882
0 0.65433517 0.07205882
0 0.65539216 0.07205882
0.03129596 0.65784314 0.07205882
0.11320466 0.65784314 0.0745098
0.18198529 0.65784314 0.0745098
0.25931373 0.65876225 0.0745098
0.32659314 0.66176471 0.0745098
0.38014706 0.66176471 0.0745098
0.43958333 0.66176471 0.0745098
0.49142157 0.66446078 0.0745098
0.53938419 0.66568627 0.0745098
0.58553922 0.66568627 0.0745098
0.63026961 0.66715686 0.0745098
0.67352941 0.66960784 0.07542892
0.70833333 0.66960784 0.07696078
0.75539216 0.6700674 0.07843137
0.79436275 0.67352941 0.07843137
0.83186275 0.67352941 0.07843137
0.86691176 0.67352941 0.07843137
0.8995098 0.67545956 0.07843137
0.92967218 0.67745098 0.07843137
0.95606618 0.67745098 0.07843137
0.98025429 0.67745098 0.07843137
1 0.67745098 0.07843137
1 0.67892157 0.07843137
1 0.67892157 0.07843137
0 0.68235294 0.07058824
0 0.68235294 0.07058824
0 0.68235294 0.07058824
0 0.68235294 0.07058824
0 0.68578431 0.07058824
0 0.68627451 0.07058824
0 0.68627451 0.07058824
0 0.68627451 0.07058824
0.00294118 0.68627451 0.07058824
0.03223039 0.68627451 0.0745098
0.07352941 0.68627451 0.0745098
0.16838235 0.69019608 0.0745098
0.25294118 0.69019608 0.0745098
0.32303922 0.69019608 0.0745098
0.37794118 0.69019608 0.0745098
0.43566176 0.69411765 0.0745098
0.48823529 0.69411765 0.0745098
0.53688725 0.69411765 0.0745098
0.58161765 0.69803922 0.0745098
0.62671569 0.69803922 0.0745098
0.66960784 0.69803922 0.0745098
0.70196078 0.69803922 0.0745098
0.75147059 0.70196078 0.0745098
0.79044118 0.70196078 0.0745098
0.8254902 0.70196078 0.0745098
0.86053922 0.70588235 0.0745098
0.89485294 0.70588235 0.0745098
0.92279412 0.70588235 0.0745098
0.9495098 0.70588235 0.0745098
0.97328431 0.70821078 0.0745098
0.99607843 0.70980392 0.07843137
1 0.70980392 0.07843137
1 0.70980392 0.07843137
0 0.72794118 0.06666667
0 0.72794118 0.06666667
0 0.72794118 0.06666667
0 0.72794118 0.06666667
0 0.72794118 0.06666667
0 0.72794118 0.06666667
0 0.72794118 0.06666667
0 0.72794118 0.06666667
0 0.72794118 0.06666667
0 0.72975643 0.06666667
0.07083333 0.73186275 0.06666667
0.16776961 0.73186275 0.06666667
0.25147059 0.73186275 0.06666667
0.32156097 0.73186275 0.06666667
0.37401961 0.73578431 0.06666667
0.43566176 0.73578431 0.06666667
0.48431373 0.73578431 0.06936275
0.53296569 0.73958333 0.06936275
0.57769608 0.73970588 0.06936275
0.62267923 0.73970588 0.07058824
0.66568627 0.73970588 0.07058824
0.69803922 0.74362745 0.07058824
0.7467065 0.74362745 0.07058824
0.78470435 0.74362745 0.07058824
0.82156863 0.74460784 0.07058824
0.85539216 0.74754902 0.07058824
0.88601409 0.74754902 0.07058824
0.91414675 0.74754902 0.07058824
0.94044118 0.74754902 0.07058824
0.96261489 0.75147059 0.07058824
0.9873315 0.75147059 0.07058824
1 0.75147059 0.07058824
1 0.75147059 0.07058824
0 0.75992647 0.0627451
0 0.75992647 0.0627451
0 0.76279871 0.0627451
0 0.7629902 0.0627451
0 0.7629902 0.0627451
0 0.7629902 0.0627451
0 0.7629902 0.0627451
0 0.7629902 0.0627451
0 0.7629902 0.0627451
0.02046569 0.7629902 0.0627451
0.06652114 0.76384804 0.0627451
0.16446078 0.76691176 0.0627451
0.25294118 0.76691176 0.0627451
0.32267157 0.76691176 0.0627451
0.37401961 0.7673943 0.0627451
0.4317402 0.77083333 0.0627451
0.48431373 0.77083333 0.0627451
0.52916667 0.77083333 0.0627451
0.57598039 0.77303156 0.0627451
0.61887255 0.7747549 0.0627451
0.6620864 0.7747549 0.0627451
0.69497549 0.7747549 0.0627451
0.74362745 0.77867647 0.0627451
0.77934666 0.77867647 0.06360294
0.81458333 0.77867647 0.06360294
0.84877451 0.77867647 0.06360294
0.87932751 0.78259804 0.06360294
0.90740273 0.78259804 0.06360294
0.93114277 0.78259804 0.06360294
0.95402497 0.78259804 0.06360294
0.97776501 0.78265165 0.06360294
1 0.78651961 0.06360294
1 0.78651961 0.06360294
0 0.79313725 0.05490196
0 0.79411765 0.05490196
0 0.79411765 0.05392157
0 0.79411765 0.05392157
0 0.79411765 0.05392157
0 0.79411765 0.05392157
0 0.79411765 0.05392157
0 0.79411765 0.05392157
0 0.79411765 0.05392157
0 0.79705882 0.05392157
0.07800245 0.79803922 0.05392157
0.17561275 0.79803922 0.05392157
0.25686275 0.79803922 0.05392157
0.32303922 0.79831495 0.05490196
0.37622549 0.80098039 0.05490196
0.43556985 0.80196078 0.05490196
0.48431373 0.80196078 0.05490196
0.52916667 0.80196078 0.05490196
0.57598039 0.80533088 0.05490196
0.61887255 0.80588235 0.05401348
0.66176471 0.80588235 0.05392157
0.69411765 0.80588235 0.05392157
0.73970588 0.8091299 0.05392157
0.7747549 0.80980392 0.05392157
0.80980392 0.80980392 0.05098039
0.84414828 0.81191789 0.05098039
0.87205882 0.8127451 0.05098039
0.89926471 0.81372549 0.05098039
