Kodak Converted/Kodak Portra 160.cube
# Exported with LUT Lab 1.2.1
# LUTLab.com
TITLE Kodak Portra 160 2
LUT_3D_SIZE 33
0.00392157 0.00784314 0.00784314
0.01568627 0.01176471 0.00784314
0.01960784 0.00784314 0.00416667
0.04080882 0.01176471 0.00784314
0.06176471 0.01127451 0.00784314
0.08504902 0.01176471 0.00784314
0.11617647 0.01495098 0.00784314
0.14166667 0.01176471 0.00392157
0.19019608 0.00882353 0.00392157
0.23308824 0.00306373 0.00306373
0.28259804 0 0.00122549
0.33125 0 0
0.38235294 0 0
0.43639706 0 0
0.48161765 0 0
0.53762255 0 0
0.58627451 0 0
0.62732843 0 0
0.67401961 0 0
0.71262255 0 0
0.74656863 0 0
0.77254902 0 0
0.80906863 0 0
0.83357843 0 0
0.85784314 0 0
0.88406863 0 0
0.90735294 0 0
0.93455882 0.00257353 0
0.95735294 0.04803922 0
0.98112745 0.0870098 0
1 0.11789216 0
1 0.1432598 0
1 0.16862745 0
0.00784314 0.01752451 0.00784314
0.01262638 0.01752451 0.00784314
0.02316942 0.01947763 0.00784314
0.04155561 0.0202091 0.0057598
0.06594669 0.02513787 0.00761336
0.08825444 0.02536765 0.00392157
0.11652114 0.02706036 0.00392157
0.14760263 0.02686504 0.00392157
0.19411765 0.02398897 0.00098039
0.23786765 0.01752451 0
0.28508732 0.00890012 0
0.33484605 0 0
0.3877451 0 0
0.44031863 0 0
0.48671109 0 0
0.54154412 0 0
0.58719363 0 0
0.63112745 0 0
0.67181373 0 0
0.70924096 0 0
0.74734988 0 0
0.77254902 0 0
0.80780484 0 0
0.83357843 0 0
0.86032475 0 0
0.88406863 0 0
0.90696232 0.00103401 0
0.93319164 0.04276961 0
0.95392157 0.0791973 0
0.98063725 0.10796569 0
1 0.13334865 0
1 0.15710784 0
1 0.18039216 0
0.00784314 0.02352941 0.00784314
0.0118796 0.02732077 0.00784314
0.01913297 0.02720588 0.00761336
0.03698683 0.03286612 0.00784314
0.06197917 0.03848039 0.00713848
0.09154412 0.03897059 0.00392157
0.12333027 0.04289216 0.00323223
0.15318627 0.04289216 0
0.19803922 0.04270833 0
0.2419807 0.03811275 0
0.29044118 0.02859988 0
0.34219516 0.0185432 0
0.39157475 0.00505515 0
0.4442402 0 0
0.4877451 0 0
0.54522059 0 0
0.59019608 0 0
0.63125 0 0
0.67587316 0 0
0.7129902 0 0
0.74803922 0 0
0.77279412 0 0
0.80654105 0 0
0.83438266 0 0
0.85968137 0 0
0.88406863 0.0089614 0
0.91034007 0.04759498 0
0.93198529 0.07675398 0
0.95735294 0.10588235 0
0.98112745 0.12975643 0
1 0.14901961 0
1 0.17046569 0
1 0.19558824 0
0.00784314 0.04473039 0.01017157
0.01370251 0.04398361 0.00868949
0.02179075 0.04473039 0.00784314
0.03391161 0.04726945 0.00784314
0.05421262 0.05425858 0.00421262
0.08737745 0.06121706 0.00337393
0.12983303 0.06782322 0
0.16172258 0.06760493 0
0.20747549 0.06691176 0
0.25122549 0.06593137 0
0.29878217 0.0620098 0
0.35049403 0.05772442 0
0.3995098 0.04592525 0
0.45186504 0.03164445 0
0.49759498 0.01605392 0
0.54938725 0.00154335 0
0.59491422 0 0
0.63897059 0 0
0.67965686 0 0
0.71691176 0 0
0.75050551 0 0
0.77647059 0 0
0.80956648 0.00368413 0
0.83568091 0.02193627 0
0.86020221 0.04816176 0
0.88631664 0.07426471 0
0.90864737 0.09571078 0
0.93303079 0.11660922 0
0.95735294 0.13561581 0
0.97879902 0.15358839 0
1 0.17205882 0
1 0.19082031 0
1 0.21102941 0
0.00784314 0.0622549 0.00784314
0.01360294 0.0622549 0.00784314
0.0200674 0.06271446 0.00784314
0.03325674 0.06757047 0.00784314
0.0504902 0.07052696 0.00484069
0.07720588 0.07928922 0.00375306
0.11666667 0.08970588 0
0.15598958 0.09459252 0
0.21372549 0.09705882 0
0.26128983 0.09744179 0
0.30955882 0.09705882 0
0.35775123 0.09313725 0
0.40863971 0.09050245 0
0.45992647 0.08169424 0
0.50343137 0.0752451 0
0.55389093 0.06518076 0
0.6 0.05857843 0
0.64289216 0.0519761 0
0.68357843 0.04852941 0
0.72038909 0.05168505 0
0.75196078 0.05784314 0
0.77696078 0.06862745 0
0.81029412 0.08161765 0
0.83786765 0.09522059 0
0.86066176 0.1057598 0
0.8850337 0.12291667 0
0.90775123 0.1370098 0
0.93455882 0.15335478 0
0.95735294 0.16813725 0
0.97928922 0.18362439 0
1 0.19583333 0
1 0.2149663 0
1 0.23088235 0
0.00257353 0.08762255 0.0064951
0.00984222 0.08825444 0.0066368
0.01560202 0.08762255 0.00775888
0.03057215 0.09154412 0.0072955
0.04656863 0.095144 0.00409007
0.07193627 0.10073529 0.00303692
0.10306373 0.10932138 0
0.14252451 0.12047718 0
0.20355392 0.1307598 0
0.26090686 0.13497626 0
0.31881893 0.13602941 0
0.37046569 0.13602941 0
0.41750919 0.13210784 0
0.46899127 0.12953431 0
0.5129902 0.12673866 0
0.56237745 0.12169118 0
0.60723039 0.11911765 0
0.65065487 0.11781173 0
0.6876685 0.1196538 0
0.7210746 0.11935892 0
0.75588235 0.12611826 0
0.77781863 0.13088235 0
0.81206342 0.13860294 0
0.83644684 0.14693627 0
0.86338848 0.15664828 0
0.88664216 0.16629902 0
0.91028646 0.17916667 0
0.93198529 0.18869868 0
0.9551011 0.20076593 0
0.97825138 0.21311275 0
1 0.22512255 0
1 0.23872549 0
1 0.25355392 0
0 0.12083333 0.00465686
0.00034467 0.12083333 0.00426624
0.00833333 0.11711091 0.00392157
0.02193627 0.12039675 0.00392157
0.04329044 0.12401961 0.00392157
0.06984528 0.12842371 0.00048254
0.1004902 0.13504902 0
0.12839308 0.13982843 0
0.18995098 0.16004902 0
0.24714308 0.16858915 0
0.31055453 0.17550551 0
0.37181373 0.17892157 0
0.43042279 0.17846201 0
0.47850031 0.17788756 0
0.52262561 0.17637868 0
0.57220435 0.17428768 0
0.61568627 0.17426471 0
0.65845588 0.17426471 0
0.69541973 0.17786458 0
0.72578891 0.17818627 0
0.75980392 0.18210784 0
0.78357843 0.18529412 0
0.81271446 0.18944547 0
0.8375 0.194447 0
0.86372549 0.20171569 0
0.8879902 0.20919118 0
0.91113664 0.21813725 0
0.93272059 0.22646293 0
0.95735294 0.2377451 0
0.98112745 0.24791667 0
1 0.2573989 0
1 0.26762408 0
1 0.28406863 0
0 0.14669118 0
0 0.14767157 0.0014974
0 0.14829963 0.00264246
0.0122549 0.14558824 0.00065487
0.03713235 0.1495098 0
0.06544118 0.15270757 0
0.09709712 0.15877757 0
0.1239545 0.16348039 0
0.17735907 0.18079044 0
0.23651961 0.19938725 0
0.29789369 0.20710784 0
0.36102941 0.21379825 0
0.42503064 0.21796875 0
0.48637791 0.21838235 0
0.53432138 0.21838235 0
0.58293122 0.21838235 0
0.62463235 0.21838235 0
0.66351486 0.21838235 0
0.69865196 0.21838235 0
0.72977941 0.21938189 0
0.76049326 0.22189032 0
0.7814951 0.22230392 0
0.81387102 0.22904412 0
0.83835784 0.23234911 0
0.86289828 0.23716299 0
0.8879902 0.24362745 0
0.90877757 0.24918045 0
0.93455882 0.25796569 0
0.95638787 0.26619179 0
0.98047258 0.27389706 0
1 0.28180913 0
1 0.29068627 0
1 0.30526961 0
0 0.18921569 0
0 0.19077819 0
0 0.18927696 0
0 0.18707108 0
0.02389706 0.18921569 0
0.05894608 0.19347426 0
0.09362745 0.19803922 0
0.12527574 0.20306373 0
0.16740196 0.21053922 0
0.21161152 0.22285539 0
0.27965686 0.24810049 0
0.34414828 0.2583027 0
0.41041667 0.2682598 0
0.47303922 0.2754902 0
0.52971814 0.27769608 0
0.59252451 0.2783701 0
0.63431373 0.27696078 0
0.67316176 0.27833946 0
0.70202206 0.27647059 0
0.73563113 0.27852328 0
0.76335784 0.27941176 0
0.78529412 0.28039216 0
0.81458333 0.28008578 0
0.83835784 0.28333333 0
0.86446078 0.2872549 0
0.8888174 0.29188113 0
0.91053922 0.29607843 0
0.93299632 0.30101103 0
0.9564951 0.30441176 0
0.98054534 0.31351103 0
1 0.31960784 0
1 0.32699142 0
1 0.33529412 0
0 0.2252451 0
0 0.23002451 0
0 0.22916667 0
0 0.22706419 0
0.00611213 0.22143076 0
0.04889706 0.22830882 0
0.09178922 0.23308824 0
0.12205882 0.23872932 0
0.16666667 0.24779412 0
0.21108686 0.25728784 0
0.25847886 0.27022059 0
0.3310049 0.29644608 0
0.39473039 0.31004902 0
0.4625 0.31973039 0
0.51654412 0.3254902 0
0.580733 0.32806373 0
0.63051471 0.3276348 0
0.67506893 0.32803692 0
0.70931373 0.32758119 0
0.73766468 0.32720588 0
0.76649816 0.32605699 0
0.78517157 0.32414216 0
0.81786918 0.32509957 0
0.84160922 0.32787607 0
0.86449142 0.3286152 0
0.88823529 0.33112745 0
0.91111366 0.33504902 0
0.93198529 0.33791743 0
0.95773591 0.34327512 0
0.97879902 0.34681373 0
1 0.35460325 0
1 0.35714231 0
1 0.36948529 0
0 0.26691176 0
0 0.26956955 0
0 0.26813725 0
0 0.26531097 0
0 0.26421569 0
0.03406863 0.26514246 0
0.08261336 0.26864277 0
0.1192402 0.27708333 0
0.1689951 0.28584559 0
0.21137408 0.29348192 0
0.25906863 0.3042739 0
0.30749081 0.31538756 0
0.38180147 0.34623162 0
0.44571844 0.35858609 0
0.50171569 0.36715686 0
0.5624617 0.37018229 0
0.61495098 0.37401961 0
0.66360294 0.37671569 0
0.70441176 0.37279412 0
0.74299939 0.37401961 0
0.76764706 0.37110907 0
0.78823529 0.37156863 0
0.81691176 0.36803002 0
0.84046415 0.36887255 0
0.86605392 0.36942402 0
0.88715533 0.37085631 0
0.91053922 0.37279412 0
0.93510263 0.37578891 0
0.95735294 0.37794118 0
0.98222273 0.38186275 0
1 0.38463542 0
1 0.3884421 0
1 0.39485294 0
0 0.30772059 0
0 0.31495098 0
0 0.31184896 0
0 0.31139323 0
0 0.307644 0
0.01911765 0.3047258 0
0.07891391 0.31029412 0
0.11862745 0.31605392 0
0.16914828 0.32196691 0
0.21300169 0.33136106 0
0.25618107 0.33848039 0
0.30370328 0.34745328 0
0.35268076 0.36053922 0
0.42408471 0.38897059 0
0.48183977 0.40343137 0
0.54485294 0.40906863 0
0.59742647 0.41660539 0
0.64607843 0.41691176 0
0.6875 0.41752451 0
0.73161765 0.42052313 0
0.76703431 0.41567096 0
0.78884804 0.41360294 0
0.82064185 0.41176471 0
0.84486443 0.4129902 0
0.86764706 0.40906863 0
0.88909314 0.40906863 0
0.91065411 0.40968137 0
0.93476945 0.41041667 0
0.95784314 0.4134038 0
0.98112745 0.41691176 0
1 0.41695006 0
1 0.41928232 0
1 0.42536765 0
0 0.35 0
0 0.3557598 0
0 0.35407475 0
0 0.35 0
0 0.34852941 0
0.00500919 0.34557292 0
0.06957721 0.3458027 0
0.1125 0.35004596 0
0.16568627 0.35686275 0
0.21041667 0.36568627 0
0.25514706 0.37454044 0
0.30341605 0.38405331 0
0.35036765 0.39405637 0
0.39731924 0.40134804 0
0.45670956 0.4245098 0
0.52740502 0.44566483 0
0.57990196 0.45196078 0
0.62863051 0.45588235 0
0.67221201 0.45790441 0
0.71446078 0.4584712 0
0.75196078 0.45833333 0
0.77941176 0.45588235 0
0.81914828 0.45150123 0
0.84419424 0.45081189 0
0.86764706 0.44987745 0
0.88909314 0.44803922 0
0.91127451 0.44485294 0
0.93443627 0.44496017 0
0.95753676 0.44803922 0
0.98025429 0.44803922 0
1 0.4518076 0
0.9988511 0.45081189 0
1 0.45735294 0
0 0.38933824 0
0 0.39514782 0
0 0.39681373 0
0 0.39289216 0
0 0.38897059 0
0 0.38382736 0
0.06305913 0.38112745 0
0.10857843 0.38604856 0
0.1627451 0.39252451 0
0.20955882 0.39795879 0
0.25514706 0.40735294 0
0.2989545 0.41611137 0
0.34607843 0.42426471 0
0.39292662 0.43569623 0
0.4365579 0.44178922 0
0.50171569 0.4629902 0
0.56237745 0.48308824 0
0.61102941 0.4870098 0
0.65775888 0.49448529 0
0.69693627 0.49485294 0
0.73590686 0.49485294 0
0.76433824 0.49485294 0
0.8048943 0.49337469 0
0.83790977 0.48778722 0
0.86737132 0.48602941 0
0.88898974 0.48308824 0
0.91439185 0.4830193 0
0.93590686 0.48075597 0
0.95779718 0.48272059 0
0.98112745 0.48082874 0
1 0.48272059 0
1 0.48272059 0
1 0.48664216 0
0 0.42279412 0
0 0.42843137 0
0 0.42832414 0
0 0.42683824 0
0 0.42107843 0
0 0.41946232 0
0.06021752 0.4145527 0
0.10637255 0.41164216 0
0.1627451 0.41838235 0
0.20859375 0.42488511 0
0.25294118 0.43284314 0
0.29740349 0.44191176 0
0.34215686 0.44911152 0
0.38697151 0.45780484 0
0.43160233 0.46689645 0
0.48051471 0.47506893 0
0.53848039 0.49632353 0
0.59522059 0.51463695 0
0.63995098 0.52130821 0
0.68268229 0.52410386 0
0.72147672 0.52647059 0
0.75245098 0.52647059 0
0.79289216 0.5252451 0
0.82572763 0.52254902 0
0.85802696 0.52028186 0
0.88626685 0.5173943 0
0.91306679 0.51470588 0
0.93848039 0.51411612 0
0.95955882 0.51078431 0
0.98202359 0.50947457 0
1 0.51078431 0
1 0.51078431 0
1 0.5125 0
0 0.4629902 0
0 0.46691176 0
0 0.46690411 0
0 0.4629902 0
0 0.46297488 0
0.00269608 0.45653339 0
0.06848192 0.45502451 0
0.10759804 0.44730392 0
0.16283701 0.45119485 0
0.20744868 0.45693168 0
0.25126379 0.46560202 0
0.29534314 0.47142693 0
0.33831189 0.47863051 0
0.3814951 0.48687577 0
0.42279412 0.49430913 0
0.47095205 0.5023246 0
0.515625 0.51194853 0
0.56409314 0.52536765 0
0.62284773 0.55078891 0
0.66188725 0.55318627 0
0.70470282 0.56083027 0
0.73321078 0.56090686 0
0.77748928 0.56090686 0
0.80992647 0.55710784 0
0.84114583 0.55710784 0
0.87503447 0.55603937 0
0.90414369 0.55318627 0
0.9344784 0.54926471 0
0.96116728 0.54866728 0
0.98350567 0.54379979 0
1 0.54165901 0
1 0.54142157 0
1 0.54522059 0
0 0.49607843 0
0 0.49803922 0
0 0.49803922 0
0 0.49528186 0
0 0.49068627 0
0.01979167 0.49019608 0
0.08284314 0.48504902 0
0.12064951 0.48125 0
0.16813725 0.48039216 0
0.20998775 0.48474265 0
0.25245098 0.49154412 0
0.29534314 0.4963848 0
0.33627451 0.50318627 0
0.37935049 0.50998775 0
0.41776961 0.51789216 0
0.46305147 0.52555147 0
0.50686275 0.53235294 0
0.54675245 0.53921569 0
0.59117647 0.55355392 0
0.64613971 0.57806373 0
0.6879902 0.58553922 0
0.71960784 0.58823529 0
0.76066176 0.58958333 0
0.79479167 0.59019608 0
0.82941176 0.58970588 0
0.86053922 0.58823529 0
0.8932598 0.58590686 0
0.9247549 0.58235294 0
0.95392157 0.58014706 0
0.98272059 0.57414216 0
1 0.57438725 0
1 0.57254902 0
1 0.57254902 0
0 0.5252451 0
0 0.52530254 0
0 0.52536765 0
0 0.52531786 0
0 0.52477022 0
0.05612745 0.51883042 0
0.10428922 0.51740196 0
0.13646599 0.51237745 0
0.17447917 0.50572917 0
0.21727941 0.50958563 0
0.25633425 0.51356464 0
0.29604013 0.5188151 0
0.33435968 0.52536765 0
0.37721737 0.53309972 0
0.4127451 0.5392693 0
0.45538833 0.54509421 0
0.49810049 0.55471814 0
0.53712852 0.56066176 0
0.57769608 0.57016697 0
0.61875 0.58002451 0
0.67127757 0.60677083 0
0.70588235 0.61151961 0
0.74754902 0.61544118 0
0.78269378 0.61556373 0
0.8176777 0.61939338 0
0.84886259 0.61829427 0
0.88002451 0.61554075 0
0.91245787 0.61544118 0
0.94560355 0.61484375 0
0.97340686 0.60990349 0
1 0.60723805 0
1 0.60159314 0
1 0.59987745 0
0 0.55245098 0
0 0.55465686 0
0 0.55465686 0
0.00552237 0.55245098 0
0.05294118 0.54901961 0
0.09428615 0.54681373 0
0.12958027 0.54502145 0
0.15796569 0.54227175 0
0.190625 0.53547794 0
0.22352175 0.53332567 0
0.26269914 0.54015012 0
0.29953278 0.54316023 0
0.33740809 0.54788603 0
0.37720588 0.55465686 0
0.4127451 0.56078431 0
0.45348499 0.56647518 0
0.4932598 0.57426471 0
0.52916667 0.57990196 0
0.56717218 0.58973652 0
0.606947 0.59763327 0
0.64234069 0.60646446 0
0.68284314 0.62352941 0
0.73186275 0.63872549 0
0.76863511 0.6439951 0
0.80416667 0.64528186 0
0.83529412 0.64485294 0
0.86813725 0.64436275 0
0.89926471 0.64264706 0
0.93259804 0.64114583 0
0.96311275 0.63872549 0
0.99264706 0.63480392 0
1 0.63272059 0
1 0.62916667 0
0 0.58002451 0
0.02144608 0.58169041 0
0.04865196 0.58024663 0
0.07622549 0.57965686 0
0.10384498 0.57622549 0
0.13124617 0.57340303 0
0.15857843 0.57181373 0
0.17930836 0.5681564 0
0.20925245 0.5640625 0
0.23549709 0.56004902 0
0.26924786 0.56041667 0
0.3067402 0.56789216 0
0.342019 0.5720435 0
0.3807598 0.57610294 0
0.4127451 0.58202359 0
0.4547909 0.58786765 0
0.4903799 0.59393382 0
0.52571232 0.60009957 0
0.56045496 0.60903033 0
0.59926471 0.61887255 0
0.63431373 0.62463235 0
0.65919118 0.6310049 0
0.7141008 0.65601256 0
0.75522748 0.6660118 0
0.78958333 0.67012868 0
0.82179458 0.67022059 0
0.85667126 0.67088695 0
0.88908931 0.67144225 0
0.92210478 0.67022059 0
0.95171569 0.66789216 0
0.98161765 0.66629902 0
1 0.66218214 0
1 0.6620098 0
0.07254902 0.60294118 0
0.09722733 0.60801164 0
0.11004902 0.60548407 0
0.12670037 0.60539216 0
0.14705882 0.60508578 0
0.16507353 0.60062806 0
0.18651961 0.59782475 0
0.20477941 0.59644608 0
0.23186275 0.58970588 0
0.25330882 0.58639706 0
0.27913603 0.58287377 0
0.31495098 0.58970588 0
0.35055147 0.59362745 0
0.38481924 0.59768689 0
0.41666667 0.60367647 0
0.45272672 0.61073836 0
0.49019608 0.61593137 0
0.5252451 0.62487745 0
0.55744485 0.62754289 0
0.59008885 0.63520221 0
0.62647059 0.64307598 0
0.65343137 0.64852941 0
0.6921875 0.65713848 0
0.73374694 0.67725184 0
0.77696078 0.68872549 0
0.80850184 0.69208027 0
0.84341299 0.69586397 0
0.87657782 0.69705882 0
0.91078431 0.69705882 0
0.94191176 0.6964614 0
0.9752451 0.69543505 0
1 0.69428615 0
1 0.69068627 0
0.1254902 0.62745098 0
0.14301471 0.62928922 0
0.14901961 0.62745098 0
0.16237745 0.62745098 0
0.17598039 0.62352941 0
0.19093137 0.62095588 0
0.21421569 0.61960784 0
0.22573529 0.61568627 0
0.25294118 0.61470588 0
0.27144608 0.60784314 0
0.29289216 0.60514706 0
0.32279412 0.60784314 0
0.35539216 0.61176471 0
0.38897059 0.61568627 0
0.42058824 0.62181373 0
0.45894608 0.62745098 0
0.49019608 0.63137255 0
0.52144608 0.63541667 0
0.55637255 0.64313725 0
0.5875 0.65098039 0
0.62009804 0.65637255 0
0.64705882 0.6627451 0
0.68480392 0.67058824 0
0.71286765 0.67843137 0
0.75882353 0.69803922 0
0.79889706 0.70980392 0
0.83284314 0.71372549 0
0.86789216 0.71764706 0
0.90245098 0.71715686 0
0.9317402 0.71531863 0
0.96519608 0.71372549 0
0.99632353 0.71372549 0
1 0.71372549 0
0.18284314 0.65612745 0
0.19460784 0.65612745 0
0.20105699 0.65612745 0
0.21029412 0.65685509 0
0.22049632 0.65579044 0
0.23125 0.65127911 0
0.24658395 0.65001532 0
0.25955882 0.64752604 0
0.27959559 0.64234069 0
0.29801624 0.64139859 0
0.31680453 0.63690257 0
0.33723958 0.63424479 0
0.36960784 0.63897059 0
0.39829197 0.64191942 0
0.42896752 0.64710478 0
0.4629519 0.65220588 0
0.49411765 0.66004902 0
0.5252451 0.66384804 0
0.55519301 0.66789216 0
0.58613664 0.67548254 0
0.61816789 0.68189338 0
0.64191176 0.68627451 0
0.67657782 0.69310662 0
0.70745251 0.70137102 0
0.7379902 0.70618873 0
0.77585784 0.72046569 0
0.81985294 0.73821998 0
0.85570619 0.74497549 0
0.88759191 0.74411765 0
0.92230392 0.74705116 0
0.95605086 0.74747243 0
0.98782935 0.74689798 0
1 0.74632353 0
0.22573529 0.6814951 0
0.23501455 0.68293122 0
0.24037224 0.6814951 0
0.24534314 0.67990196 0
0.25307904 0.6779565 0
0.26573606 0.67701057 0
0.27671569 0.67352941 0
0.28920803 0.67193244 0
0.30404412 0.66973039 0
0.32089844 0.66513863 0
0.33698683 0.66188725 0
0.35403263 0.65796569 0
0.38051471 0.65988051 0
0.41127451 0.66495098 0
0.43675705 0.66753217 0
0.46688496 0.66985294 0
0.49454657 0.67604167 0
0.52823989 0.68446308 0
0.55599724 0.68713235 0
0.58635493 0.69289216 0
0.61470588 0.70056679 0
0.63921569 0.70502451 0
0.6720818 0.71132047 0
0.70110294 0.71678922 0
0.73137255 0.72463235 0
0.7625 0.73075597 0
0.79856771 0.74191176 0.0067019
0.84129902 0.76078431 0.02299326
0.87913603 0.767019 0
0.91139706 0.76993719 0
0.94357384 0.77188266 0
0.97855392 0.77169118 0
1 0.77083333 0
0.2627451 0.70490196 0.05
0.26960784 0.70392157 0.05196078
0.27352941 0.70490196 0.04901961
0.28079044 0.70566789 0.04803922
0.28615196 0.70392157 0.04154412
0.29641544 0.70033701 0.03526348
0.30710784 0.7 0.0286152
0.31706495 0.69705882 0.02156863
0.33063725 0.69607843 0.0129902
0.34705882 0.69445466 0.0046875
0.35882353 0.68915441 0.00030637
0.37760417 0.68679534 0
0.39411765 0.68284314 0
0.42095588 0.6872549 0
0.44473039 0.69007353 0
0.47561275 0.69509804 0
0.50441176 0.6995098 0
0.53014706 0.70284926 0.00098039
0.55900735 0.70784314 0.00392157
0.58581495 0.71265319 0.00677083
0.61421569 0.71960784 0.01470588
0.63627451 0.72352941 0.01960784
0.66887255 0.72977941 0.03137255
0.69653799 0.73529412 0.03921569
0.7245098 0.73995098 0.0502451
0.75563725 0.74623162 0.06066176
0.78284314 0.75153186 0.07015931
0.81884191 0.76234681 0.08262868
0.86409314 0.78223039 0.10343137
0.90269608 0.7919424 0.08318015
0.93480392 0.79411765 0.04442402
0.96887255 0.79601716 0.00974265
1 0.79803922 0
0.2997549 0.73112745 0.09865196
0.30477941 0.73112745 0.0997549
0.31127451 0.73095129 0.0997549
0.31311275 0.72945389 0.0969784
0.32032782 0.72830882 0.09240196
0.32758502 0.72830882 0.09191176
0.33823529 0.72667739 0.08688725
0.34589078 0.72407705 0.08186275
0.35870098 0.72046569 0.07300858
0.37230392 0.71936275 0.06703814
0.38556219 0.71619945 0.05475643
0.3985792 0.71213235 0.04264706
0.41311275 0.71046262 0.02737439
0.43466222 0.70880438 0.0245098
0.45759804 0.71262255 0.03198529
0.48532858 0.71927466 0.03875996
0.51317402 0.72328431 0.04797794
0.53709789 0.72447534 0.05548024
0.56373315 0.73174786 0.06459099
0.59042203 0.73578431 0.07093673
0.61715686 0.74007353 0.07728248
0.63921569 0.74681373 0.08688725
0.67181373 0.75183824 0.09507506
0.69780178 0.75638021 0.10281863
0.72564338 0.7625 0.11041667
0.75263097 0.76752451 0.11623392
0.78186275 0.77218137 0.12401961
0.81017157 0.77832031 0.13370098
0.84571078 0.78776042 0.14338235
0.88876762 0.80739507 0.16090686
0.92990196 0.81868107 0.15630362
0.95970818 0.8200023 0.1375
0.9932598 0.82352941 0.11997549
0.33088235 0.75441176 0.13872549
0.33664216 0.75441176 0.14115349
0.34191176 0.7569087 0.13897059
0.34394148 0.75441176 0.13683364
0.35039828 0.75431985 0.1354473
0.35550705 0.75158548 0.13113511
0.36271446 0.75035233 0.12769608
0.37209712 0.7497549 0.12675398
0.38406863 0.7473652 0.11911765
0.39640012 0.74583333 0.11449908
0.40758272 0.74214154 0.10539216
0.42157629 0.73872549 0.09694393
0.43455882 0.73679534 0.08848039
0.44816176 0.73406863 0.07997089
0.46968444 0.7365962 0.08561581
0.49818474 0.74193474 0.09168964
0.52193627 0.7442402 0.09791667
0.54499847 0.74656863 0.1002451
0.57034314 0.75367647 0.10948223
0.59859835 0.75759804 0.11875
0.62135417 0.76179534 0.12303922
0.64313725 0.76544118 0.12696078
0.67231924 0.77328431 0.13530944
0.69775582 0.77720588 0.14264706
0.72591912 0.78131127 0.14754902
0.75392157 0.78786765 0.15723039
0.78053002 0.79289216 0.1622549
0.80697763 0.79754902 0.16948529
0.83627451 0.80465686 0.17833946
0.86929381 0.81090686 0.18638174
0.91279105 0.83092831 0.20494792
0.95245098 0.84556526 0.21039369
0.98431373 0.84852941 0.20294118
0.36985294 0.78296569 0.18553922
0.37377451 0.78433287 0.18825444
0.37377451 0.7817019 0.18553922
0.37928922 0.78321078 0.18473882
0.38296569 0.78296569 0.18210784
0.38946078 0.78161765 0.18026961
0.39766391 0.7792739 0.17744332
0.40514706 0.78051471 0.17659314
0.41335784 0.77512255 0.16985294
