Kodak Converted/Kodak Portra 800 ++.cube
# Exported with LUT Lab 1.2.1
# LUTLab.com
TITLE Kodak Portra 800 4 ++
LUT_3D_SIZE 33
0.04705882 0.12941176 0.17254902
0.06458333 0.12941176 0.17647059
0.07426471 0.12941176 0.17254902
0.09963235 0.13333333 0.17647059
0.1245098 0.13284314 0.17598039
0.14779412 0.13333333 0.17647059
0.175 0.13333333 0.17573529
0.19546569 0.13333333 0.17254902
0.22941176 0.13431373 0.17254902
0.26360294 0.13639706 0.17561275
0.29681373 0.1372549 0.17377451
0.33455882 0.1372549 0.17254902
0.37598039 0.1372549 0.17107843
0.42426471 0.1372549 0.17218137
0.46593137 0.13333333 0.16862745
0.52193627 0.13333333 0.16470588
0.5745098 0.13333333 0.16470588
0.62328431 0.12953431 0.16090686
0.67965686 0.13333333 0.16078431
0.73970588 0.13688725 0.15686275
0.78872549 0.14117647 0.15147059
0.82745098 0.14509804 0.14901961
0.87696078 0.15686275 0.14117647
0.9120098 0.16470588 0.13419118
0.94411765 0.17745098 0.12941176
0.97426471 0.19105392 0.12438725
1 0.20539216 0.11764706
1 0.2247549 0.11115196
1 0.23970588 0.10147059
1 0.25723039 0.09411765
1 0.2745098 0.08602941
1 0.29019608 0.07634804
1 0.30980392 0.0627451
0.04497549 0.13517157 0.17647059
0.05955499 0.13614813 0.17647059
0.07794118 0.13897825 0.17622549
0.09839537 0.13909314 0.17438725
0.12477022 0.14117647 0.17647059
0.14644608 0.14046032 0.17391621
0.17107843 0.14078585 0.17254902
0.19355852 0.14059053 0.17254902
0.22647059 0.14163603 0.17300858
0.25891161 0.14347044 0.17300475
0.29558824 0.14366575 0.17254902
0.33300781 0.14477252 0.1722235
0.37666973 0.14578738 0.17254902
0.42071078 0.14509804 0.16862745
0.46501991 0.14590227 0.16862745
0.51807981 0.14307981 0.16477099
0.57058824 0.14301471 0.16470588
0.62316176 0.14301471 0.16078431
0.67745098 0.14392616 0.15686275
0.73411841 0.14693627 0.15294118
0.786106 0.15163909 0.14833027
0.82352941 0.15870098 0.14509804
0.87246477 0.16862745 0.13995098
0.90808824 0.17601486 0.13333333
0.94313725 0.19059436 0.12941176
0.97426471 0.20073529 0.12156863
1 0.21637561 0.1154182
1 0.23186275 0.10980392
1 0.24754902 0.101731
1 0.26458333 0.09362745
1 0.28039982 0.08407629
1 0.29620098 0.07548637
1 0.31556373 0.06090686
0.04313725 0.14117647 0.17647059
0.05501685 0.14129136 0.17647059
0.07034314 0.14485294 0.17622549
0.09595588 0.14892004 0.17497702
0.12107843 0.14877451 0.17598039
0.14403339 0.14636183 0.17254902
0.17107843 0.14808517 0.17553615
0.19154412 0.14877451 0.17254902
0.22555147 0.14901961 0.17254902
0.25680913 0.14901961 0.1727405
0.29306066 0.15294118 0.17262561
0.33377757 0.15273438 0.17197457
0.37352941 0.15284926 0.17015931
0.42071078 0.15661765 0.17252604
0.4620098 0.15280331 0.16642157
0.51801471 0.15305607 0.16482077
0.56691176 0.15477941 0.16470588
0.61924786 0.15662531 0.16079197
0.67758885 0.1584712 0.15710784
0.73245251 0.16411612 0.15296415
0.78342525 0.16838235 0.14754902
0.81985294 0.17254902 0.14509804
0.86659007 0.18154105 0.1385723
0.90703891 0.19105392 0.13333333
0.93927696 0.20079657 0.12830882
0.9705193 0.21433824 0.12156863
1 0.22794118 0.11671262
1 0.24178922 0.10612745
1 0.25903799 0.10125613
1 0.2728171 0.09019608
1 0.28650429 0.08233762
1 0.30391391 0.07242647
1 0.3252451 0.05882353
0.04546569 0.15294118 0.17879902
0.05490196 0.15378753 0.17964537
0.0665671 0.15686275 0.17661612
0.08881357 0.15845588 0.17647059
0.11724877 0.16217831 0.17254902
0.14332491 0.16182981 0.17254902
0.17151501 0.16108303 0.17473958
0.19366575 0.15845588 0.17254902
0.22647059 0.15943627 0.17254902
0.25696615 0.16237745 0.17254902
0.29326746 0.16237745 0.17254902
0.33321461 0.16629902 0.17254902
0.37438725 0.16530331 0.17095588
0.41889936 0.16840916 0.16862745
0.46331955 0.16830576 0.16773131
0.51409314 0.1701708 0.16470588
0.56666667 0.17022059 0.16078431
0.6192402 0.17414216 0.16078431
0.67876072 0.17585784 0.15686275
0.73223039 0.17821308 0.14916896
0.78480392 0.18678002 0.14696691
0.81960784 0.18982843 0.14117647
0.86911765 0.19999234 0.13652727
0.90541131 0.20857843 0.1310049
0.94096201 0.2176777 0.12490809
0.97214308 0.23186275 0.11989507
1 0.24154412 0.11109835
1 0.2564951 0.10435432
1 0.27107843 0.09644608
1 0.28394608 0.08786765
1 0.29987745 0.07828585
1 0.31471737 0.06865043
1 0.3310049 0.05490196
0.03921569 0.16421569 0.18039216
0.04938725 0.16421569 0.18039216
0.06295956 0.16467525 0.18036152
0.08002451 0.1698223 0.17815564
0.10238971 0.17205882 0.17346814
0.13995098 0.17598039 0.17254902
0.16724877 0.1760723 0.17264093
0.19140625 0.17584252 0.17290135
0.22291667 0.17291667 0.17254902
0.25661765 0.17598039 0.17254902
0.29166667 0.17833946 0.17254902
0.33030025 0.17895221 0.17159926
0.36991422 0.17990196 0.16991422
0.41367953 0.18071385 0.16907169
0.45836397 0.18431373 0.1666973
0.510769 0.1877451 0.16470588
0.5629902 0.18970588 0.1627451
0.6192402 0.1917739 0.15698529
0.67594975 0.1958027 0.15315564
0.73146446 0.20261949 0.15217525
0.78088235 0.20833333 0.14509804
0.81617647 0.21519608 0.14117647
0.86519608 0.22034314 0.13333333
0.90099571 0.23039216 0.12977941
0.93529412 0.23615196 0.12193627
0.96773897 0.24692096 0.11518076
0.99681373 0.25906863 0.10916054
0.99882047 0.27267157 0.10196078
1 0.28584559 0.09362745
1 0.30007659 0.08423713
1 0.31323529 0.07426471
1 0.32708333 0.06458333
1 0.34460784 0.04754902
0.03529412 0.17647059 0.18039216
0.04769072 0.17781863 0.18239124
0.05857843 0.17773438 0.18039216
0.0747549 0.18119256 0.18192019
0.09362745 0.1817402 0.17781863
0.12203202 0.18869868 0.17647059
0.16053922 0.19607843 0.17328431
0.18665365 0.19519761 0.17254902
0.22221201 0.19414828 0.17254902
0.25325904 0.1935049 0.17149586
0.2877451 0.1935049 0.17254902
0.3271178 0.19742647 0.17233839
0.36568627 0.19742647 0.16862745
0.41274127 0.20134804 0.16862745
0.4535769 0.20467984 0.1658318
0.50874311 0.20531173 0.16462546
0.56078431 0.2098652 0.16078431
0.61793428 0.21695389 0.15690487
0.67293964 0.22063419 0.15235141
0.72462852 0.22487745 0.14546569
0.77464767 0.2332261 0.14278493
0.81176471 0.2379902 0.13860294
0.85992647 0.24448529 0.13198529
0.89698606 0.25147059 0.12750077
0.93103554 0.26017157 0.12058824
0.96507353 0.26986443 0.11237745
0.99337469 0.28026195 0.1056296
1 0.29108073 0.09715456
1 0.30379902 0.08745404
1 0.31452589 0.07714844
1 0.32699908 0.06658241
1 0.3432598 0.0567402
1 0.35551471 0.03921569
0.03529412 0.19215686 0.18504902
0.04536612 0.19215686 0.18465839
0.0555913 0.19146752 0.18451287
0.0689951 0.19215686 0.18431373
0.08651961 0.19886642 0.18422181
0.1116345 0.20109528 0.1801394
0.14362745 0.20710784 0.17706801
0.17348346 0.21302849 0.17234222
0.21917892 0.21648284 0.17015931
0.25269608 0.21564798 0.1698989
0.2877451 0.21864277 0.17012868
0.32671569 0.21813725 0.16874234
0.36449142 0.2176777 0.16890319
0.40864737 0.21887255 0.16470588
0.45064338 0.2245864 0.16470588
0.50637255 0.23002451 0.16080729
0.5627451 0.23455882 0.15723039
0.61911765 0.24227941 0.15365349
0.67222733 0.2495098 0.15122549
0.72156863 0.25409773 0.14221048
0.77349877 0.26127451 0.13998162
0.81102941 0.26519608 0.13651961
0.85684743 0.27153799 0.12791054
0.89240196 0.27683824 0.12156863
0.92800245 0.28553922 0.11292892
0.9625 0.29546569 0.10641085
0.99229473 0.30514706 0.09803922
1 0.31556373 0.08835784
1 0.32515319 0.07907475
1 0.33811275 0.06869638
1 0.34833027 0.05837929
1 0.36004902 0.04348192
1 0.37892157 0.02745098
0.03137255 0.20612745 0.18933824
0.04203431 0.20671339 0.18882123
0.05465686 0.20612745 0.18933824
0.06781173 0.20612745 0.18721661
0.08432904 0.21004902 0.18788297
0.10355392 0.21324678 0.18431373
0.1314951 0.21789216 0.18202359
0.15814568 0.22370941 0.17836627
0.2122549 0.23823529 0.17365196
0.25159314 0.24252451 0.17230775
0.28576134 0.24164369 0.17056526
0.32578508 0.24252451 0.16862745
0.36351103 0.24076287 0.16645221
0.40612745 0.23997013 0.16726026
0.4508655 0.24596354 0.16422335
0.5101371 0.25155867 0.16074985
0.56164216 0.25821078 0.15686275
0.6141276 0.26213235 0.1518727
0.66740962 0.26997549 0.14730392
0.71936275 0.2748966 0.14107307
0.7676011 0.2817402 0.13333333
0.80281863 0.28566176 0.12941176
0.85004596 0.29438572 0.12404259
0.88761872 0.30073146 0.11678539
0.92270221 0.30625 0.10870098
0.95747549 0.31593137 0.10196078
0.98631281 0.32311581 0.09301471
1 0.33491498 0.08125
1 0.34387255 0.07230392
1 0.35514706 0.06098729
1 0.36691176 0.04835325
1 0.37534084 0.0310049
1 0.39044118 0.01348039
0.02058824 0.22941176 0.19215686
0.03183211 0.22941176 0.19215686
0.04681373 0.22941176 0.19215686
0.06041667 0.22766544 0.19215686
0.07794118 0.23026961 0.19252451
0.09681373 0.23367034 0.18924632
0.12107843 0.23823529 0.18504902
0.14586397 0.2432598 0.18360907
0.1872549 0.25294118 0.17745098
0.23143382 0.26283701 0.17484681
0.28382353 0.27647059 0.16862745
0.32340686 0.27662377 0.16568627
0.3692402 0.28039216 0.16470588
0.4125 0.28039216 0.16078431
0.45373775 0.28094363 0.1591299
0.50520833 0.28327206 0.15677083
0.55637255 0.28823529 0.15098039
0.61032475 0.29595588 0.14901961
0.66004902 0.30098039 0.14172794
0.71173407 0.31050858 0.13645833
0.75906863 0.31384804 0.13002451
0.79313725 0.31960784 0.12254902
0.84234069 0.3245098 0.11507353
0.88042279 0.33137255 0.10750613
0.91642157 0.33995098 0.09877451
0.95073529 0.34678309 0.09200368
0.98131127 0.35269608 0.08020833
1 0.3627451 0.07064951
1 0.37107843 0.0567402
1 0.3807598 0.04451593
1 0.3911152 0.02616422
1 0.40058211 0.01164216
1 0.41372549 0
0.00698529 0.24485294 0.19215686
0.02058824 0.25021063 0.19607843
0.03419118 0.24791667 0.19607843
0.05171569 0.24973575 0.19607843
0.06934743 0.24791667 0.19607843
0.09068627 0.25183824 0.19416743
0.11282935 0.25952053 0.19215686
0.13664216 0.26164216 0.1879902
0.17365196 0.27068015 0.18354779
0.21721431 0.28388097 0.17714078
0.26519608 0.29681373 0.17254902
0.32684972 0.31557521 0.16078431
0.36960784 0.31576287 0.15686275
0.41678922 0.31964997 0.15608532
0.45674786 0.3214614 0.15418199
0.51017157 0.32328431 0.15291437
0.55447304 0.32175245 0.1466299
0.60352711 0.32316176 0.14127221
0.65526961 0.33064491 0.1372549
0.70392157 0.3377451 0.12969899
0.75142463 0.34289216 0.12348346
0.78431373 0.34681373 0.11372549
0.83478094 0.35502451 0.10657169
0.87585784 0.36164216 0.10110294
0.90860907 0.3671875 0.08933824
0.94375383 0.37340686 0.07867647
0.97708333 0.38198529 0.06956955
1 0.38860294 0.05539216
1 0.39817708 0.03900123
1 0.40528876 0.02391621
1 0.4167356 0.0067402
1 0.42340686 0
1 0.44007353 0
0 0.27205882 0.19877451
0.00122549 0.27328431 0.19942555
0.01397059 0.27328431 0.1998315
0.03308824 0.27255668 0.1983992
0.05955882 0.27328431 0.2
0.08193168 0.27421109 0.19700521
0.10245098 0.27990196 0.19289216
0.12686121 0.28615196 0.19215686
0.16599265 0.29883578 0.18731618
0.20379902 0.30551471 0.18134957
0.24852941 0.31911765 0.17647059
0.30129442 0.33126532 0.16678922
0.37251838 0.3573223 0.15441176
0.41678922 0.35858609 0.14901961
0.46078431 0.36171875 0.14681373
0.51013327 0.36233915 0.14236366
0.55551471 0.3622549 0.13786765
0.60355392 0.36233915 0.13455882
0.64705882 0.36102941 0.12941176
0.6942402 0.36592371 0.12279412
0.74065564 0.3705576 0.11418505
0.77647059 0.37671569 0.10980392
0.82598039 0.38186275 0.09719669
0.86495098 0.38911612 0.08713235
0.90324755 0.39595588 0.07775735
0.93703278 0.40147059 0.06507353
0.96936275 0.40931373 0.05147059
0.99865196 0.41715686 0.03436734
1 0.42264093 0.01642157
1 0.43357077 0.00232077
1 0.4381587 0
1 0.44726562 0
1 0.45759804 0
0 0.29865196 0.2
0 0.30289905 0.20363434
0 0.30318627 0.20081955
0.00821078 0.30318627 0.20392157
0.0370098 0.30021446 0.20094975
0.06853937 0.30019148 0.20371094
0.09203431 0.30587469 0.2
0.11752451 0.31151961 0.19607843
0.1544424 0.32135417 0.19231005
0.1927811 0.33346737 0.18810126
0.23265165 0.34221048 0.18039216
0.28069087 0.35468367 0.16914445
0.33883272 0.36838235 0.1622549
0.41562117 0.39705882 0.14467295
0.4584329 0.40183824 0.1372549
0.51004902 0.40504366 0.13259804
0.55655637 0.40545343 0.12879902
0.60355392 0.40514706 0.12097503
0.6468367 0.40245098 0.11372549
0.69301471 0.40483686 0.10919118
0.73258272 0.40059743 0.10196078
0.76862745 0.40514706 0.09411765
0.82022059 0.41237745 0.08443627
0.86041667 0.41949678 0.0747549
0.89592525 0.42429534 0.06115196
0.93068704 0.43105469 0.04362745
0.9622549 0.43651961 0.02610294
0.99298024 0.44375 0.00817632
1 0.44918811 0
1 0.45809206 0
1 0.46417739 0
1 0.47328431 0
1 0.48357843 0
0 0.32647059 0.20392157
0 0.33223039 0.20507047
0 0.33063725 0.20392157
0 0.33126532 0.20392157
0.00257353 0.33039216 0.20606618
0.04273897 0.32988664 0.20476409
0.07815564 0.33158701 0.20364583
0.10286458 0.33583027 0.2
0.14068627 0.34656863 0.19607843
0.17965686 0.35625 0.19015012
0.21963848 0.3666973 0.18431373
0.26605392 0.38160233 0.17624081
0.31954657 0.39405637 0.165625
0.3754902 0.40696998 0.15280331
0.44525123 0.43342525 0.13170956
0.51017157 0.44803922 0.11911765
0.55686275 0.44803922 0.1125
0.60212929 0.44661458 0.10355392
0.6463848 0.44721201 0.0984375
0.68946078 0.4467065 0.09180453
0.73235294 0.44656863 0.08535539
0.7622549 0.44411765 0.07745098
0.80860907 0.44019608 0.06914828
0.84926471 0.44603248 0.0560815
0.88762255 0.45232843 0.03909314
0.92152267 0.45693934 0.01931679
0.95242034 0.4620098 0.00119485
0.98393076 0.46861213 0
1 0.47696078 0
1 0.48233762 0
1 0.49126838 0
0.9988511 0.49787071 0
1 0.50833333 0
0 0.35367647 0.20428922
0 0.36340763 0.20617724
0 0.36509651 0.20784314
0 0.36151961 0.20784314
0 0.36115196 0.20735294
0.00244332 0.35759804 0.20662148
0.0522595 0.35759804 0.20717678
0.08347503 0.36262255 0.20418581
0.12414216 0.37291667 0.19705882
0.1625 0.38190487 0.19244409
0.20527727 0.39289216 0.18835018
0.25152803 0.40490196 0.17983686
0.30110294 0.42020527 0.17009804
0.35726486 0.43536305 0.15975031
0.41078431 0.44791667 0.14460784
0.49327129 0.47476639 0.11373698
0.55508578 0.4911152 0.09356618
0.5997549 0.49094286 0.08210784
0.64812347 0.49313725 0.07598039
0.68909314 0.49093137 0.06596584
0.72976409 0.4870098 0.05795037
0.76078431 0.4870098 0.04987745
0.80526195 0.48197763 0.0361443
0.84134115 0.47916667 0.02357154
0.87610294 0.47879902 0.01004902
0.91115196 0.48272059 0
0.94620098 0.4915288 0
0.97732843 0.4960746 0
1 0.50314032 0
1 0.51038986 0
1 0.51801471 0
1 0.52401961 0
1 0.53333333 0
0 0.38357843 0.20612745
0 0.39001991 0.20693168
0 0.39289216 0.20784314
0 0.39023438 0.20784314
0 0.38728554 0.20811887
0 0.38588388 0.20860141
0.014231 0.38350184 0.20784314
0.05943627 0.38419118 0.2067402
0.10735294 0.39485294 0.20220588
0.14842218 0.40307138 0.19607843
0.19191176 0.41495098 0.19215686
0.23602941 0.42801777 0.18370098
0.28284314 0.4390625 0.17337623
0.33586857 0.45559896 0.16062347
0.38943015 0.46985294 0.14901961
0.45656403 0.48517157 0.12757353
0.53492647 0.51482843 0.09117647
0.59963235 0.52867647 0.05791207
0.64532782 0.53135723 0.04387255
0.68709406 0.52867647 0.03010876
0.72843137 0.52720588 0.01887255
0.76078431 0.5247549 0.00857843
0.80568321 0.52132353 0.00289522
0.83932292 0.5173943 0
0.87426471 0.51427696 0
0.90697763 0.5129902 0
0.94011949 0.51502757 0
0.97156863 0.52291667 0
0.99806985 0.52818627 0
1 0.53312653 0
1 0.54008885 0
1 0.54698989 0
1 0.55563725 0
0 0.41973039 0.21164216
0 0.4255553 0.20962393
0 0.42412684 0.20819547
0 0.42377451 0.2079159
0 0.42375919 0.21174939
0 0.41985294 0.20922947
0 0.41982996 0.21102941
0.00982307 0.41593137 0.2078776
0.07925858 0.42279412 0.20401348
0.12794118 0.43247549 0.20012255
0.17267157 0.44476869 0.19607843
0.21738281 0.45574066 0.18762255
0.26605392 0.4692402 0.17801777
0.31518459 0.48284314 0.16481694
0.36605392 0.49478401 0.15257353
0.43149893 0.51016774 0.1333295
0.4939951 0.52769608 0.10992647
0.56752834 0.55257736 0.06751685
0.64429381 0.57670037 0
0.68517157 0.57280561 0
0.72830882 0.57279412 0
0.75686275 0.5689951 0
0.80232843 0.56764706 0
0.83440947 0.56115196 0
0.86862745 0.55723039 0
0.902608 0.55714231 0
0.93088235 0.55320925 0
0.96192938 0.55188036 0
0.99252451 0.55698529 0
1 0.56328508 0
1 0.56519608 0
1 0.57279412 0
1 0.58443627 0
0 0.45490196 0.21176471
0 0.45882353 0.21176471
0 0.45882353 0.21176471
0 0.45606618 0.20980392
0 0.45514706 0.21004902
0 0.4536152 0.21176471
0 0.4497549 0.20857843
0 0.44846814 0.21035539
0.04264706 0.4504902 0.20980392
0.10104167 0.45729167 0.20349265
0.15183824 0.46801471 0.19803922
0.19987745 0.48039216 0.19154412
0.24534314 0.49142157 0.18112745
0.29718137 0.50606618 0.17040441
0.34742647 0.51789216 0.16029412
0.40821078 0.53339461 0.13915441
0.46862745 0.54901961 0.11960784
0.53094363 0.5627451 0.08658088
0.60355392 0.58553922 0.02892157
0.68321078 0.61354167 0
0.7245098 0.61495098 0
0.75490196 0.60980392 0
0.79791667 0.60723039 0
0.83204657 0.60238971 0
0.86666667 0.60147059 0
0.89779412 0.59803922 0
0.92855392 0.59411765 0
0.95808824 0.59215686 0
0.98504902 0.59019608 0
1 0.58823529 0
1 0.5942402 0
1 0.60104167 0
1 0.60588235 0
0 0.48210784 0.21176471
0 0.48786765 0.2116996
0 0.48971354 0.21176471
0 0.48615196 0.21176471
0 0.48946078 0.21508885
0 0.48602941 0.21176471
0 0.48213082 0.21176471
0 0.48091682 0.21176471
0.00018382 0.47438725 0.21176471
0.07331112 0.48602941 0.20784314
0.12977941 0.4939568 0.20118719
0.17912837 0.50314798 0.19285386
0.22855392 0.51597733 0.18578431
0.27966835 0.5295458 0.17599188
0.32708333 0.54147518 0.16416207
0.38884421 0.55685892 0.14509421
0.44718137 0.57052696 0.12738971
0.50575597 0.5843099 0.09828431
0.57169118 0.60373009 0.06127451
0.63822381 0.61935126 0.00071232
0.71976103 0.65228248 0
0.75294118 0.65061275 0
0.79721967 0.64677543 0
0.8297526 0.64289216 0
0.86470588 0.64276961 0
0.89583333 0.63777956 0
0.92313879 0.63122702 0
0.95416667 0.63112745 0
0.98469669 0.63053002 0
1 0.62720588 0
1 0.62684589 0
1 0.62340686 0
1 0.63125 0
0 0.51323529 0.21176471
0 0.52211244 0.21397059
0 0.52107843 0.21187194
0 0.52107843 0.21348039
0 0.51914828 0.21375613
0 0.51715686 0.21252298
0 0.51536458 0.213894
0 0.51323529 0.21383272
0 0.50974265 0.21219363
0.02009038 0.51017157 0.21176471
0.10387561 0.52107843 0.20632659
0.16090686 0.53139553 0.19965533
0.21127451 0.54313725 0.18995098
0.26568627 0.55481771 0.18002451
0.31223958 0.56567096 0.16910233
0.37120098 0.58216146 0.15274969
0.42769608 0.59473039 0.13333333
0.48419118 0.60735294 0.10784314
0.54632353 0.62378983 0.07478554
0.61078431 0.64040288 0.0185049
0.67322304 0.65435049 0
0.73995098 0.67843137 0
0.79240196 0.68357843 0
0.82879902 0.68186275 0
0.86078431 0.67794118 0
0.89191176 0.67401961 0
0.92083333 0.67181373 0
0.9502451 0.66789216 0
0.97573529 0.66617647 0
1 0.6629519 0
1 0.66018689 0
1 0.65913756 0
1 0.65833333 0
0 0.55257353 0.21531863
0 0.55779335 0.21549096
0 0.55612745 0.21235447
0 0.55597809 0.21553692
0 0.55269608 0.2122549
0 0.54950597 0.21298637
0 0.55183824 0.21568627
0 0.54718137 0.21458333
0 0.54436275 0.21452206
0 0.54044118 0.21531863
0.06556373 0.54853707 0.20906863
0.13946078 0.56004902 0.20355392
0.19581801 0.56812194 0.19348958
0.24852941 0.58002451 0.18394608
0.29595588 0.59207261 0.1740579
0.35724188 0.60711933 0.16018306
0.41213235 0.6192402 0.13921569
0.46666667 0.63099341 0.11788067
0.52708333 0.64448529 0.08660386
0.58746553 0.66197534 0.0435049
0.64583333 0.6730239 0
0.69485294 0.68198529 0
0.78224571 0.71483609 0
0.82581572 0.71776961 0
0.85980392 0.71593137 0
0.88935738 0.71043581 0
0.91911765 0.70906863 0
0.94754519 0.70636872 0
0.97308517 0.70433517 0
0.99840686 0.69911535 0
1 0.69730392 0
1 0.69355469 0
1 0.69338235 0
0 0.58333333 0.21323529
0 0.59117647 0.21568627
0 0.59117647 0.21568627
0 0.59030331 0.21568627
0 0.5872549 0.21568627
0 0.58590686 0.21484375
0 0.58406863 0.21568627
0 0.58291973 0.21527267
0 0.57941176 0.21568627
0 0.57663909 0.21568627
0.01314338 0.57717525 0.21176471
0.11323529 0.5872549 0.20723039
0.17751225 0.5966299 0.19810049
0.23469669 0.60945159 0.19022672
0.28318015 0.61829044 0.17882966
0.34149816 0.63046875 0.16363358
0.39656863 0.64338235 0.14779412
0.45306373 0.65772059 0.1310049
0.50818015 0.66847426 0.10171569
0.56582414 0.67967218 0.06508885
0.62401961 0.69405637 0.00428922
0.67156863 0.70343137 0
0.73946078 0.71697304 0
0.80952819 0.74338235 0
0.8557598 0.74865196 0
0.88517157 0.74698223 0
0.91519608 0.74411765 0
0.94324449 0.7410386 0
0.96911765 0.73627451 0
0.99289216 0.7332261 0
1 0.73210784 0
1 0.72958027 0
1 0.72843137 0
0 0.61568627 0.21568627
0 0.61960784 0.21752451
0 0.61960784 0.21568627
0 0.61960784 0.21568627
0 0.61568627 0.21568627
0 0.61568627 0.21568627
0 0.61568627 0.21887255
0 0.61176471 0.21568627
0 0.61078431 0.21568627
0 0.60784314 0.21568627
0 0.60392157 0.21568627
0.08933824 0.61237745 0.21115196
0.16421569 0.61960784 0.20147059
0.22071078 0.63137255 0.19178922
0.27205882 0.63970588 0.18210784
0.33370098 0.65490196 0.17230392
0.38627451 0.66470588 0.15490196
0.43897059 0.6745098 0.13357843
0.49534314 0.6879902 0.1120098
0.55183824 0.69803922 0.08308824
0.60980392 0.71127451 0.02941176
0.65490196 0.71764706 0
0.72132353 0.73333333 0
0.77389706 0.74117647 0
0.84215686 0.76960784 0
0.88125 0.77254902 0
0.91127451 0.76862745 0
0.93982843 0.76862745 0
0.96519608 0.76421569 0
0.99056373 0.76078431 0
1 0.75686275 0
1 0.75294118 0
1 0.75294118 0
0 0.65735294 0.21960784
0 0.66127451 0.21960784
0 0.66127451 0.21960784
0 0.66127451 0.22033548
0 0.66020221 0.21960784
0 0.65735294 0.21868107
0 0.65516238 0.21741728
0 0.65343137 0.21884957
0 0.65110294 0.21727941
0 0.65046722 0.21960784
0 0.64866728 0.21876532
0.04558824 0.64723499 0.21672028
0.14436275 0.65689338 0.21007966
0.20919884 0.66544884 0.2011106
0.26181066 0.67337623 0.19200368
0.32189798 0.68488817 0.1814568
0.37720588 0.69791667 0.16789216
0.42977941 0.70698529 0.15032935
0.48357843 0.71617647 0.12892157
0.53859528 0.72890625 0.10611213
0.5921875 0.73848039 0.06862745
0.63406863 0.74632353 0.01936275
0.70010723 0.75893076 0
0.75183824 0.76803768 0
0.80171569 0.7747549 0
0.85980392 0.79193474 0
0.90735294 0.80637255 0
0.93805913 0.80595129 0
0.96176471 0.80245098 0
0.98664216 0.79852941 0
1 0.79453125 0
1 0.79195006 0
1 0.78946078 0
0 0.6932598 0.22352941
0 0.69775965 0.22496553
0 0.69632353 0.22659314
0 0.69473039 0.22352941
0 0.69546569 0.22342218
0 0.69576057 0.22603018
0 0.69170496 0.22283241
0 0.69068244 0.22291284
0 0.6861826 0.22123162
0 0.6878102 0.22285922
0 0.68245251 0.22056526
0.01176471 0.68063725 0.22094439
0.13022365 0.68509498 0.21629902
0.20147059 0.69632353 0.21053922
0.25465686 0.70245098 0.20085784
0.31409314 0.71203661 0.18820849
0.36709559 0.72071078 0.17604167
0.42306602 0.73152191 0.16387485
0.47401195 0.74165901 0.14644608
0.5280216 0.75093827 0.12422258
0.57973346 0.75939032 0.09730392
0.62046569 0.76776961 0.06495098
0.68296569 0.77798713 0
0.73468137 0.78651961 0
0.78419118 0.79598652 0
0.83222656 0.80306373 0
0.88500306 0.81891085 0
0.93284314 0.83387331 0
0.96014093 0.83244485 0
0.98198529 0.82659314 0
1 0.82286305 0
1 0.82018612 0
1 0.81789216 0
0 0.72941176 0.23235294
0 0.73137255 0.23235294
0 0.72941176 0.23235294
0 0.7301777 0.23235294
0 0.72879902 0.23235294
0 0.72778799 0.23170956
0 0.72745098 0.23155637
0 0.7245098 0.23023897
0 0.7245098 0.23088235
0 0.72365196 0.2314951
0 0.7185049 0.22935049
0.00520833 0.71914828 0.22843137
0.12696078 0.71813725 0.22843137
0.19816176 0.72362132 0.22022059
0.25300245 0.73192402 0.21237745
0.31495098 0.74209559 0.2046875
0.36715686 0.7504902 0.19313725
0.41629902 0.75490196 0.17757353
0.46887255 0.76666667 0.16397059
0.52144608 0.77539828 0.14742647
0.57193627 0.78235294 0.1245098
0.61176471 0.79019608 0.10098039
0.67009804 0.79803922 0.04546569
0.71920956 0.80523897 0.00021446
0.76691176 0.81372549 0
0.81265319 0.82046569 0
0.85692402 0.82622549 0
0.9044424 0.84077819 0
0.95392157 0.85723039 0
0.98112745 0.85588235 0
1 0.85275735 0
1 0.84745711 0
1 0.84509804 0
0 0.76531863 0.24203431
0 0.76642157 0.24595588
0 0.76642157 0.24577972
0 0.76642157 0.24595588
0 0.76360294 0.24313725
0 0.76360294 0.24313725
0 0.7625 0.24432445
0 0.7625 0.24282705
0 0.75940564 0.24286152
0 0.75857843 0.24203431
0 0.75735294 0.24203431
0.02652037 0.75465686 0.23872549
0.13811275 0.75359988 0.24097733
0.20512791 0.7557598 0.23392693
0.25981158 0.76188725 0.22806373
0.32074525 0.7703776 0.2185049
0.37003676 0.77818627 0.21011029
0.41932828 0.78317632 0.19898514
