Kodak Converted/Kodak Elite Chrome 400.cube
# Exported with LUT Lab 1.2.1
# LUTLab.com
TITLE Kodak Elite Chrome 400
LUT_3D_SIZE 5
0 0 0
0.13235294 0 0
0.37254902 0.01176471 0
0.66372549 0.04411765 0
0.91372549 0.08235294 0
0.12058824 0.19411765 0.0627451
0.21372549 0.18235294 0.05
0.45637255 0.16127451 0.01715686
0.70220588 0.10465686 0
0.92941176 0.08235294 0
0.21960784 0.50980392 0.16078431
0.33578431 0.50980392 0.14901961
0.55784314 0.50490196 0.11176471
0.77009804 0.45 0.04019608
0.98627451 0.26078431 0
0.47254902 0.76568627 0.34313725
0.52156863 0.76666667 0.33137255
0.65 0.77058824 0.28382353
0.83235294 0.77058824 0.16495098
1 0.73529412 0.00784314
0.70980392 0.99607843 0.56470588
0.73333333 1 0.56078431
0.8 1 0.54509804
0.91470588 1 0.49803922
1 1 0.25882353
0 0 0.12058824
0.10490196 0 0.09313725
0.36078431 0.00784314 0.05196078
0.66470588 0.04313725 0
0.92156863 0.08235294 0
0.09877451 0.19803922 0.20269608
0.18762255 0.18627451 0.18645833
0.44215686 0.16323529 0.14362745
0.69080882 0.10465686 0.05759804
0.93627451 0.08235294 0
0.17892157 0.50588235 0.30686275
0.30723039 0.50588235 0.29509804
0.53823529 0.50196078 0.25343137
0.75526961 0.45551471 0.15882353
0.98627451 0.27254902 0.00735294
0.45294118 0.75882353 0.45882353
0.50238971 0.76176471 0.45098039
0.63039216 0.7627451 0.42156863
0.8129902 0.7627451 0.34019608
1 0.72843137 0.08602941
0.70196078 0.99215686 0.62745098
0.7254902 0.99607843 0.62279412
0.79215686 1 0.60931373
0.90392157 1 0.57156863
1 1 0.42156863
0 0 0.31960784
0.06519608 0 0.29411765
0.32843137 0 0.25490196
0.64117647 0.01960784 0.16372549
0.92156863 0.07647059 0.00392157
0.05833333 0.19803922 0.42696078
0.15098039 0.19019608 0.41862745
0.40441176 0.1627451 0.38651961
0.65796569 0.09681373 0.30784314
0.91568627 0.06078431 0.11862745
0.08235294 0.49803922 0.52058824
0.24852941 0.4995098 0.51666667
0.49803922 0.49803922 0.49754902
0.71617647 0.45588235 0.44901961
0.95196078 0.27058824 0.28529412
0.41715686 0.75490196 0.6122549
0.46948529 0.75490196 0.60833333
0.60196078 0.75784314 0.59485294
0.78272059 0.75098039 0.56090686
0.99754902 0.70784314 0.45588235
0.69019608 0.98823529 0.74313725
0.71372549 0.98823529 0.74117647
0.77843137 0.99607843 0.73137255
0.8872549 1 0.70784314
1 1 0.60980392
0 0 0.55098039
0.01176471 0 0.54607843
0.27009804 0 0.53039216
0.58627451 0 0.48823529
0.87352941 0.02647059 0.34901961
0.01397059 0.22156863 0.62745098
0.09368873 0.21096814 0.62377451
0.35747549 0.18284314 0.6120098
0.61703431 0.10018382 0.5817402
0.85882353 0.01176471 0.50294118
0 0.50196078 0.69901961
0.14742647 0.50392157 0.69595588
0.45269608 0.50490196 0.68651961
0.68026961 0.47205882 0.66384804
0.91176471 0.29019608 0.6
0.35882353 0.75098039 0.7745098
0.42034314 0.75392157 0.77352941
0.5627451 0.75490196 0.76666667
0.7502451 0.75073529 0.7502451
0.96789216 0.70392157 0.69607843
0.67352941 0.98039216 0.87058824
0.69411765 0.98259804 0.86764706
0.76078431 0.98823529 0.86372549
0.86764706 0.99607843 0.85514706
1 1 0.80490196
0 0.00392157 0.74117647
0 0 0.7372549
0.21764706 0 0.73333333
0.53921569 0 0.71372549
0.82352941 0 0.6627451
0 0.27254902 0.80784314
0.03112745 0.26078431 0.80784314
0.2872549 0.2372549 0.80392157
0.58063725 0.15392157 0.79215686
0.81568627 0 0.75588235
0 0.51568627 0.87058824
0 0.51764706 0.87058824
0.37941176 0.52352941 0.86666667
0.63333333 0.50196078 0.85882353
0.88235294 0.35686275 0.83529412
0.23823529 0.75490196 0.93333333
0.32647059 0.75784314 0.93333333
0.49705882 0.76176471 0.93039216
0.70318627 0.75882353 0.92941176
0.93333333 0.71960784 0.91078431
0.63529412 0.96862745 1
0.66176471 0.96862745 1
0.73137255 0.97647059 1
0.84019608 0.98529412 1
1 1 1
