Kodak Converted/Kodak Elite Chrome 400.cube
# Exported with LUT Lab 1.2.1
# LUTLab.com
TITLE Kodak Elite Chrome 400
LUT_3D_SIZE 9
0 0 0
0.05441176 0 0
0.13235294 0 0
0.23627451 0.00392157 0
0.37254902 0.01176471 0
0.54019608 0.02745098 0
0.66372549 0.04411765 0
0.78529412 0.0627451 0
0.91372549 0.08235294 0
0.04656863 0.08529412 0.01568627
0.09705882 0.07794118 0.01127451
0.175 0.07401961 0.00735294
0.28069853 0.07009804 0
0.41568627 0.06176471 0
0.56354167 0.03872549 0
0.67647059 0.04705882 0
0.79705882 0.06323529 0
0.91764706 0.08235294 0
0.12058824 0.19411765 0.0627451
0.14803922 0.19019608 0.05882353
0.21372549 0.18235294 0.05
0.32193627 0.1745098 0.03468137
0.45637255 0.16127451 0.01715686
0.59301471 0.13982843 0.00183824
0.70220588 0.10465686 0
0.80882353 0.06666667 0
0.92941176 0.08235294 0
0.13186275 0.34068627 0.1122549
0.17843137 0.33823529 0.10833333
0.26421569 0.33431373 0.1004902
0.37598039 0.32738971 0.08535539
0.50980392 0.31397059 0.06323529
0.62800245 0.28278186 0.03082108
0.73321078 0.23590686 0.00392157
0.84393382 0.17303922 0
0.94509804 0.08627451 0
0.21960784 0.50980392 0.16078431
0.25661765 0.50980392 0.15710784
0.33578431 0.50980392 0.14901961
0.44362745 0.50980392 0.13406863
0.55784314 0.50490196 0.11176471
0.6629902 0.48676471 0.08161765
0.77009804 0.45 0.04019608
0.88308824 0.38382353 0.00171569
0.98627451 0.26078431 0
0.36372549 0.64068627 0.24215686
0.3872549 0.64215686 0.24068627
0.44117647 0.64215686 0.22892157
0.51617647 0.64215686 0.20931373
0.60073529 0.64215686 0.1747549
0.69613971 0.63823529 0.13033088
0.80134804 0.63039216 0.08921569
0.91207108 0.61047794 0.03480392
1 0.54705882 0
0.47254902 0.76568627 0.34313725
0.4872549 0.76666667 0.33958333
0.52156863 0.76666667 0.33137255
0.57598039 0.76960784 0.31286765
0.65 0.77058824 0.28382353
0.73578431 0.77058824 0.23970588
0.83235294 0.77058824 0.16495098
0.93786765 0.7627451 0.07009804
1 0.73529412 0.00784314
0.57303922 0.87941176 0.45539216
0.58137255 0.87941176 0.45196078
0.60870098 0.88284314 0.44754902
0.65392157 0.88333333 0.43627451
0.7122549 0.8872549 0.41666667
0.78235294 0.89117647 0.38400735
0.86372549 0.89509804 0.32598039
0.95741422 0.89852941 0.21617647
1 0.89509804 0
0.70980392 0.99607843 0.56470588
0.71715686 0.99607843 0.56470588
0.73333333 1 0.56078431
0.76078431 1 0.55441176
0.8 1 0.54509804
0.85245098 1 0.52794118
0.91470588 1 0.49803922
0.98872549 1 0.44656863
1 1 0.25882353
0 0 0.0504902
0.03872549 0 0.03480392
0.11666667 0 0.02316176
0.22469363 0 0.01176471
0.36862745 0.01176471 0.00343137
0.54019608 0.02745098 0
0.66727941 0.04411765 0
0.78921569 0.0627451 0
0.91764706 0.08235294 0
0.03872549 0.08529412 0.08921569
0.08137255 0.08137255 0.08137255
0.16237745 0.07401961 0.06960784
0.27107843 0.07009804 0.05392157
0.40738358 0.0620098 0.03066789
0.55935202 0.04246324 0.00782016
0.68026961 0.04705882 0
0.80098039 0.06323529 0
0.92156863 0.08235294 0
0.1127451 0.19411765 0.12401961
0.13976716 0.19106924 0.12009804
0.2020527 0.18627451 0.10836397
0.31377145 0.1754902 0.09264706
0.45006127 0.1627451 0.06917892
0.58688725 0.13982843 0.03443627
0.69828431 0.10686275 0.00392157
0.8127451 0.06666667 0
0.93321078 0.08235294 0
0.1122549 0.34215686 0.1627451
0.1627451 0.3408701 0.15882353
0.25543811 0.33676471 0.15098039
0.36813725 0.33039216 0.13395374
0.50441176 0.31593137 0.10882353
0.62225797 0.28566942 0.07566636
0.72928922 0.23921569 0.0323989
0.84264706 0.17696078 0
0.94509804 0.08627451 0
0.20441176 0.50588235 0.21323529
0.24656863 0.50958946 0.20931373
0.32604167 0.50980392 0.20110294
0.4359375 0.50980392 0.18155637
0.55196078 0.50490196 0.15355392
0.65710784 0.48823529 0.12058824
0.76617647 0.45245098 0.07898284
0.87962623 0.3875 0.02107843
0.98823529 0.26666667 0
0.35588235 0.63823529 0.29246324
0.37941176 0.63823529 0.28872549
0.43363971 0.64068627 0.27941176
0.50980392 0.64215686 0.26219363
0.59494485 0.6408701 0.23284314
0.6901348 0.63823529 0.18609835
0.79549632 0.63039216 0.1254902
0.90814951 0.61029412 0.06742494
1 0.54705882 0.00128676
0.46507353 0.7627451 0.38884804
0.48026961 0.7627451 0.3850337
0.51470588 0.76568627 0.37729779
0.57152267 0.76666667 0.36164216
0.64215686 0.76666667 0.33431373
0.72904412 0.76973039 0.29411765
0.82622549 0.76666667 0.22987132
0.93049939 0.75882353 0.11017157
1 0.73529412 0.02316176
0.56911765 0.87941176 0.48235294
0.57782629 0.87941176 0.47892157
0.60479473 0.87941176 0.47457108
0.65 0.88333333 0.46366422
0.70833333 0.88676471 0.44776348
0.77796415 0.88741575 0.42228094
0.85647978 0.89117647 0.37555147
0.95042892 0.89509804 0.2783701
1 0.89117647 0.00435049
0.70588235 0.99607843 0.5877451
0.71372549 0.99607843 0.58431373
0.72941176 0.99607843 0.58039216
0.75931373 1 0.57598039
0.79803922 1 0.56470588
0.84852941 1 0.54883578
0.91078431 1 0.52414216
0.98480392 1 0.47745098
1 1 0.32058824
0 0 0.12058824
0.02696078 0 0.10490196
0.10490196 0 0.09313725
0.21482843 0 0.07352941
0.36078431 0.00784314 0.05196078
0.53272059 0.01997549 0.0192402
0.66470588 0.04313725 0
0.79313725 0.0627451 0
0.92156863 0.08235294 0
0.02696078 0.08578431 0.16629902
0.06960784 0.08137255 0.15588235
0.1479473 0.07401961 0.14402574
0.25957414 0.07009804 0.12740502
0.39957108 0.0620098 0.10073529
0.55196078 0.04264706 0.06518076
0.67245711 0.0370098 0.02129289
0.80098039 0.06286765 0
0.9254902 0.08235294 0
0.09877451 0.19803922 0.20269608
0.12806373 0.19411765 0.19803922
0.18762255 0.18627451 0.18645833
0.3020527 0.17843137 0.17012868
0.44215686 0.16323529 0.14362745
0.57913603 0.13982843 0.10637255
0.69080882 0.10465686 0.05759804
0.80882353 0.05894608 0.0064951
0.93627451 0.08235294 0
0.08051471 0.34460784 0.24963235
0.13529412 0.34215686 0.24571078
0.23602941 0.33823529 0.23630515
0.35281863 0.33039216 0.22023591
0.49301471 0.31789216 0.19313725
0.61277574 0.28878676 0.15647978
0.72159926 0.24166667 0.10637255
0.83609069 0.17696078 0.04116115
0.94901961 0.08872549 0
0.17892157 0.50588235 0.30686275
0.22303922 0.50588235 0.30588235
0.30723039 0.50588235 0.29509804
0.4216299 0.50588235 0.27941176
0.53823529 0.50196078 0.25343137
0.64387255 0.48823529 0.21237745
0.75526961 0.45551471 0.15882353
0.87199755 0.39142157 0.09387255
0.98627451 0.27254902 0.00735294
0.33627451 0.63431373 0.38198529
0.36323529 0.63431373 0.37990196
0.4182598 0.63630515 0.37215074
0.49411765 0.63823529 0.35651042
0.58161765 0.63676471 0.33014706
0.67699142 0.63390012 0.29252451
0.78354779 0.62564338 0.23529412
0.89871324 0.6064185 0.14375
1 0.5495098 0.04718137
0.45294118 0.75882353 0.45882353
0.46786152 0.75882353 0.45594363
0.50238971 0.76176471 0.45098039
0.55762868 0.7627451 0.43949142
0.63039216 0.7627451 0.42156863
0.71645221 0.7627451 0.39224877
0.8129902 0.7627451 0.34019608
0.91835172 0.75453431 0.25
1 0.72843137 0.08602941
0.56127451 0.8754902 0.53026961
0.57035846 0.8754902 0.52892157
0.59761029 0.87892157 0.525
0.64215686 0.87941176 0.51720282
0.7004902 0.88333333 0.50539216
0.76752451 0.88676471 0.48609069
0.84806985 0.8872549 0.45456495
0.93834252 0.8872549 0.39068627
1 0.88333333 0.21029412
0.70196078 0.99215686 0.62745098
0.70980392 0.99215686 0.62647059
0.7254902 0.99607843 0.62279412
0.75294118 0.99607843 0.61862745
0.79215686 1 0.60931373
0.8435049 1 0.59509804
0.90392157 1 0.57156863
0.97696078 1 0.53186275
1 1 0.42156863
0 0 0.21029412
0.01519608 0 0.19313725
0.08676471 0 0.17892157
0.19944853 0 0.16231618
0.34901961 0.00392157 0.1370098
0.5245098 0.01323529 0.09810049
0.65686275 0.0317402 0.04914216
0.79313725 0.05882353 0.00373775
0.9254902 0.08235294 0
0.0153799 0.08529412 0.26341912
0.05392157 0.07794118 0.25573683
0.12931985 0.07352941 0.24413297
0.24369638 0.06617647 0.22801011
0.38495711 0.05833333 0.20137868
0.54019608 0.04246324 0.16219363
0.66078431 0.02745098 0.10949755
0.79313725 0.05275735 0.04068627
0.92941176 0.08235294 0
0.08137255 0.19803922 0.30625
0.11064645 0.19411765 0.30232843
0.17058824 0.18651961 0.29273897
0.28295037 0.17843137 0.27728248
0.42665441 0.16323529 0.253125
0.56441483 0.13811275 0.21435355
0.67867647 0.10318627 0.16060049
0.79705882 0.05098039 0.08786765
0.93333333 0.07843137 0.00392157
0.05637255 0.34607843 0.35784314
0.09454657 0.34460784 0.35484069
0.2073223 0.34068627 0.34699755
0.33284314 0.33284314 0.33284314
0.47696078 0.31862745 0.30931373
0.59731924 0.28970588 0.27401961
0.70747549 0.24166667 0.22205882
0.82439491 0.17597273 0.14803922
0.94025735 0.08333333 0.03872549
0.13676471 0.50073529 0.41862745
0.18848039 0.50196078 0.41617647
0.28161765 0.50196078 0.41078431
0.40003064 0.50196078 0.39748775
0.51936275 0.49840686 0.3754902
0.62601103 0.48581495 0.34264706
0.73890931 0.45588235 0.29387255
0.85652574 0.39166667 0.21920956
0.9745098 0.2745098 0.10490196
0.31121324 0.63039216 0.47843137
0.33970588 0.63039216 0.4778799
0.3971201 0.63039216 0.47303922
0.47508425 0.63284314 0.46331955
0.56375613 0.63039216 0.44828431
0.65876225 0.62647059 0.42240349
0.76605392 0.61801471 0.38094363
0.87922028 0.59859835 0.30618107
1 0.54558824 0.16715686
0.43664216 0.75784314 0.53284314
0.45228248 0.75784314 0.53284314
0.48707108 0.75882353 0.52892157
0.54460784 0.75882353 0.52107843
0.61599265 0.75882353 0.51023284
0.70242034 0.75882353 0.49348958
0.79715074 0.75490196 0.46409314
0.8993413 0.74313725 0.40917586
1 0.71960784 0.27144608
0.54969363 0.875 0.59509804
0.55896906 0.875 0.59509804
0.58625919 0.8754902 0.59117647
0.63057598 0.87892157 0.58351716
0.68872549 0.87941176 0.5754902
0.75882353 0.88284314 0.55980392
0.83676471 0.88333333 0.53627451
0.92604167 0.87941176 0.49656863
1 0.87156863 0.39234069
0.69803922 0.99215686 0.68480392
0.70324755 0.99215686 0.68088235
0.72058824 0.99215686 0.68088235
0.74754902 0.99607843 0.67542892
0.78627451 0.99803922 0.66911765
0.83529412 1 0.65643382
0.89509804 1 0.63676471
0.96911765 1 0.60196078
1 1 0.51617647
0 0 0.31960784
0.00392157 0 0.30588235
0.06519608 0 0.29411765
0.17622549 0 0.27843137
0.32843137 0 0.25490196
0.50563725 0.00539216 0.21568627
0.64117647 0.01960784 0.16372549
0.77941176 0.04534314 0.08970588
0.92156863 0.07647059 0.00392157
0.00392157 0.08186275 0.37990196
0.0328125 0.07745098 0.37208946
0.10416667 0.07009804 0.36421569
0.22107843 0.0622549 0.3495098
0.36544118 0.05441176 0.32720588
0.52166054 0.03710172 0.29234069
0.64117647 0.01176471 0.24362745
0.7754902 0.03532475 0.16764706
0.91764706 0.06691176 0.05441176
0.05833333 0.19803922 0.42696078
0.08878676 0.19417892 0.42371324
0.15098039 0.19019608 0.41862745
0.25790441 0.17843137 0.40686275
0.40441176 0.1627451 0.38651961
0.54503676 0.13590686 0.35349265
0.65796569 0.09681373 0.30784314
0.77873775 0.04080882 0.23621324
0.91568627 0.06078431 0.11862745
0.04338235 0.35 0.47573529
0.05637255 0.34730392 0.47377451
0.16807598 0.34368873 0.46985294
0.30416667 0.33477328 0.46127451
0.45343137 0.31985294 0.44558824
0.57493873 0.290625 0.42058824
0.68523284 0.24166667 0.37935049
0.80220588 0.17141544 0.31348039
0.92156863 0.0754902 0.19656863
0.08235294 0.49803922 0.52058824
0.14154412 0.49803922 0.51875
0.24852941 0.4995098 0.51666667
0.3754902 0.50196078 0.50919118
0.49803922 0.49803922 0.49754902
0.60416667 0.48357843 0.47904412
0.71617647 0.45588235 0.44901961
0.83321078 0.39166667 0.39460784
0.95196078 0.27058824 0.28529412
0.28137255 0.62892157 0.56421569
0.31234681 0.63039216 0.56421569
0.37377451 0.63039216 0.56029412
0.45490196 0.63039216 0.5551777
0.54460784 0.62965686 0.54460784
0.64123775 0.62254902 0.5296875
0.74730392 0.61372549 0.50686275
0.85833333 0.5908701 0.46764706
0.97916667 0.5377451 0.37205882
0.41715686 0.75490196 0.6122549
0.43278186 0.75490196 0.61078431
0.46948529 0.75490196 0.60833333
0.52714461 0.75637255 0.60294118
0.60196078 0.75784314 0.59485294
0.68841912 0.75490196 0.58033088
0.78272059 0.75098039 0.56090686
0.88357843 0.73921569 0.52622549
0.99754902 0.70784314 0.45588235
0.53431373 0.87107843 0.66911765
0.54558824 0.87156863 0.66862745
0.5723652 0.87156863 0.66519608
0.61755515 0.875 0.66127451
0.67696078 0.8754902 0.65343137
0.74705882 0.87916667 0.64157475
0.825 0.87941176 0.62156863
0.91427696 0.8754902 0.59019608
1 0.86372549 0.52205882
0.69019608 0.98823529 0.74313725
0.69779412 0.98823529 0.74313725
0.71372549 0.98823529 0.74117647
0.74044118 0.99215686 0.73921569
0.77843137 0.99607843 0.73137255
0.82745098 1 0.72352941
0.8872549 1 0.70784314
0.95735294 1 0.68210784
1 1 0.60980392
0 0 0.44607843
0 0 0.43823529
0.03431373 0 0.43039216
0.14607843 0 0.42254902
0.3 0 0.40098039
0.47990196 0 0.36856618
0.61556373 0.0067402 0.32389706
0.75637255 0.02352941 0.25471814
0.90441176 0.05735294 0.13382353
0 0.08578431 0.49920343
0.01530331 0.07810202 0.496875
0.07175245 0.07009804 0.49272365
0.19136029 0.06206342 0.48491881
0.33823529 0.0504902 0.47239583
0.496875 0.03088235 0.4495098
0.61372549 0.0064951 0.41323529
0.74852941 0.01439951 0.35067402
0.89264706 0.04166667 0.23921569
0.02843137 0.20588235 0.53480392
0.05894608 0.20200674 0.53419118
0.12634804 0.19803922 0.53026961
0.22806373 0.18627451 0.52414216
0.37990196 0.16862745 0.51348039
0.52173713 0.1377451 0.49604779
0.63324142 0.0924326 0.46908701
0.75333946 0.03350184 0.42084865
0.88688725 0.03137255 0.31715686
0.02009804 0.35784314 0.57101716
0.03571538 0.35784314 0.57009804
0.11666667 0.35392157 0.56709559
0.27254902 0.34550398 0.5622549
0.42990196 0.33039216 0.55321691
0.55498621 0.3002068 0.53895527
0.66571691 0.2495098 0.5176777
0.77959559 0.17126225 0.4805913
0.89411765 0.06372549 0.39901961
0.02279412 0.49803922 0.60808824
0.07622549 0.5 0.60808824
0.20833333 0.50196078 0.60557598
0.34730392 0.50196078 0.6002451
0.47708333 0.49938725 0.59203431
0.58578431 0.48872549 0.58036152
0.69877451 0.46280637 0.56084559
0.81461397 0.40122549 0.53137255
0.92745098 0.2745098 0.47156863
0.24215686 0.62892157 0.65
0.27615656 0.63039216 0.64908088
0.34627757 0.63039216 0.64699755
0.43290441 0.63039216 0.64215686
0.52576593 0.63039216 0.63477328
0.62346814 0.62254902 0.62346814
0.7307598 0.61372549 0.60663297
0.84148284 0.59068627 0.57910539
0.9598652 0.53382353 0.52751225
0.39203431 0.75098039 0.69375
0.40922181 0.75392157 0.69264706
0.44721201 0.75392157 0.69203431
0.50784314 0.75490196 0.68811275
0.58333333 0.75490196 0.68088235
0.67159926 0.75490196 0.67159926
0.76712623 0.75098039 0.65618873
0.8685049 0.73872549 0.62959559
0.98431373 0.70392157 0.57830882
0.51470588 0.86764706 0.74313725
0.52647059 0.86764706 0.74313725
0.55553002 0.86925551 0.73921569
0.60031403 0.87156863 0.73872549
0.66127451 0.87435662 0.73137255
0.73137255 0.8754902 0.72352941
0.81178002 0.8754902 0.71087623
0.89944853 0.87156863 0.68560049
1 0.85851716 0.63333333
0.68235294 0.98431373 0.80539216
0.68970588 0.98431373 0.80539216
0.70551471 0.98431373 0.80539216
0.73278186 0.98823529 0.80147059
0.77058824 0.99215686 0.79754902
0.81868873 0.99607843 0.79215686
0.8754902 1 0.78186275
0.94558824 1 0.7622549
1 1 0.70882353
0 0 0.55098039
0 0 0.54705882
0.01176471 0 0.54607843
0.11764706 0 0.53860294
0.27009804 0 0.53039216
0.45294118 0 0.51176471
0.58627451 0 0.48823529
0.7254902 0.00441176 0.44852941
0.87352941 0.02647059 0.34901961
0 0.09840686 0.5939951
0.00392157 0.09313725 0.59276961
0.04865196 0.08158701 0.59007353
0.16433824 0.07192096 0.58506434
0.31501225 0.05790441 0.57708333
0.47686887 0.03480392 0.56262255
0.59408701 0.00735294 0.54292279
0.72231924 0.00392157 0.51148897
0.85919118 0.01568627 0.44852941
0.01397059 0.22156863 0.62745098
0.02935049 0.21764706 0.6252451
0.09368873 0.21096814 0.62377451
0.19681373 0.20196078 0.61985294
0.35747549 0.18284314 0.6120098
0.50410539 0.15098039 0.60015319
0.61703431 0.10018382 0.5817402
0.73419118 0.03676471 0.55382966
0.85882353 0.01176471 0.50294118
0.00110294 0.36960784 0.6622549
0.00620404 0.36960784 0.66041667
0.05125613 0.36568627 0.65870098
0.23313419 0.36066176 0.65519301
0.40465686 0.34761029 0.64865196
0.53549326 0.3166973 0.63803615
0.64865196 0.26727941 0.62285539
0.76390931 0.18419118 0.59745711
0.87414216 0.06617647 0.55281863
0 0.50196078 0.69901961
0.01078431 0.50196078 0.69754902
0.14742647 0.50392157 0.69595588
0.3122549 0.50588235 0.69313725
0.45269608 0.50490196 0.68651961
0.56495098 0.49411765 0.67775735
0.68026961 0.47205882 0.66384804
0.79834559 0.41758578 0.64240196
0.91176471 0.29019608 0.6
0.18137255 0.63039216 0.73578431
0.22647059 0.63039216 0.73578431
0.30686275 0.63039216 0.73468137
0.40461091 0.63284314 0.73186275
0.50147059 0.63039216 0.72683824
0.60340074 0.62647059 0.7189951
0.71259191 0.61470588 0.70667892
0.82443321 0.59117647 0.68573836
0.94264706 0.5377451 0.64840686
0.35882353 0.75098039 0.7745098
0.37830882 0.75098039 0.7745098
0.42034314 0.75392157 0.77352941
0.48259804 0.75392157 0.77058824
0.5627451 0.75490196 0.76666667
0.65281863 0.75490196 0.75955882
0.7502451 0.75073529 0.7502451
0.85251225 0.73872549 0.73201593
0.96789216 0.70392157 0.69607843
0.49411765 0.86629902 0.81715686
0.50588235 0.86715686 0.81666667
0.53406863 0.86764706 0.81666667
0.58247549 0.86764706 0.81323529
0.64209559 0.87156863 0.80931373
0.71568627 0.87156863 0.80497855
0.79650735 0.87414216 0.79448529
0.88606005 0.8709712 0.77869179
0.99252451 0.85490196 0.74362745
0.67352941 0.98039216 0.87058824
0.67843137 0.98039216 0.86801471
0.69411765 0.98259804 0.86764706
0.72340686 0.98431373 0.86764706
0.76078431 0.98823529 0.86372549
0.80931373 0.99215686 0.85980392
0.86764706 0.99607843 0.85514706
0.93419118 1 0.84019608
1 1 0.80490196
0 0 0.64411765
0 0 0.64362745
0 0 0.64019608
0.09068627 0 0.63970588
0.24681373 0 0.63186275
0.42775735 0 0.62009804
0.56531863 0 0.60355392
0.70294118 0 0.57738971
0.84313725 0.00784314 0.53039216
0 0.11758578 0.68719363
0 0.1127451 0.68676471
0.02555147 0.10125613 0.68633578
0.12974112 0.08943781 0.68257506
0.28970588 0.07356005 0.67693015
0.4571921 0.04667586 0.66672794
0.57676164 0.01196385 0.65179228
0.70202206 0 0.62831648
0.83921569 0.00392157 0.58872549
0.00392157 0.24117647 0.7185049
0.01401654 0.23742341 0.7185049
0.05447304 0.23140319 0.71813725
0.16127451 0.22175245 0.71458333
0.32689951 0.20588235 0.71047794
0.48394608 0.17317708 0.70159314
0.59996936 0.11911765 0.68982843
0.71835172 0.04852941 0.66988358
0.83921569 0.00392157 0.63137255
0 0.38155637 0.75214461
0 0.38155637 0.75214461
0.00289522 0.38137255 0.75196078
0.17794118 0.37745098 0.7495098
0.37156863 0.36832108 0.74430147
0.51256127 0.33999694 0.73793658
0.62936581 0.2910386 0.72789522
0.74822304 0.21035539 0.71040135
0.85863971 0.07941176 0.6776348
0 0.50588235 0.78504902
0 0.50612745 0.78504902
0.03272059 0.50980392 0.78480392
0.26446078 0.51191789 0.78284314
0.42156863 0.51004902 0.77904412
0.54117647 0.50196078 0.77328431
0.65857843 0.48400735 0.76495098
0.78088235 0.44068627 0.75125613
0.89779412 0.31421569 0.72230392
0.07389706 0.63284314 0.82009804
0.14558824 0.63431373 0.82009804
0.25183824 0.63431373 0.81795343
0.36744792 0.63694853 0.81636029
0.47303922 0.6346201 0.81372549
0.57830116 0.63039216 0.80932138
0.69131434 0.62169118 0.80196078
0.80602788 0.59875153 0.79003523
0.9254902 0.54589461 0.7653799
0.31531863 0.75098039 0.85281863
0.33823529 0.75392157 0.85245098
0.38416054 0.75392157 0.85245098
0.4529565 0.75490196 0.85159314
0.53578431 0.75490196 0.84852941
0.62959559 0.75490196 0.84483762
0.73033088 0.75098039 0.83979779
0.83556985 0.73921569 0.82881434
0.95257353 0.70784314 0.8057598
0.46329657 0.86372549 0.89068627
0.47543658 0.86372549 0.89068627
0.5067402 0.86715686 0.89068627
0.55633425 0.86764706 0.8872549
0.6216299 0.87107843 0.88704044
0.69581036 0.87156863 0.88333333
0.77794118 0.87156863 0.87898284
0.87075674 0.87064951 0.86807598
0.97996324 0.85196078 0.84761029
0.65882353 0.97647059 0.93382353
0.66666667 0.97647059 0.93382353
0.68235294 0.97647059 0.93382353
0.71194853 0.98039216 0.93382353
0.75073529 0.98431373 0.93382353
0.79754902 0.98823529 0.92990196
0.85588235 0.99215686 0.92598039
0.92598039 1 0.9216299
1 1 0.89509804
0 0.00392157 0.74117647
0 0 0.74117647
0 0 0.7372549
0.05588235 0 0.7372549
0.21764706 0 0.73333333
0.40294118 0 0.7254902
0.53921569 0 0.71372549
0.67941176 0 0.69411765
0.82352941 0 0.6627451
0 0.14803922 0.77990196
0 0.14025735 0.77990196
0.00772059 0.13235294 0.77990196
0.0908701 0.11844363 0.77647059
0.25661765 0.10098039 0.77598039
0.43431373 0.07224265 0.76844363
0.55784314 0.02683824 0.76029412
0.67941176 0 0.74460784
0.81568627 0 0.71715686
0 0.27254902 0.80784314
0.00392157 0.26862745 0.80784314
0.03112745 0.26078431 0.80784314
0.10796569 0.25294118 0.80784314
0.2872549 0.2372549 0.80392157
0.45784314 0.20833333 0.8
0.58063725 0.15392157 0.79215686
0.70159314 0.07205882 0.77941176
0.81568627 0 0.75588235
0 0.39852941 0.83921569
0 0.39852941 0.83921569
0 0.39852941 0.83921569
0.08976716 0.39852941 0.8377451
0.32352941 0.39313725 0.83529412
0.48290441 0.37506127 0.83137255
0.60772059 0.33002451 0.82598039
0.73253676 0.25 0.81568627
0.84558824 0.10686275 0.79607843
0 0.51568627 0.87058824
0 0.51764706 0.87058824
0 0.51764706 0.87058824
0.18112745 0.52156863 0.86862745
0.37941176 0.52352941 0.86666667
0.51004902 0.51764706 0.86470588
0.63333333 0.50196078 0.85882353
0.75980392 0.46642157 0.85098039
0.88235294 0.35686275 0.83529412
0 0.63823529 0.90196078
0.00943627 0.63823529 0.90196078
0.14938725 0.64215686 0.8995098
0.30980392 0.64607843 0.8995098
0.43284314 0.64607843 0.89803922
0.54558824 0.64215686 0.89803922
0.66580882 0.63431373 0.89411765
0.78529412 0.61421569 0.88756127
0.90980392 0.56372549 0.8745098
0.23823529 0.75490196 0.93333333
0.2682598 0.75490196 0.93333333
0.32647059 0.75784314 0.93333333
0.40625 0.75882353 0.93333333
0.49705882 0.76176471 0.93039216
0.59607843 0.76176471 0.93039216
0.70318627 0.75882353 0.92941176
0.81237745 0.74963235 0.92254902
0.93333333 0.71960784 0.91078431
0.41323529 0.86372549 0.96519608
0.42800245 0.86372549 0.96519608
0.4627451 0.86715686 0.96519608
0.51715686 0.86764706 0.96519608
0.58676471 0.87156863 0.96519608
0.66470588 0.875 0.96519608
0.75134804 0.8754902 0.96470588
0.84761029 0.87156863 0.96127451
0.96078431 0.85588235 0.95294118
0.63529412 0.96862745 1
0.64313725 0.96862745 1
0.66176471 0.96862745 1
0.69019608 0.97254902 1
0.73137255 0.97647059 1
0.78186275 0.98039216 1
0.84019608 0.98529412 1
0.91029412 0.99215686 1
1 1 1
