Kodak Converted/Kodak E-100 GX Ektachrome 100.cube
# Exported with LUT Lab 1.2.1
# LUTLab.com
TITLE Kodak E-100 GX Ektachrome 100
LUT_3D_SIZE 33
0 0 0
0.00968137 0 0
0.02328431 0 0
0.04080882 0 0
0.05833333 0 0
0.07977941 0 0
0.10122549 0 0
0.12487745 0 0
0.15490196 0 0
0.18125 0 0
0.20661765 0 0
0.23590686 0 0
0.26372549 0 0
0.29485294 0 0
0.32426471 0 0
0.36102941 0 0
0.39215686 0 0
0.42340686 0 0
0.45833333 0 0
0.48946078 0 0
0.52058824 0 0
0.54901961 0 0
0.58284314 0.00392157 0
0.61397059 0.00392157 0
0.64509804 0.00392157 0
0.67340686 0.00392157 0
0.70269608 0.00392157 0
0.73063725 0.00392157 0
0.76127451 0.00784314 0
0.78897059 0.00784314 0
0.81617647 0.00784314 0
0.84522059 0.00784314 0
0.84705882 0.00784314 0
0.0057598 0.01752451 0
0.02328431 0.01360294 0
0.04080882 0.01360294 0
0.05833333 0.00968137 0
0.07954963 0.00968137 0
0.10001915 0.00968137 0
0.12044271 0.00818781 0
0.14240196 0.0057598 0
0.16948529 0.0057598 0
0.19485294 0.00392157 0
0.21964614 0.00183824 0
0.24591376 0.00183824 0
0.27340686 0 0
0.30269608 0 0
0.33119638 0 0
0.36495098 0 0
0.39699755 0 0
0.42726333 0 0
0.45833333 0 0
0.49149433 0 0
0.5245098 0 0
0.54901961 0 0
0.58553922 0.00065104 0
0.61482843 0.00392157 0
0.64509804 0.00392157 0
0.67340686 0.00392157 0
0.70269608 0.00392157 0
0.73063725 0.00392157 0
0.75784314 0.00784314 0
0.78664216 0.00784314 0
0.81617647 0.00772825 0
0.84338235 0.00784314 0
0.84705882 0.00784314 0
0.01936275 0.03897059 0.00392157
0.03296569 0.03504902 0.00392157
0.0504902 0.03481924 0.00392157
0.0682598 0.03112745 0.00367647
0.08946078 0.02766544 0.00367647
0.11090686 0.02720588 0
0.1316636 0.02328431 0
0.15232843 0.02328431 0
0.18216912 0.01936275 0
0.20477941 0.01855852 0
0.23007047 0.01544118 0
0.25608915 0.01176471 0
0.28318015 0.01151961 0
0.31387102 0.01151961 0
0.33984375 0.00770527 0
0.37254902 0.00392157 0
0.40183824 0.00183824 0
0.43112745 0 0
0.4622549 0 0
0.49338235 0 0
0.5245098 0 0
0.54901961 0 0
0.58676471 0 0
0.61482843 0.00392157 0
0.64509804 0.00392157 0
0.67340686 0.00392157 0
0.70269608 0.00392157 0
0.73063725 0.00392157 0
0.75784314 0.00784314 0
0.78664216 0.00784314 0
0.81593137 0.00392157 0
0.84338235 0.00784314 0
0.84705882 0.00784314 0
0.03688725 0.06593137 0.00943627
0.04865196 0.0620098 0.00943627
0.06017157 0.06041667 0.00784314
0.078642 0.05808824 0.00784314
0.09914216 0.05445772 0.00784314
0.11954274 0.05257353 0.00551471
0.1417356 0.0502451 0.00551471
0.16343827 0.04799709 0.00392157
0.19059436 0.04473039 0.00392157
0.21472503 0.04080882 0.00392157
0.23958333 0.03738511 0.00159314
0.2653148 0.0343099 0
0.29364277 0.03063725 0
0.32230392 0.02882583 0
0.34938725 0.02291667 0
0.38218061 0.01727941 0
0.41060049 0.01335784 0
0.43902037 0.00943627 0
0.46707261 0.00551471 0
0.49519378 0.00181143 0
0.52550551 0 0
0.55061275 0 0
0.58676471 0 0
0.61789216 0.00392157 0
0.64509804 0.00392157 0
0.67340686 0.00392157 0
0.70269608 0.00392157 0
0.73063725 0.00392157 0
0.75784314 0.00441176 0
0.78664216 0.00784314 0
0.81593137 0.00392157 0
0.84129902 0.00784314 0
0.84313725 0.00784314 0
0.05441176 0.09313725 0.01960784
0.06617647 0.0915288 0.01911765
0.07769608 0.08921569 0.01911765
0.08786765 0.08558517 0.01568627
0.10925245 0.08229167 0.01519608
0.13026961 0.08137255 0.01519608
0.15211397 0.07754289 0.01176471
0.17440257 0.07648591 0.01176471
0.20159314 0.07095588 0.01127451
0.22400429 0.06885723 0.00784314
0.24960172 0.06332721 0.00784314
0.2756587 0.06122855 0.00681679
0.3026348 0.05784314 0.00392157
0.33325674 0.05359988 0.00392157
0.35906863 0.04779412 0.00343137
0.39180453 0.03872549 0
0.41936275 0.03455882 0
0.44692096 0.02696078 0
0.47594975 0.02132353 0
0.50470282 0.01519608 0
0.53216912 0.00765931 0
0.55637255 0.00392157 0
0.58676471 0 0
0.61789216 0.00392157 0
0.64509804 0.00392157 0
0.67340686 0.00392157 0
0.70269608 0.00392157 0
0.73063725 0.00392157 0
0.75784314 0.00441176 0
0.78664216 0.00784314 0
0.81593137 0.00392157 0
0.84129902 0.00392157 0
0.84313725 0.00392157 0
0.07585784 0.12291667 0.03272059
0.08370098 0.12034314 0.03272059
0.09154412 0.11658241 0.03272059
0.10490196 0.11587393 0.02879902
0.1185049 0.1125 0.02879902
0.13995098 0.10857843 0.02487745
0.16458333 0.1051394 0.02487745
0.18466988 0.10355392 0.02280561
0.21014093 0.09938725 0.02095588
0.23414139 0.09490273 0.01960784
0.25852482 0.08977482 0.01703431
0.28471584 0.08722044 0.01528416
0.31309743 0.08209252 0.01176471
0.3416705 0.0770795 0.00919118
0.36816023 0.07252604 0.0084329
0.40016468 0.06401271 0.00776271
0.42616422 0.05692402 0.00392157
0.45469899 0.04983532 0.00392157
0.48262102 0.041322 0.00279565
0.51065794 0.03284697 0
0.539231 0.02340686 0
0.56213235 0.01703431 0
0.59380362 0.00876991 0
0.61875 0.00392157 0
0.64610907 0.00392157 0
0.67437577 0.00392157 0
0.70269608 0.00392157 0
0.73063725 0.00392157 0
0.75784314 0.00392157 0
0.78664216 0.00784314 0
0.81593137 0.00392157 0
0.84129902 0.00392157 0
0.84313725 0.00392157 0
0.09730392 0.15539216 0.0502451
0.10475643 0.1531633 0.0502451
0.1127451 0.15147059 0.04636949
0.12242647 0.14944087 0.04632353
0.13602941 0.14754902 0.04313725
0.15146293 0.14362745 0.04240196
0.17559743 0.13970588 0.03848039
0.19473039 0.13807445 0.03848039
0.22181373 0.13186275 0.03455882
0.2446921 0.12794118 0.03386183
0.26913297 0.12401961 0.03063725
0.29522825 0.11948529 0.02671569
0.32374387 0.11372549 0.02306985
0.35294118 0.10833333 0.01960784
0.37843137 0.10220588 0.01887255
0.40806526 0.09264706 0.01495098
0.43688725 0.08517157 0.01176471
0.46259957 0.07708333 0.01102941
0.49149816 0.06911765 0.00784314
0.52016697 0.05838695 0.00710784
0.54776348 0.04831495 0.00392157
0.57181373 0.04166667 0.00318627
0.6022212 0.02648591 0
0.62643229 0.01887255 0
0.65140931 0.01004902 0
0.67622549 0.00392157 0
0.70343137 0.00392157 0
0.73063725 0.00392157 0
0.75784314 0.00392157 0
0.78664216 0.00392157 0
0.81593137 0.00392157 0
0.84129902 0.00392157 0
0.84313725 0.00392157 0
0.11593137 0.17977941 0.06102941
0.12227711 0.17977941 0.06051241
0.13137255 0.17696078 0.05992647
0.13946078 0.17585784 0.05710784
0.15073529 0.17303922 0.05710784
0.16433824 0.17193627 0.05318627
0.18578431 0.16822151 0.05229013
0.20441176 0.16519608 0.04926471
0.2314951 0.16127451 0.04816176
0.25379902 0.15735294 0.04534314
0.2790671 0.15343137 0.04142157
0.30521982 0.14558824 0.0375
0.33365502 0.14166667 0.03463542
0.3623583 0.13382353 0.02965686
0.38811275 0.12769608 0.02903646
0.41703431 0.1208678 0.02463235
0.4442402 0.11170343 0.02071078
0.47148055 0.10253906 0.01682368
0.49927237 0.09227175 0.01507353
0.52722503 0.08210784 0.01286765
0.55551471 0.07066483 0.00894608
0.57757353 0.06213235 0.00784314
0.6094133 0.04914216 0.00467984
0.63468137 0.03553922 0.00171952
0.65796569 0.02264093 0.00082721
0.68235294 0.01115196 0
0.70432751 0.00481771 0
0.73198529 0.00392157 0
0.75880821 0.00392157 0
0.78664216 0.00392157 0
0.81593137 0.00392157 0
0.84129902 0.00392157 0
0.84313725 0.00392157 0
0.12941176 0.21764706 0.07745098
0.1372549 0.21470588 0.0745098
0.14485294 0.21372549 0.0745098
0.15453431 0.21372549 0.07352941
0.16813725 0.20992647 0.07352941
0.1817402 0.20980392 0.07058824
0.19926471 0.20588235 0.06960784
0.21801471 0.20266544 0.06666667
0.24436275 0.1997549 0.06568627
0.26740196 0.19739583 0.06253064
0.29258578 0.19209559 0.06176471
0.32135417 0.18627451 0.05784314
0.34901961 0.18235294 0.05392157
0.37622549 0.17806373 0.05
0.40171569 0.17058824 0.04650735
0.43054534 0.16262255 0.04215686
0.45784314 0.15294118 0.03823529
0.48507966 0.14313725 0.03431373
0.5122549 0.13137255 0.02910539
0.5395527 0.11997549 0.02352941
0.56666667 0.1067402 0.0192402
0.58823529 0.09607843 0.01568627
0.61783088 0.08308824 0.01176471
0.64457721 0.06948529 0.01078431
0.66764706 0.05367647 0.00759804
0.69203431 0.03835784 0.00392157
0.71446078 0.02181373 0.00294118
0.73783701 0.01078431 0
0.76127451 0.00392157 0
0.78897059 0.00392157 0
0.8161152 0.00392157 0
0.84129902 0.00392157 0
0.84313725 0.00392157 0
0.13333333 0.24877451 0.09105392
0.14157858 0.24877451 0.09105392
0.14901961 0.24877451 0.08732384
0.15896523 0.24485294 0.08713235
0.17598039 0.24485294 0.08713235
0.1935049 0.24093137 0.08522135
0.21188725 0.24093137 0.08321078
0.23051471 0.2370098 0.08321078
0.25477941 0.23308824 0.07928922
0.28014706 0.23223039 0.07776118
0.30551471 0.22647059 0.07536765
0.33408012 0.22132353 0.07144608
0.3620864 0.21740196 0.06752451
0.38946078 0.21311275 0.06637944
0.41139706 0.20735294 0.0631204
0.44328661 0.19779412 0.05955882
0.46905637 0.19191176 0.0557598
0.49782093 0.18210784 0.05183824
0.52365962 0.17082567 0.0439951
0.55228631 0.15894608 0.04007353
0.57826287 0.14534314 0.03468137
0.6 0.13504902 0.03223039
0.62894455 0.11813725 0.02438725
0.65337393 0.10061275 0.02046569
0.67711397 0.0870098 0.01632966
0.70085784 0.06948529 0.01200597
0.72373621 0.05196078 0.00854013
0.74661841 0.03357843 0.00583257
0.76643689 0.01616115 0.00392157
0.79056373 0.00602405 0.0003485
0.81617647 0.00392157 0
0.84338235 0.00392157 0
0.84705882 0.00392157 0
0.1372549 0.28382353 0.10465686
0.14836857 0.28382353 0.10465686
0.15931373 0.28382353 0.10465686
0.17291667 0.27990196 0.10465686
0.1877451 0.27990196 0.10229779
0.20446538 0.27855392 0.10073529
0.2254902 0.27598039 0.10073529
0.24217984 0.27399663 0.09963235
0.26838235 0.27113971 0.09681373
0.29375 0.26813725 0.09289216
0.31911765 0.26421569 0.09289216
0.34613205 0.26010263 0.08897059
0.37454044 0.25392157 0.08504902
0.4006204 0.24852941 0.08112745
0.425 0.2439185 0.07892157
0.45383732 0.23672641 0.07328431
0.48112745 0.22892157 0.07132353
0.50837163 0.22107843 0.06556373
0.53553922 0.21083027 0.06151961
0.56285999 0.20035999 0.05759804
0.58995098 0.18746936 0.05367647
0.61053922 0.17671569 0.0497549
0.64044118 0.15710784 0.04191176
0.66458333 0.14227941 0.0379902
0.68792892 0.12205882 0.03014706
0.71063879 0.10453431 0.02622549
0.73307292 0.0870098 0.01937806
0.75509344 0.06556373 0.01488205
0.77696078 0.04411765 0.01053922
0.79790901 0.02316942 0.0071155
0.81985294 0.00644914 0.00392157
0.84522059 0.00392157 0.00269608
0.84705882 0.00392157 0.00269608
0.15747549 0.32279412 0.12156863
0.16560585 0.31919807 0.1182598
0.17683824 0.31887255 0.1182598
0.18651961 0.31887255 0.1182598
0.20343137 0.31887255 0.1182598
0.21878447 0.31495098 0.1182598
0.23909314 0.31495098 0.11433824
0.25490196 0.31102941 0.11433824
0.28198529 0.30772059 0.11041667
0.30807675 0.30638404 0.11028263
0.3349954 0.30318627 0.1064951
0.3614928 0.2987477 0.10588235
0.38714767 0.29327512 0.10257353
0.4130553 0.2880553 0.09865196
0.4379902 0.28171722 0.09644608
0.46680836 0.27563189 0.09473039
0.49246324 0.26789216 0.09080882
0.52134268 0.26006817 0.08688725
0.54742647 0.2504902 0.08125
0.57579274 0.24044118 0.0754902
0.60170037 0.22743566 0.07120098
0.62352941 0.21752451 0.06727941
0.65281863 0.20061275 0.06213235
0.67684972 0.18639706 0.05637255
0.69963235 0.16887255 0.05159314
0.72107843 0.14803922 0.04392233
0.74314491 0.12598039 0.03640472
0.76397059 0.10453431 0.03198529
0.78583027 0.07916667 0.02406556
0.80686275 0.05539216 0.01764323
0.82830882 0.02839308 0.01233915
0.84738434 0.00813036 0.00784314
0.84767157 0.00784314 0.00784314
0.175 0.35784314 0.13578431
0.18284314 0.35784314 0.13578431
0.19068627 0.35784314 0.13578431
0.20304841 0.35537684 0.13578431
0.21764706 0.35392157 0.13333333
0.23517157 0.35392157 0.13186275
0.25269608 0.35045956 0.13186275
0.27132353 0.35 0.13117341
0.29669118 0.34669118 0.12794118
0.32181373 0.34575674 0.12740502
0.34901961 0.34215686 0.12401961
0.37561275 0.33823529 0.12340686
0.40006127 0.33431373 0.12009804
0.42634804 0.33025429 0.11617647
0.44828431 0.32426471 0.11397059
0.47720588 0.31708027 0.10833333
0.50514706 0.31004902 0.10710784
0.5316636 0.30151654 0.10441176
0.55965074 0.29255515 0.1004902
0.58639706 0.28200061 0.09656863
0.61323529 0.27009804 0.09209559
0.63382353 0.25980392 0.08872549
0.66473652 0.24534314 0.08088235
0.68786765 0.23120404 0.07696078
0.71139706 0.21421569 0.06911765
0.73468137 0.19669118 0.06519608
0.75612745 0.1745098 0.05735294
0.77757353 0.148269 0.05035233
0.79901961 0.121875 0.04166667
0.81801471 0.09376532 0.03382353
0.83808211 0.06338848 0.02582721
0.85698529 0.03419118 0.01813725
0.85882353 0.03235294 0.01813725
0.19644608 0.39289216 0.14938725
0.20240119 0.39289216 0.14938725
0.21188725 0.39289216 0.14938725
0.22156863 0.39289216 0.14938725
0.23517157 0.38897059 0.14938725
0.24877451 0.38897059 0.14546569
0.27022059 0.38897059 0.14546569
0.28602941 0.38531327 0.14546569
0.31311275 0.38504902 0.14252451
0.33848039 0.38112745 0.14154412
0.36373315 0.38112745 0.13873315
0.38921569 0.37720588 0.13762255
0.41311275 0.37328431 0.13370098
0.4396178 0.36936275 0.13366651
0.46188725 0.36560202 0.12977941
0.49068627 0.3579542 0.12585784
0.51783088 0.35189951 0.12371324
0.54522059 0.34584482 0.12193627
0.57226562 0.33643536 0.11801471
0.59963235 0.32692632 0.11409314
0.62536765 0.31704963 0.10870098
0.64742647 0.30698529 0.10625
0.67610294 0.29118413 0.10110294
0.70061275 0.27647059 0.09563036
0.72291667 0.26259191 0.09056373
0.74691713 0.24507889 0.08664216
0.76943168 0.22389706 0.07879902
0.79105009 0.20011872 0.07230392
0.81230086 0.17271752 0.06654412
0.83014706 0.14154412 0.05541896
0.85122549 0.11004902 0.04718137
0.86892233 0.07519531 0.0358341
0.87058824 0.07169118 0.03566176
0.21446078 0.4245098 0.1629902
0.22113205 0.4245098 0.16127451
0.22794118 0.4245098 0.16127451
0.23868719 0.4245098 0.16127451
0.25125613 0.42058824 0.16127451
0.2685049 0.42058824 0.15906863
0.28602941 0.42058824 0.15906863
0.30465686 0.4201057 0.15735294
0.32892157 0.41666667 0.15514706
0.35428922 0.41629136 0.15477175
0.37691483 0.4127451 0.15191483
0.40137102 0.41102941 0.15095741
0.42564338 0.40882353 0.14813113
0.44983915 0.40474112 0.14714308
0.47377451 0.40001532 0.14434743
0.50262714 0.39534314 0.14166667
0.52879902 0.39031863 0.1377451
0.55710784 0.38363205 0.13387714
0.58334865 0.37670037 0.12990196
0.61168045 0.3682598 0.12790288
0.63789828 0.35940564 0.12515319
0.65710784 0.3504902 0.12205882
0.68647365 0.3375 0.11813725
0.71115196 0.32389706 0.11287531
0.73523284 0.30692402 0.10802696
0.75796569 0.29105392 0.10245098
0.77982537 0.27132353 0.09820772
0.80230545 0.24987745 0.09144455
0.8245098 0.22429534 0.08284314
0.84375 0.19509804 0.07659314
0.86348039 0.16004902 0.06704963
0.87983303 0.12107843 0.05642616
0.88063725 0.11740196 0.05539216
0.23946078 0.4629902 0.17659314
0.24718137 0.4629902 0.17659314
0.25478707 0.4629902 0.17659314
0.26446078 0.4629902 0.17659314
0.27806373 0.4629902 0.17648591
0.29166667 0.45919118 0.17267157
0.30929075 0.45906863 0.17267157
0.32781863 0.45906863 0.1726371
0.35113358 0.45906863 0.16875
0.37352941 0.45514706 0.16875
0.39497549 0.45514706 0.16862745
0.41701517 0.45122549 0.16482843
0.44031863 0.45122549 0.16470588
0.46360294 0.44730392 0.16090686
0.48897059 0.44338235 0.15870098
0.51777344 0.43946078 0.15698529
0.5432598 0.43553922 0.15306373
0.57230775 0.42793735 0.15294501
0.59784773 0.42377451 0.14914216
0.62327282 0.41641008 0.14522059
0.65007659 0.40821078 0.14129902
0.67071078 0.40416667 0.14117647
0.70057445 0.39129902 0.13615196
0.72472809 0.3807598 0.13345588
0.75003064 0.36801471 0.12855392
0.77156863 0.35061275 0.12279412
0.79372702 0.33306526 0.11776961
0.81834023 0.31294807 0.11384804
0.83982843 0.28959865 0.1060049
0.85960861 0.2608341 0.09982767
0.87879902 0.22745098 0.09043352
0.89632353 0.19049862 0.08253294
0.89816176 0.18860294 0.08247549
0.26666667 0.5 0.19411765
0.27346814 0.5 0.19411765
0.28026961 0.49816176 0.19227941
0.28903186 0.49803922 0.19019608
0.30147059 0.49803922 0.19019608
0.31703431 0.49803922 0.19019608
0.33259804 0.49803922 0.18860294
0.34785539 0.49748775 0.18627451
0.36960784 0.49411765 0.18627451
0.39105392 0.49411765 0.18235294
0.41127451 0.49215686 0.18235294
0.43394608 0.49019608 0.17843137
0.45539216 0.4870098 0.17843137
0.47898284 0.48609069 0.1745098
0.50269608 0.48235294 0.17340686
0.5314951 0.47843137 0.17058824
0.55686275 0.4745098 0.16666667
0.5841299 0.47058824 0.16476716
0.61041667 0.46384804 0.1627451
0.63670343 0.45900735 0.15900735
0.6622549 0.45220588 0.15808824
0.68235294 0.44705882 0.15490196
0.71164216 0.43664216 0.15098039
0.73596814 0.4278799 0.14705882
0.76029412 0.41715686 0.14313725
0.7846201 0.40447304 0.13976716
0.80698529 0.38946078 0.13529412
0.83131127 0.37193627 0.13137255
0.85343137 0.3502451 0.12745098
0.87487745 0.3247549 0.12040441
0.89436275 0.29362745 0.11360294
0.91280637 0.25765931 0.10484069
0.91372549 0.25490196 0.10392157
0.2939951 0.5370098 0.20772059
0.30171569 0.5370098 0.20772059
0.30575214 0.5370098 0.20772059
0.31514629 0.5370098 0.20772059
0.32535233 0.5370098 0.20772059
0.33848039 0.53696768 0.20772059
0.35588235 0.53308824 0.20379902
0.36678922 0.53308824 0.20379902
0.38713235 0.53308824 0.20379902
0.40857843 0.53306143 0.19987745
0.42610294 0.52916667 0.19987745
0.44754902 0.52916667 0.19595588
0.46907169 0.5252451 0.19595588
0.49436275 0.52512255 0.19203431
0.51629902 0.52132353 0.18982843
0.54509804 0.51740196 0.18811275
0.57046569 0.51348039 0.18419118
0.59583333 0.50955882 0.18026961
0.62291667 0.50558364 0.17634804
0.65012255 0.49815028 0.17279412
0.67348346 0.49387255 0.17242647
0.6939951 0.48982843 0.1685049
0.72270987 0.4807981 0.16458333
0.74720818 0.47117417 0.16161535
0.7705576 0.46246936 0.15971201
0.79494102 0.45180377 0.1567402
0.82022059 0.43894761 0.15281863
0.84174709 0.4245098 0.14889706
0.86371017 0.40698529 0.14497549
0.88848039 0.38553922 0.13872549
0.90992647 0.35980392 0.13321078
0.92745098 0.3247549 0.12714844
0.92928922 0.32107843 0.12536765
0.32328431 0.57205882 0.2252451
0.32801011 0.57205882 0.2252451
0.33273591 0.57205882 0.2252451
0.34056373 0.57205882 0.2252451
0.35045956 0.57205882 0.2252451
0.3625 0.57205882 0.22132353
0.37426471 0.57205882 0.22132353
0.38823529 0.57143842 0.22132353
0.40465686 0.56813725 0.21838235
0.42303922 0.56813725 0.21740196
0.44362745 0.56813725 0.21740196
0.46507353 0.56421569 0.21348039
0.48651961 0.56421569 0.21348039
0.50817249 0.56029412 0.20955882
0.52990196 0.56029412 0.20735294
0.55876991 0.55637255 0.20563725
0.58406863 0.55245098 0.20171569
0.60943627 0.54852941 0.19784773
0.635769 0.54460784 0.19682904
0.66017157 0.54068627 0.19387255
0.68553922 0.5359375 0.18995098
0.70588235 0.53063725 0.18602941
0.73304228 0.52225797 0.18210784
0.75772059 0.51543352 0.17818627
0.78180147 0.50667892 0.17426471
0.80611979 0.49596354 0.17034314
0.82990196 0.48537071 0.16642157
0.85279565 0.47316176 0.16384804
0.87671569 0.45784314 0.16050858
0.89816176 0.43811275 0.15625
0.91974571 0.41666667 0.15073529
0.94105392 0.39012714 0.14681373
0.94289216 0.3872549 0.14681373
0.34865196 0.60710784 0.24276961
0.35257353 0.60710784 0.24276961
0.3564951 0.60710784 0.24276961
0.36433824 0.60710784 0.24276961
0.37218137 0.60710784 0.24276961
0.38370481 0.60710784 0.23884804
0.39497549 0.60710784 0.23884804
0.4057598 0.6061083 0.23884804
0.42610294 0.60318627 0.23884804
0.44334023 0.60318627 0.23492647
0.46115196 0.60318627 0.23492647
0.47928922 0.59926471 0.2310049
0.50257353 0.59926471 0.2310049
0.5254902 0.59856388 0.22708333
0.54742647 0.59534314 0.22708333
0.57242647 0.59142157 0.22316176
0.59785539 0.59123775 0.2192402
0.62303922 0.5875 0.2192402
0.64840686 0.58357843 0.21531863
0.67344133 0.57965686 0.21139706
0.69669118 0.57559743 0.20969669
0.71727941 0.57144608 0.20747549
0.74351256 0.5638557 0.20355392
0.76768919 0.55612745 0.19963235
0.79276961 0.5481924 0.19571078
0.81447993 0.54017693 0.19178922
0.83965227 0.5314951 0.18779871
0.86372932 0.51813343 0.18370481
0.88644301 0.50433517 0.17610294
0.90821078 0.48713235 0.17218137
0.92987898 0.4692402 0.1682598
0.95110294 0.44571078 0.16433824
0.95294118 0.44203431 0.16433824
0.37401961 0.64215686 0.26029412
0.37794118 0.64215686 0.26029412
0.38186275 0.64068627 0.26029412
0.38825061 0.64068627 0.26029412
0.39491422 0.63854167 0.26029412
0.40539216 0.63823529 0.26029412
0.41642157 0.63823529 0.2583027
0.42720588 0.63823529 0.25637255
0.44362745 0.63823529 0.25637255
0.46115196 0.63823529 0.25637255
0.47867647 0.63507966 0.25245098
0.49805453 0.63431373 0.25245098
0.52009804 0.63431373 0.24908088
0.54301471 0.63039216 0.24852941
0.5627451 0.63039216 0.24525123
0.58982843 0.62647059 0.24453125
0.6125 0.62647059 0.24068627
0.63664216 0.62254902 0.23681066
0.6611826 0.61862745 0.23676471
0.68345588 0.61507353 0.23284314
0.70790441 0.61323529 0.22892157
0.72696078 0.60833333 0.22892157
0.75462623 0.60294118 0.22423407
0.77708333 0.59710478 0.22107843
0.80134804 0.59056373 0.21715686
0.8256587 0.58333333 0.21323529
0.84926471 0.5747549 0.20931373
0.87231924 0.56262255 0.20539216
0.89607843 0.55147059 0.19883578
0.91897978 0.53541667 0.19422488
0.94151348 0.51789216 0.1895527
0.96286765 0.49644608 0.18255208
0.96470588 0.49460784 0.18186275
0.39215686 0.66666667 0.27843137
0.39607843 0.66666667 0.27843137
0.4 0.66666667 0.2745098
0.40551471 0.66666667 0.2745098
0.41176471 0.66666667 0.2745098
0.42095588 0.66666667 0.2745098
0.43137255 0.66666667 0.2745098
0.4442402 0.66666667 0.2745098
0.45882353 0.6627451 0.27156863
0.47536765 0.6627451 0.27058824
0.49289216 0.6627451 0.27058824
0.51433824 0.6627451 0.26666667
0.53431373 0.66029412 0.26666667
0.55723039 0.65882353 0.2627451
0.5752451 0.65882353 0.2627451
0.6002451 0.65490196 0.25882353
0.6254902 0.65490196 0.25882353
0.64693627 0.65098039 0.25490196
0.67009804 0.64705882 0.25318627
0.69375 0.64705882 0.25098039
0.71666667 0.64313725 0.24705882
0.7372549 0.63921569 0.24313725
0.76323529 0.63406863 0.24191176
0.78651961 0.62745098 0.23921569
0.80882353 0.62254902 0.23529412
0.83308824 0.61568627 0.23137255
0.85637255 0.60784314 0.22745098
0.8810049 0.59742647 0.22352941
0.90294118 0.5877451 0.21911765
0.92622549 0.57414216 0.21176471
0.94926471 0.55661765 0.20784314
0.97071078 0.53909314 0.20183824
0.97254902 0.5372549 0.2
0.42205882 0.70441176 0.29926471
0.42532935 0.70441176 0.29926471
0.42867647 0.70441176 0.29926471
0.43309589 0.70441176 0.29926471
0.44044118 0.70441176 0.29926471
0.44870558 0.70441176 0.29926471
0.45931373 0.70318627 0.29926471
0.46933977 0.70318627 0.29622396
0.48449755 0.7004902 0.29534314
0.50012255 0.7004902 0.29534314
0.51764706 0.7004902 0.29348958
0.53517157 0.7004902 0.29142157
0.55661765 0.69972426 0.29142157
0.57806373 0.69656863 0.2875
0.59607843 0.69656863 0.2875
0.62095588 0.69534314 0.28357843
0.64240196 0.69264706 0.28223039
0.66384804 0.69264706 0.27965686
0.68529412 0.68872549 0.27696078
0.7067402 0.68505668 0.27573529
0.73088235 0.68333333 0.27181373
0.74901961 0.68088235 0.27181373
0.775 0.67696078 0.26789216
0.79855239 0.67303922 0.26397059
0.82089461 0.6661152 0.26004902
0.84519761 0.66127451 0.25647212
0.86763174 0.65343137 0.25320159
0.89007353 0.6460095 0.24870558
0.91436887 0.63740809 0.24436275
0.9363894 0.62647825 0.24044118
0.95850184 0.61127451 0.23374694
0.97977941 0.59518229 0.22867647
0.98161765 0.59460784 0.22867647
0.44620098 0.73553922 0.32071078
0.45012255 0.73553922 0.32071078
0.45318627 0.73553922 0.32071078
0.45796569 0.73553922 0.32071078
0.46456801 0.73553922 0.31996017
0.473089 0.73553922 0.31879979
0.48133425 0.73553922 0.31678922
0.49130285 0.73467754 0.31678922
0.50796569 0.73247549 0.31678922
0.52156863 0.73161765 0.31593137
0.53909314 0.73161765 0.31286765
0.55661765 0.73161765 0.31286765
0.57414216 0.73161765 0.31009498
0.59558824 0.72855392 0.30894608
0.61360294 0.72769608 0.30846354
0.63455882 0.72769608 0.30502451
0.6560049 0.72463235 0.30416667
0.67745098 0.72377451 0.30110294
0.69889706 0.72243413 0.3002451
0.72034314 0.71985294 0.29718137
0.74178922 0.71593137 0.2932598
0.75992647 0.71593137 0.2932598
0.78494945 0.7120098 0.28933824
0.80698529 0.70808824 0.28541667
0.8314951 0.70318627 0.2814951
0.85355775 0.69742647 0.28063725
0.87581955 0.69240196 0.27614124
0.8997549 0.68455882 0.27279412
0.92205882 0.67660846 0.26848958
0.94532399 0.66654412 0.26313189
0.96806832 0.6560049 0.25791207
0.98783318 0.64096584 0.25318627
0.98823529 0.64056373 0.25318627
0.47254902 0.76568627 0.34215686
0.47594975 0.76568627 0.34215686
