Kodak Converted/Kodak Ektachrome 100 VS.cube
# Exported with LUT Lab 1.2.1
# LUTLab.com
TITLE Kodak Ektachrome 100 VS
LUT_3D_SIZE 9
0 0 0
0.03480392 0 0
0.11960784 0 0
0.26764706 0 0
0.43529412 0 0
0.6122549 0 0
0.76764706 0 0
0.92647059 0 0
1 0 0
0.02303922 0.05441176 0.01127451
0.07395833 0.0504902 0.00735294
0.18970588 0.04656863 0
0.32205882 0.04001225 0
0.48210784 0.03088235 0
0.64344363 0.01911765 0
0.79105392 0.00772059 0
0.94607843 0 0
1 0 0
0.08921569 0.18627451 0.07843137
0.13480392 0.18235294 0.06960784
0.22622549 0.17843137 0.05073529
0.35784314 0.16666667 0.02647059
0.51127451 0.15245098 0.00735294
0.66176471 0.12536765 0
0.80588235 0.0872549 0
0.95428922 0.03811275 0
1 0.01176471 0
0.1122549 0.33431373 0.13970588
0.17058824 0.33284314 0.13363971
0.275 0.32892157 0.12009804
0.40343137 0.32254902 0.10140931
0.54362745 0.31004902 0.07818627
0.68382353 0.28878676 0.06127451
0.82156863 0.25772059 0.06127451
0.96568627 0.21078431 0.05735294
1 0.16813725 0.05735294
0.23529412 0.48627451 0.17843137
0.27622549 0.48627451 0.17279412
0.35784314 0.48480392 0.1627451
0.46323529 0.48112745 0.15098039
0.58627451 0.4745098 0.13627451
0.71470588 0.4627451 0.12352941
0.84705882 0.44460784 0.1254902
0.98137255 0.41151961 0.14313725
1 0.37843137 0.15882353
0.36372549 0.63431373 0.23284314
0.38939951 0.63186275 0.22892157
0.44754902 0.63039216 0.21715686
0.53333333 0.63039216 0.19754902
0.64460784 0.62647059 0.16813725
0.76127451 0.61862745 0.14810049
0.88578431 0.60686275 0.14117647
1 0.5846201 0.16911765
1 0.56127451 0.20539216
0.48039216 0.77058824 0.2872549
0.49987745 0.77058824 0.28333333
0.54509804 0.77058824 0.2754902
0.61580882 0.77058824 0.25980392
0.70882353 0.77058824 0.23627451
0.81360294 0.76666667 0.20735294
0.93137255 0.75882353 0.16642157
1 0.74705882 0.15723039
1 0.73137255 0.19509804
0.6245098 0.90686275 0.33333333
0.63627451 0.90686275 0.32990196
0.66764706 0.90686275 0.32291667
0.72107843 0.90686275 0.31158088
0.79117647 0.90686275 0.29460784
0.87647059 0.90508578 0.27352941
0.97757353 0.90294118 0.24362745
1 0.89552696 0.20784314
1 0.89117647 0.17303922
0.83137255 1 0.37254902
0.83872549 1 0.36862745
0.85784314 1 0.36470588
0.88872549 1 0.36078431
0.93529412 1 0.34901961
0.99362745 1 0.33578431
1 1 0.31764706
1 1 0.29362745
1 1 0.27058824
0 0 0.02303922
0.01519608 0 0.02303922
0.08958333 0 0.02303922
0.23627451 0 0.01519608
0.40612745 0 0.00735294
0.58351716 0 0.00392157
0.7432598 0 0.00392157
0.90735294 0 0.00735294
1 0 0.00784314
0.01176471 0.05392157 0.05784314
0.0508655 0.04656863 0.05054381
0.16655944 0.04217218 0.03835784
0.29944853 0.03480392 0.02647059
0.45882353 0.02306985 0.01476716
0.61905637 0.01176471 0.0057981
0.77069547 0.00392157 0.00390625
0.93001685 0 0
1 0 0.00343137
0.07745098 0.18627451 0.12009804
0.12303922 0.18235294 0.1122549
0.21081495 0.1745098 0.09656863
0.34252451 0.16666667 0.08088235
0.49368873 0.14724265 0.06519608
0.64252451 0.12144608 0.04558824
0.79019608 0.08066789 0.02925858
0.94252451 0.03382353 0.0182598
1 0.01078431 0.01556373
0.09197304 0.33431373 0.16715686
0.15447304 0.33069853 0.16292892
0.26335784 0.32708333 0.1515625
0.39185049 0.3216299 0.13607537
0.53079044 0.30701593 0.125
0.66832108 0.28670343 0.11960784
0.80980392 0.25551471 0.11176471
0.954519 0.20833333 0.10784314
1 0.16421569 0.09871324
0.22352941 0.48627451 0.20367647
0.26617647 0.48627451 0.19954044
0.3495098 0.48498775 0.18995098
0.45410539 0.48128064 0.1760723
0.57843137 0.4745098 0.16421569
0.70309436 0.46078431 0.16421569
0.83333333 0.44074755 0.17254902
0.96985294 0.40931373 0.18777574
1 0.37843137 0.19754902
0.36372549 0.63431373 0.23658088
0.38939951 0.63431373 0.23110447
0.44754902 0.63431373 0.21997549
0.53333333 0.63039216 0.20421262
0.63887868 0.62647059 0.19185049
0.75507812 0.61862745 0.18089001
0.8760723 0.60625 0.18737745
0.99672947 0.58286612 0.22712163
1 0.55980392 0.25588235
0.48039216 0.7745098 0.2872549
0.49987745 0.7745098 0.28333333
0.54534314 0.7745098 0.2754902
0.61778493 0.77058824 0.25980392
0.70882353 0.77058824 0.23627451
0.81531863 0.76666667 0.20735294
0.92843137 0.7620098 0.18419118
1 0.74669118 0.20225184
1 0.72745098 0.25833333
0.6245098 0.90686275 0.33382353
0.63627451 0.90686275 0.32990196
0.67058824 0.90686275 0.3254902
0.72107843 0.90686275 0.31388634
0.79289216 0.90686275 0.29632353
0.87794118 0.90686275 0.27497702
0.97794118 0.90294118 0.24656863
1 0.89901961 0.20784314
1 0.89117647 0.1877451
0.83137255 1 0.37254902
0.83921569 1 0.37254902
0.85882353 1 0.36862745
0.89264706 1 0.36078431
0.93897059 1 0.34901961
0.99754902 1 0.33578431
1 1 0.31764706
1 1 0.29362745
1 1 0.2745098
0 0 0.10490196
0 0 0.10490196
0.06102941 0 0.10171569
0.2127451 0 0.08921569
0.38676471 0 0.06960784
0.56764706 0 0.05392157
0.73137255 0 0.04607843
0.8995098 0 0.04215686
1 0 0.04313725
0.00085784 0.04656863 0.14007353
0.02423407 0.04215686 0.13627451
0.13872549 0.03480392 0.12441789
0.27512255 0.02696078 0.1084712
0.43878676 0.01911765 0.08658088
0.60084252 0.00784314 0.06911765
0.75511642 0.00343137 0.05343137
0.91862745 0 0.03426777
1 0 0.03039216
0.05318627 0.17843137 0.19803922
0.09656863 0.17493873 0.19338235
0.17977941 0.17058824 0.18180147
0.31544118 0.15919118 0.16439951
0.47058824 0.14313725 0.14460784
0.62254902 0.11531863 0.12352941
0.77395833 0.07628676 0.1
0.93048407 0.02990196 0.07610294
1 0.00784314 0.06176471
0.06813725 0.33039216 0.24791667
0.10637255 0.32708333 0.24474571
0.22892157 0.32254902 0.23786765
0.36237745 0.31493566 0.2254136
0.50477941 0.30238971 0.21323529
0.64497549 0.28117341 0.20147059
0.78909314 0.25159314 0.18970588
0.94215686 0.20441176 0.17009804
1 0.16176471 0.15294118
0.1872549 0.48627451 0.26960784
0.23333333 0.48431373 0.26862745
0.32058824 0.48235294 0.26568627
0.42683824 0.47665441 0.26470588
0.5495098 0.46789216 0.26151961
0.67720588 0.45490196 0.26127451
0.81029412 0.43676471 0.26372549
0.95245098 0.40563725 0.26372549
1 0.3745098 0.26176471
0.34803922 0.63431373 0.27745098
0.37196691 0.63431373 0.27352941
0.42830882 0.63431373 0.26960784
0.51516544 0.63039216 0.26568627
0.61960784 0.62273284 0.26642157
0.73051471 0.61470588 0.28039216
0.84938725 0.59901961 0.29607843
0.97561275 0.57581189 0.32005208
1 0.55588235 0.33382353
0.48039216 0.77843137 0.29019608
0.49987745 0.77843137 0.2872549
0.54607843 0.77818627 0.27843137
0.61663603 0.7745098 0.26439951
0.70502451 0.77156863 0.25784314
0.80453431 0.76666667 0.25392157
0.90955882 0.75827206 0.27101716
1 0.73893995 0.32303922
1 0.71985294 0.36593137
0.6245098 0.91078431 0.33382353
0.63970588 0.91078431 0.33333333
0.67058824 0.91078431 0.32598039
0.72469363 0.91078431 0.31421569
0.79460784 0.91078431 0.29828431
0.88039216 0.91078431 0.275
0.97892157 0.90686275 0.24656863
1 0.89901961 0.23688725
1 0.8872549 0.28713235
0.83921569 1 0.37254902
0.84693627 1 0.37254902
0.86568627 1 0.36862745
0.89656863 1 0.36078431
0.94313725 1 0.3504902
1 1 0.3372549
1 1 0.31764706
1 1 0.29411765
1 1 0.2745098
0 0 0.18676471
0 0 0.18676471
0.0314951 0 0.17953431
0.18676471 0 0.16323529
0.36740196 0 0.13970588
0.55196078 0 0.11709559
0.71960784 0 0.10159314
0.89117647 0 0.09234069
0.99607843 0 0.08872549
0 0.03872549 0.23204657
0.00708487 0.03480392 0.228125
0.10458027 0.02696078 0.21384804
0.24674479 0.01966912 0.19423254
0.41544118 0.01176471 0.16691176
0.58157169 0.00392157 0.14185049
0.74108456 0 0.11609988
0.90686275 0 0.09172794
1 0 0.08088235
0.02254902 0.17095588 0.29558824
0.06237745 0.17058824 0.29024203
0.14644608 0.1627451 0.27613358
0.28443627 0.1533701 0.25742953
0.44534314 0.13694853 0.23284314
0.60094975 0.11029412 0.20392157
0.75526961 0.07156863 0.17009804
0.91862745 0.02544424 0.13480392
1 0.00392157 0.11727941
0.04613971 0.32254902 0.35300245
0.0701057 0.3216299 0.35
0.17843137 0.31729473 0.34146752
0.32704504 0.3098652 0.32738971
0.47496936 0.29632353 0.31050858
0.61954657 0.27702206 0.29096967
0.76852022 0.24767157 0.26663603
0.92647059 0.20060509 0.23609069
1 0.15692402 0.2127451
0.10416667 0.47720588 0.39313725
0.15965074 0.4752451 0.39117647
0.265625 0.4745098 0.3872549
0.3838848 0.46890319 0.38210784
0.51286765 0.46017157 0.3754902
0.64653799 0.44856005 0.3671875
0.78504902 0.43088235 0.35588235
0.93431373 0.40171569 0.34166667
1 0.37254902 0.32990196
0.28284314 0.62647059 0.40490196
0.31029412 0.62647059 0.40490196
0.37205882 0.62254902 0.40490196
0.46387102 0.61883425 0.40769761
0.57202819 0.61470588 0.40882353
0.68919271 0.60464154 0.4127451
0.81565564 0.59117647 0.41421569
0.95055147 0.57126225 0.41568627
1 0.5495098 0.41568627
0.44865196 0.7745098 0.37107843
0.46703431 0.7745098 0.37107843
0.51004902 0.77058824 0.375
0.57843137 0.76836703 0.38353248
0.66176471 0.7627451 0.39552696
0.7583027 0.75634191 0.41107537
0.86323529 0.74659926 0.4328125
0.98146446 0.7292739 0.45606618
1 0.7127451 0.47193627
0.625 0.91470588 0.3372549
0.63976716 0.91470588 0.33382353
0.67156863 0.91470588 0.32683824
0.725 0.91470588 0.31684283
0.79246324 0.91470588 0.30833333
0.87273284 0.91078431 0.31238511
0.96015625 0.90307904 0.33380821
1 0.8877068 0.40449602
1 0.87334559 0.46305147
0.84705882 1 0.37647059
0.853125 1 0.37254902
0.87058824 1 0.36862745
0.90441176 1 0.3622549
0.94901961 1 0.35294118
1 1 0.3372549
1 1 0.32156863
1 1 0.29785539
1 1 0.27843137
0 0 0.26862745
0 0 0.26078431
0.01078431 0 0.25294118
0.16176471 0 0.22941176
0.34705882 0 0.20392157
0.53382353 0 0.17843137
0.70441176 0 0.15882353
0.87965686 0 0.14313725
0.98823529 0 0.13921569
0 0.03088235 0.31911765
0 0.02696078 0.31176471
0.06960784 0.02156863 0.29571078
0.21632966 0.01568627 0.27224265
0.39093137 0.00870098 0.24178922
0.5604473 0.00382966 0.21194853
0.72352941 0 0.18223039
0.89166667 0 0.15091912
0.99779412 0 0.13529412
0.00294118 0.16519608 0.38921569
0.02751225 0.1627451 0.38137255
0.11519608 0.15539216 0.36568627
0.25073529 0.14705882 0.34362745
0.41813725 0.13137255 0.31446078
0.57769608 0.1057598 0.28125
0.73578431 0.06446078 0.24276961
0.90251225 0.01862745 0.20098039
1 0.00294118 0.17745098
0.02598039 0.31470588 0.45735294
0.04436275 0.31470588 0.45171569
0.12199755 0.31078431 0.44166667
0.28606005 0.30294118 0.42356005
0.44276961 0.29080882 0.4004902
0.59313725 0.27101716 0.3754902
0.74650735 0.24234069 0.34522059
0.90710784 0.19518995 0.30833333
1 0.15245098 0.27818627
0.05882353 0.46666667 0.5127451
0.09166667 0.46666667 0.50980392
0.19803922 0.46593137 0.50220588
0.33627451 0.46213235 0.49154412
0.4754902 0.45441176 0.47794118
0.61568627 0.44313725 0.4620098
0.75906863 0.42622549 0.44313725
0.9120098 0.39767157 0.41960784
1 0.36862745 0.40196078
0.18210784 0.61470588 0.54901961
0.22215074 0.61470588 0.5479473
0.30159314 0.61348039 0.54528186
0.4075674 0.61078431 0.53995098
0.52659314 0.60465686 0.53210784
0.65223652 0.59705882 0.52380515
0.78504902 0.58443627 0.51323529
0.92647059 0.56436887 0.50147059
1 0.54411765 0.49362745
0.35784314 0.75882353 0.55686275
0.38002451 0.75882353 0.55686275
0.43039216 0.75686275 0.55833333
0.50833333 0.75490196 0.55980392
0.60245098 0.75098039 0.55931373
0.70906863 0.74485294 0.55931373
0.82365196 0.73566176 0.55931373
0.9504902 0.72316176 0.56127451
1 0.70784314 0.56372549
0.57647059 0.90686275 0.46691176
0.58973652 0.90686275 0.46911765
0.61887255 0.90514706 0.475
0.66862745 0.90294118 0.48495711
0.73088235 0.89914216 0.49987745
0.80833333 0.89509804 0.52009804
0.89497549 0.8872549 0.54485294
0.9950674 0.8754902 0.5721201
1 0.86372549 0.59411765
0.85294118 1 0.37647059
0.85882353 1 0.37647059
0.87843137 1 0.37254902
0.91102941 1 0.36470588
0.95490196 1 0.35294118
1 1 0.34117647
1 1 0.32303922
1 1 0.30147059
1 1 0.33921569
0 0 0.34264706
0 0 0.33480392
0 0 0.32696078
0.12984069 0 0.30343137
0.32205882 0 0.27401961
0.5127451 0 0.24705882
0.68713235 0 0.22401961
0.86421569 0 0.2036152
0.97647059 0 0.19362745
0 0.02303922 0.40490196
0 0.01911765 0.39705882
0.02530637 0.01519608 0.37879902
0.18070619 0.01127451 0.35392157
0.36176471 0.00499387 0.31951593
0.53615962 0 0.28596814
0.70281863 0 0.25219056
0.87579657 0 0.21621477
0.98431373 0 0.1973652
0 0.15882353 0.47892157
0.00379902 0.15490196 0.47107843
0.07830882 0.14767157 0.45183824
0.21173407 0.13921569 0.42835478
0.3870098 0.12352941 0.39515931
0.551731 0.09921875 0.35919118
0.71458333 0.05906863 0.31617647
0.88377757 0.01433824 0.26666667
0.99178922 0 0.23970588
0.01121324 0.31023284 0.54901961
0.02255668 0.30686275 0.54509804
0.08938419 0.30294118 0.5314951
0.24209559 0.29754902 0.51150429
0.41029412 0.28532475 0.48553922
0.56560202 0.26617647 0.45547641
0.72311581 0.23811275 0.42144608
0.8877451 0.19117647 0.37628676
0.99607843 0.14852941 0.34270833
0.00514706 0.4627451 0.61127451
0.03529412 0.46004902 0.60735294
0.12702206 0.45882353 0.5995098
0.2877451 0.45490196 0.58483456
0.43848039 0.44705882 0.56813725
0.58455882 0.43802083 0.54806985
0.73400735 0.42107843 0.52310049
0.89148284 0.39362745 0.49338235
0.99460784 0.36397059 0.47009804
0.06464461 0.60686275 0.65876225
0.11176471 0.60686275 0.65784314
0.22734375 0.60686275 0.65300245
0.35392157 0.60294118 0.6442019
0.48458946 0.59901961 0.63262868
0.61770833 0.59117647 0.61862745
0.75582108 0.57941176 0.60294118
0.90294118 0.55980392 0.58333333
0.99607843 0.54019608 0.56764706
0.26813725 0.74705882 0.69313725
0.29715074 0.74705882 0.69203431
0.36029412 0.74705882 0.68921569
0.44963235 0.74558824 0.68529412
0.55318627 0.74313725 0.67806373
0.6661152 0.73797488 0.67242647
0.78909314 0.73054534 0.66458333
0.92254902 0.71568627 0.65439645
1 0.70098039 0.6495098
0.47892157 0.88756127 0.68088235
0.49411765 0.8872549 0.68088235
0.53102022 0.8872549 0.68088235
0.58676471 0.8872549 0.68206189
0.66029412 0.88348652 0.68480392
0.74816942 0.88197763 0.68529412
0.84742647 0.8754902 0.68921569
0.95831036 0.86764706 0.69705882
1 0.85588235 0.7036152
0.85882353 1 0.38186275
0.86666667 1 0.37941176
0.88419118 1 0.38186275
0.9122549 1 0.38425245
0.95147059 1 0.39142157
0.99607843 1 0.41035539
1 1 0.46323529
1 1 0.54540441
1 1 0.62009804
0 0 0.42058824
0 0 0.4127451
0 0 0.40098039
0.09301471 0 0.375
0.29166667 0 0.34411765
0.48860294 0 0.31323529
0.66568627 0 0.28627451
0.84852941 0 0.25980392
0.96470588 0 0.24705882
0 0.01911765 0.48284314
0 0.01519608 0.475
0.00294118 0.01127451 0.45931373
0.14157475 0.00735294 0.42971814
0.33002451 0.00343137 0.39289216
0.5097886 0 0.35588235
0.68112745 0 0.31727941
0.86012561 0 0.27457108
0.97120098 0 0.25196078
0 0.15098039 0.56078431
0 0.14705882 0.55294118
0.03927696 0.14313725 0.53333333
0.16881127 0.13247549 0.50707721
0.35428922 0.11715686 0.47009804
0.52435662 0.09215686 0.42990196
0.69215686 0.05196078 0.38259804
0.8674326 0.01041667 0.32892157
0.97647059 0 0.29485294
0.00245098 0.30294118 0.63480392
0.00784314 0.30257353 0.62830882
0.05707721 0.29901961 0.61519608
0.19129902 0.29117647 0.59189645
0.3752451 0.27941176 0.56256127
0.53627451 0.26133578 0.53045343
0.69972426 0.23336397 0.49071691
0.87071078 0.1872549 0.44068627
0.98039216 0.14068627 0.40134804
0 0.45490196 0.70098039
0 0.45490196 0.69705882
0.06813725 0.45294118 0.68553922
0.23186275 0.45067402 0.66997549
0.3995098 0.44313725 0.65
0.55343137 0.43229167 0.62573529
0.70821078 0.41568627 0.59656863
0.87156863 0.38927696 0.56145833
0.97647059 0.35882353 0.53235294
0.01078431 0.59901961 0.7560049
0.03382353 0.59901961 0.75539216
0.1260723 0.59901961 0.74770221
0.29558824 0.59509804 0.73653493
0.44031863 0.59117647 0.72254902
0.58272059 0.58466605 0.70441176
0.72683824 0.57533701 0.68382353
0.87954963 0.55580576 0.65704657
0.98039216 0.53627451 0.63529412
0.15465686 0.73921569 0.80514706
0.19307598 0.73921569 0.80269608
0.28155637 0.73921569 0.79877451
0.38737745 0.73851103 0.79185049
0.50294118 0.73529412 0.78235294
0.62619485 0.73137255 0.77058824
0.75526961 0.72352941 0.75563725
0.89509804 0.71176471 0.73921569
0.99142157 0.69607843 0.7245098
0.39313725 0.8754902 0.8254902
0.41214767 0.8754902 0.8254902
0.45441176 0.8754902 0.8254902
0.52009804 0.8754902 0.82156863
0.60196078 0.8754902 0.81764706
0.69664522 0.87156863 0.81372549
0.80465686 0.86764706 0.80894608
0.9230239 0.85980392 0.80142463
1 0.85110294 0.79754902
0.73137255 1 0.70588235
0.73921569 1 0.70588235
0.75563725 1 0.70980392
0.78688725 1 0.71372549
0.82794118 1 0.72156863
0.8807598 1 0.73235294
0.94509804 1 0.74509804
1 1 0.76801471
1 1 0.79509804
0 0 0.49068627
0 0 0.48284314
0 0 0.47107843
0.05 0 0.44362745
0.25686275 0 0.41029412
0.4627451 0 0.3754902
0.64595588 0 0.34546569
0.83284314 0 0.31415441
0.95245098 0 0.29803922
0 0.01519608 0.55686275
0 0.01127451 0.54901961
0 0.00735294 0.53333333
0.09695159 0.00388327 0.50196078
0.29515931 0 0.46078431
0.48133425 0 0.41987592
0.65782782 0 0.37909007
0.84068627 0 0.33246783
0.95686275 0 0.30588235
0 0.14313725 0.63480392
0 0.13921569 0.62700674
0.00677083 0.13529412 0.60735294
0.1185049 0.12714461 0.57990196
0.31868873 0.11127451 0.54019608
0.49442402 0.08615196 0.49607843
0.66853554 0.04476103 0.4448223
0.84846814 0.0064951 0.38682598
0.96078431 0 0.34852941
0 0.29509804 0.7127451
0 0.29509804 0.70769761
0.02682292 0.29117647 0.69313725
0.13400735 0.28559283 0.66715686
0.33612132 0.27401961 0.63431373
0.50570619 0.25533088 0.59846814
0.67348346 0.22696078 0.55476409
0.85153186 0.17941176 0.49901961
0.96470588 0.13627451 0.45606618
0 0.45098039 0.78284314
0 0.44880515 0.77892157
0.00128676 0.44705882 0.76715686
0.15980392 0.44313725 0.74837623
0.35551471 0.43823529 0.725
0.51902574 0.42745098 0.69779412
0.68082108 0.41176471 0.66470588
0.85153186 0.38406863 0.62352941
0.96078431 0.35490196 0.59044118
0 0.59509804 0.84509804
0 0.59509804 0.84117647
0.03851103 0.59117647 0.83333333
0.22009804 0.59117647 0.82156863
0.39059436 0.5872549 0.80284926
0.54369638 0.57941176 0.78235294
0.69607843 0.56875 0.75490196
0.85631127 0.55165441 0.72322304
0.96421569 0.53235294 0.6973652
0.01421569 0.73137255 0.89987745
0.05127145 0.73137255 0.8995098
0.1754902 0.73137255 0.89473039
0.31605392 0.73137255 0.8839614
0.44785539 0.72745098 0.87205882
0.58296569 0.72352941 0.85637255
0.72046569 0.71960784 0.83676471
0.86775429 0.70747549 0.81286765
0.96948529 0.69215686 0.79362745
0.29509804 0.86764706 0.94564951
0.31781556 0.86764706 0.94564951
0.37205882 0.86764706 0.94172794
0.44983915 0.86764706 0.93592984
0.54188113 0.86761642 0.92996324
0.64611673 0.86372549 0.91889553
0.76263787 0.85980392 0.90686275
0.89160539 0.85507047 0.89117647
0.98431373 0.84411765 0.87640931
0.62647059 1 0.92647059
0.63431373 1 0.92647059
0.65441176 1 0.92647059
0.68970588 1 0.92647059
0.73872549 1 0.92647059
0.80098039 1 0.92647059
0.875 1 0.92647059
0.95735294 1 0.92647059
1 1 0.93431373
0 0 0.5254902
0 0 0.51764706
0 0 0.50588235
0.02843137 0 0.47843137
0.2372549 0 0.44313725
0.44754902 0 0.40637255
0.63431373 0 0.3754902
0.825 0 0.34117647
0.94509804 0 0.32156863
0 0.01127451 0.59166667
0 0.00784314 0.58382353
0 0.00477941 0.5682598
0.06979167 0.00343137 0.53676471
0.27254902 0 0.49558824
0.46568627 0 0.45294118
0.64595588 0 0.40772059
0.83284314 0 0.35980392
0.94901961 0 0.32941176
0 0.13921569 0.67352941
0 0.13529412 0.66568627
0 0.13137255 0.64607843
0.09411765 0.12107843 0.61580882
0.29607843 0.10588235 0.57352941
0.47855392 0.08223039 0.52990196
0.65392157 0.04093137 0.47573529
0.83933824 0.00392157 0.41421569
0.95294118 0 0.3754902
0 0.29362745 0.75147059
0 0.29117647 0.74626225
0.01433824 0.2872549 0.7307598
0.11470588 0.28333333 0.70441176
0.31176471 0.27083333 0.67034314
0.48676471 0.25349265 0.63143382
0.66078431 0.22414216 0.58578431
0.84068627 0.17726716 0.52745098
0.95686275 0.13039216 0.48088235
0 0.44705882 0.8254902
0 0.44705882 0.81764706
0 0.44313725 0.80588235
0.125 0.44117647 0.78627451
0.32843137 0.43529412 0.76176471
0.49852941 0.4247549 0.73259804
0.66568627 0.40931373 0.69754902
0.84019608 0.38210784 0.65269608
0.95294118 0.35294118 0.61568627
0 0.59117647 0.8877451
0 0.59117647 0.88382353
0.00686275 0.59117647 0.87598039
0.16421569 0.5872549 0.86029412
0.35955882 0.58333333 0.84068627
0.52058824 0.57640931 0.81807598
0.68039216 0.56764706 0.78970588
0.84430147 0.54803922 0.75410539
0.95294118 0.52843137 0.7245098
0 0.73137255 0.94607843
0 0.73051471 0.94509804
0.09828431 0.72745098 0.93823529
0.26531863 0.72745098 0.92794118
0.41666667 0.72745098 0.91470588
0.55686275 0.72352941 0.89754902
0.70098039 0.71568627 0.8747549
0.85588235 0.70392157 0.84754902
0.96078431 0.69215686 0.8245098
0.21421569 0.86372549 0.99656863
0.24852941 0.86372549 0.99607843
0.31421569 0.86372549 0.99264706
0.40343137 0.86372549 0.98872549
0.50490196 0.86372549 0.97867647
0.61764706 0.85980392 0.96734069
0.73958333 0.85882353 0.95245098
0.8754902 0.85196078 0.92990196
0.97254902 0.84411765 0.91421569
0.57254902 1 1
0.58039216 1 1
0.60392157 1 1
0.64166667 1 1
0.69607843 1 1
0.7622549 1 1
0.8372549 1 1
0.92647059 1 1
1 1 1
